(G-CODE GENERATED BY FLATCAM v8.994 - www.flatcam.org - Version Date: 2020/11/7)

(Name: back_copper_0.1705_iso_cnc)
(Type: G-code from Geometry)
(Units: MM)

(Created on Monday, 15 February 2021 at 22:03)

(This preprocessor is the default preprocessor used by FlatCAM.)
(It is made to work with MACH3 compatible motion controllers.)

(TOOL DIAMETER: 0.1705 mm)
(Feedrate_XY: 100.0 mm/min)
(Feedrate_Z: 60.0 mm/min)
(Feedrate rapids 150.0 mm/min)

(Z_Cut: -0.1999 mm)
(DepthPerCut: 0.1 mm <=>2 passes)
(Z_Move: 2.0 mm)
(Z Start: None mm)
(Z End: 20.0 mm)
(X,Y End: None mm)
(Steps per circle: 64)
(Preprocessor Geometry: default)

(X range:    0.0122 ...   78.8981  mm)
(Y range:    0.0362 ...   80.1155  mm)

(Spindle Speed: 12000.0 RPM)
G21
G90
G94

G01 F100.00

M5
G00 Z20.0000
G00 X0.0000 Y0.0000
T1
M6    
(MSG, Change to Tool Dia = 0.1705)
M0
G00 Z20.0000

M03 S12000.0
G01 F100.00
G00 X0.8022 Y11.7389
G01 F60.00
G01 Z-0.1000
G01 F100.00
G01 X0.8709 Y11.3933
G01 X1.1173 Y11.0246
G01 X1.1706 Y10.9889
G01 X1.1872 Y10.9764
G01 X1.2011 Y10.9637
G01 X1.2123 Y10.9515
G01 X1.2163 Y10.9467
G01 X1.2275 Y10.9315
G01 X1.2372 Y10.9155
G01 X1.2400 Y10.9099
G01 X1.2471 Y10.8948
G01 X1.2541 Y10.8752
G01 X1.2587 Y10.8571
G01 X1.2599 Y10.8509
G01 X1.2622 Y10.8344
G01 X1.2631 Y10.8178
G01 X1.2632 Y2.3317
G01 X1.2622 Y2.3109
G01 X1.2595 Y2.2923
G01 X1.2414 Y2.2010
G01 X1.3279 Y1.7661
G01 X1.5743 Y1.3974
G01 X1.9430 Y1.1510
G01 X2.3779 Y1.0645
G01 X2.4693 Y1.0826
G01 X2.4878 Y1.0853
G01 X2.5086 Y1.0863
G01 X6.9462 Y1.0863
G01 X6.9670 Y1.0853
G01 X6.9856 Y1.0826
G01 X7.0769 Y1.0645
G01 X7.5119 Y1.1510
G01 X7.8806 Y1.3974
G01 X7.9323 Y1.4748
G01 X7.9435 Y1.4898
G01 X7.9575 Y1.5052
G01 X11.6675 Y5.2151
G01 X11.6813 Y5.2278
G01 X11.6862 Y5.2317
G01 X11.6996 Y5.2415
G01 X11.7175 Y5.2522
G01 X11.7344 Y5.2603
G01 X11.7402 Y5.2627
G01 X11.7560 Y5.2682
G01 X11.7762 Y5.2732
G01 X11.7968 Y5.2763
G01 X11.8176 Y5.2773
G01 X22.9250 Y5.2773
G01 X22.9458 Y5.2763
G01 X22.9643 Y5.2736
G01 X23.0557 Y5.2555
G01 X23.4069 Y5.3253
G01 X23.4275 Y5.3284
G01 X23.4483 Y5.3294
G01 X23.4691 Y5.3284
G01 X23.4897 Y5.3253
G01 X23.8409 Y5.2555
G01 X24.2759 Y5.3420
G01 X24.6446 Y5.5884
G01 X24.6963 Y5.6658
G01 X24.7075 Y5.6808
G01 X24.7215 Y5.6962
G01 X34.2735 Y15.2481
G01 X34.2889 Y15.2621
G01 X34.3074 Y15.2757
G01 X34.3235 Y15.2852
G01 X34.3385 Y15.2925
G01 X34.3443 Y15.2949
G01 X34.3620 Y15.3012
G01 X34.3801 Y15.3058
G01 X34.3863 Y15.3069
G01 X34.4028 Y15.3093
G01 X34.4236 Y15.3103
G01 X43.1412 Y15.3103
G01 X43.1620 Y15.3093
G01 X43.1806 Y15.3066
G01 X43.2719 Y15.2885
G01 X43.7069 Y15.3750
G01 X44.0756 Y15.6214
G01 X44.1273 Y15.6988
G01 X44.1385 Y15.7138
G01 X44.1525 Y15.7292
G01 X56.1617 Y27.7384
G01 X56.1771 Y27.7524
G01 X56.1922 Y27.7636
G01 X56.2696 Y27.8154
G01 X56.3368 Y27.9160
G01 X56.3466 Y27.9294
G01 X56.3505 Y27.9343
G01 X56.3632 Y27.9481
G01 X56.3770 Y27.9608
G01 X56.3819 Y27.9647
G01 X56.3954 Y27.9745
G01 X56.4114 Y27.9842
G01 X56.4340 Y27.9949
G01 X56.4517 Y28.0012
G01 X56.4698 Y28.0058
G01 X56.4884 Y28.0088
G01 X56.4967 Y28.0096
G01 X56.5133 Y28.0103
G01 X57.1379 Y28.0103
G01 X57.1587 Y28.0093
G01 X57.1814 Y28.0058
G01 X57.1995 Y28.0012
G01 X57.2191 Y27.9942
G01 X57.2380 Y27.9852
G01 X57.2523 Y27.9768
G01 X57.2576 Y27.9733
G01 X57.2693 Y27.9647
G01 X57.2757 Y27.9594
G01 X57.2895 Y27.9466
G01 X57.3033 Y27.9311
G01 X57.3144 Y27.9160
G01 X57.3241 Y27.8999
G01 X57.3323 Y27.8831
G01 X57.3355 Y27.8753
G01 X57.3411 Y27.8596
G01 X57.3457 Y27.8415
G01 X57.3579 Y27.7803
G01 X57.3832 Y27.7423
G01 X57.4212 Y27.7170
G01 X57.4868 Y27.7039
G01 X60.0450 Y27.7039
G01 X60.1107 Y27.7170
G01 X60.1486 Y27.7423
G01 X60.1740 Y27.7803
G01 X60.1870 Y27.8459
G01 X60.1870 Y30.4041
G01 X60.1740 Y30.4697
G01 X60.1486 Y30.5077
G01 X60.1107 Y30.5330
G01 X60.0450 Y30.5461
G01 X57.4868 Y30.5461
G01 X57.4212 Y30.5330
G01 X57.3832 Y30.5077
G01 X57.3579 Y30.4697
G01 X57.3457 Y30.4085
G01 X57.3411 Y30.3904
G01 X57.3355 Y30.3747
G01 X57.3323 Y30.3669
G01 X57.3241 Y30.3501
G01 X57.3144 Y30.3340
G01 X57.3033 Y30.3189
G01 X57.2880 Y30.3019
G01 X57.2742 Y30.2892
G01 X57.2576 Y30.2767
G01 X57.2416 Y30.2668
G01 X57.2342 Y30.2629
G01 X57.2211 Y30.2567
G01 X57.2152 Y30.2543
G01 X57.1975 Y30.2482
G01 X57.1814 Y30.2442
G01 X57.1752 Y30.2431
G01 X57.1587 Y30.2407
G01 X57.1379 Y30.2397
G01 X55.5966 Y30.2397
G01 X55.5758 Y30.2407
G01 X55.5573 Y30.2434
G01 X55.4659 Y30.2615
G01 X55.0310 Y30.1750
G01 X54.6623 Y29.9286
G01 X54.4159 Y29.5599
G01 X54.3246 Y29.1015
G01 X54.3205 Y29.0854
G01 X54.3150 Y29.0697
G01 X54.3126 Y29.0639
G01 X54.3055 Y29.0488
G01 X54.2938 Y29.0291
G01 X54.2801 Y29.0108
G01 X54.2674 Y28.9969
G01 X53.0659 Y27.7954
G01 X53.0520 Y27.7829
G01 X53.0386 Y27.7729
G01 X53.0317 Y27.7682
G01 X53.0155 Y27.7588
G01 X52.9985 Y27.7508
G01 X52.9809 Y27.7445
G01 X52.9628 Y27.7397
G01 X52.9546 Y27.7381
G01 X52.9381 Y27.7357
G01 X52.9173 Y27.7347
G01 X45.0256 Y27.7347
G01 X45.0069 Y27.7357
G01 X44.9884 Y27.7384
G01 X44.9701 Y27.7427
G01 X44.9621 Y27.7451
G01 X44.9465 Y27.7508
G01 X44.9277 Y27.7598
G01 X44.9098 Y27.7705
G01 X44.8963 Y27.7803
G01 X44.8914 Y27.7842
G01 X44.8776 Y27.7969
G01 X44.6790 Y27.9954
G01 X44.3429 Y28.1347
G01 X43.9790 Y28.1347
G01 X43.6428 Y27.9954
G01 X43.3855 Y27.7381
G01 X43.2462 Y27.4019
G01 X43.2462 Y27.0381
G01 X43.3855 Y26.7019
G01 X43.6428 Y26.4446
G01 X43.9790 Y26.3053
G01 X44.3429 Y26.3053
G01 X44.6790 Y26.4446
G01 X44.8776 Y26.6431
G01 X44.8914 Y26.6558
G01 X44.8963 Y26.6597
G01 X44.9098 Y26.6695
G01 X44.9277 Y26.6802
G01 X44.9465 Y26.6892
G01 X44.9621 Y26.6949
G01 X44.9701 Y26.6973
G01 X44.9884 Y26.7016
G01 X45.0069 Y26.7043
G01 X45.0256 Y26.7053
G01 X51.4674 Y26.7052
G01 X51.4862 Y26.7041
G01 X51.5026 Y26.7016
G01 X51.5088 Y26.7003
G01 X51.5229 Y26.6968
G01 X51.5289 Y26.6949
G01 X51.5445 Y26.6892
G01 X51.5596 Y26.6821
G01 X51.5652 Y26.6792
G01 X51.5812 Y26.6695
G01 X51.5980 Y26.6571
G01 X51.6134 Y26.6431
G01 X51.6274 Y26.6277
G01 X51.6398 Y26.6110
G01 X51.6495 Y26.5949
G01 X51.6524 Y26.5893
G01 X51.6586 Y26.5762
G01 X51.6609 Y26.5703
G01 X51.6664 Y26.5546
G01 X51.6706 Y26.5385
G01 X51.6719 Y26.5324
G01 X51.6746 Y26.5138
G01 X51.6756 Y26.4930
G01 X51.6746 Y26.4722
G01 X51.6715 Y26.4516
G01 X51.6670 Y26.4334
G01 X51.6651 Y26.4274
G01 X51.6594 Y26.4118
G01 X51.6505 Y26.3929
G01 X51.6398 Y26.3750
G01 X51.6300 Y26.3616
G01 X51.6260 Y26.3567
G01 X51.6134 Y26.3429
G01 X42.8724 Y17.6019
G01 X42.8570 Y17.5879
G01 X42.8402 Y17.5755
G01 X42.8223 Y17.5648
G01 X42.8073 Y17.5575
G01 X42.8016 Y17.5551
G01 X42.7839 Y17.5488
G01 X42.7657 Y17.5442
G01 X42.7596 Y17.5431
G01 X42.7431 Y17.5407
G01 X42.7223 Y17.5397
G01 X34.0046 Y17.5397
G01 X33.9838 Y17.5407
G01 X33.9653 Y17.5434
G01 X33.8739 Y17.5615
G01 X33.4390 Y17.4750
G01 X33.0703 Y17.2286
G01 X33.0185 Y17.1512
G01 X33.0073 Y17.1362
G01 X32.9933 Y17.1208
G01 X23.7160 Y7.8435
G01 X23.7004 Y7.8297
G01 X23.6870 Y7.8198
G01 X23.6818 Y7.8163
G01 X23.6675 Y7.8079
G01 X23.6524 Y7.8006
G01 X23.6467 Y7.7982
G01 X23.6310 Y7.7926
G01 X23.6088 Y7.7869
G01 X23.4956 Y7.7644
G01 X23.4770 Y7.7617
G01 X23.4583 Y7.7607
G01 X23.4383 Y7.7607
G01 X23.4216 Y7.7615
G01 X23.4154 Y7.7622
G01 X23.4010 Y7.7644
G01 X23.3670 Y7.7711
G01 X23.3448 Y7.7768
G01 X23.3291 Y7.7824
G01 X23.3233 Y7.7849
G01 X23.3083 Y7.7921
G01 X23.2940 Y7.8006
G01 X23.2887 Y7.8040
G01 X23.2737 Y7.8152
G01 X23.2583 Y7.8292
G01 X23.2443 Y7.8447
G01 X23.2319 Y7.8614
G01 X23.2212 Y7.8793
G01 X23.2123 Y7.8981
G01 X23.2052 Y7.9177
G01 X23.2002 Y7.9379
G01 X23.1971 Y7.9585
G01 X23.1961 Y7.9794
G01 X23.1971 Y8.0002
G01 X23.2002 Y8.0208
G01 X23.2052 Y8.0410
G01 X23.2123 Y8.0606
G01 X23.2212 Y8.0794
G01 X23.2319 Y8.0973
G01 X23.2443 Y8.1140
G01 X23.2568 Y8.1280
G01 X31.1392 Y16.0104
G01 X31.1531 Y16.0231
G01 X31.1580 Y16.0270
G01 X31.1697 Y16.0357
G01 X31.1970 Y16.0539
G01 X31.3107 Y16.2242
G01 X31.3507 Y16.4250
G01 X31.3443 Y16.4572
G01 X31.3421 Y16.4716
G01 X31.3415 Y16.4779
G01 X31.3406 Y16.4966
G01 X31.3406 Y30.8239
G01 X31.3416 Y30.8447
G01 X31.3451 Y30.8673
G01 X31.3497 Y30.8855
G01 X31.3553 Y30.9012
G01 X31.3576 Y30.9070
G01 X31.3657 Y30.9239
G01 X31.3752 Y30.9401
G01 X31.3788 Y30.9452
G01 X31.3888 Y30.9586
G01 X31.3999 Y30.9710
G01 X31.5169 Y31.0881
G01 X31.5308 Y31.1008
G01 X31.5457 Y31.1121
G01 X31.5526 Y31.1168
G01 X31.5688 Y31.1262
G01 X31.5877 Y31.1349
G01 X31.6054 Y31.1412
G01 X31.6256 Y31.1462
G01 X31.6462 Y31.1493
G01 X31.6650 Y31.1503
G01 X32.0983 Y31.1503
G01 X32.1171 Y31.1493
G01 X32.1336 Y31.1469
G01 X32.1397 Y31.1458
G01 X32.1579 Y31.1412
G01 X32.1756 Y31.1349
G01 X32.1813 Y31.1325
G01 X32.1963 Y31.1252
G01 X32.2142 Y31.1145
G01 X32.2293 Y31.1034
G01 X32.2341 Y31.0994
G01 X32.2464 Y31.0881
G01 X32.2590 Y31.0743
G01 X32.2716 Y31.0577
G01 X32.3065 Y31.0055
G01 X32.6090 Y30.8034
G01 X32.8758 Y30.7503
G01 X33.8560 Y30.7503
G01 X34.1228 Y30.8034
G01 X34.4254 Y31.0055
G01 X34.6275 Y31.3081
G01 X34.6985 Y31.6650
G01 X34.6275 Y32.0219
G01 X34.4254 Y32.3245
G01 X34.1228 Y32.5266
G01 X33.8560 Y32.5797
G01 X32.8758 Y32.5797
G01 X32.6090 Y32.5266
G01 X32.3065 Y32.3245
G01 X32.2728 Y32.2740
G01 X32.2617 Y32.2589
G01 X32.2478 Y32.2434
G01 X32.2341 Y32.2306
G01 X32.2293 Y32.2266
G01 X32.2142 Y32.2155
G01 X32.1963 Y32.2048
G01 X32.1775 Y32.1958
G01 X32.1599 Y32.1895
G01 X32.1539 Y32.1877
G01 X32.1377 Y32.1838
G01 X32.1212 Y32.1812
G01 X32.1150 Y32.1805
G01 X32.0963 Y32.1797
G01 X31.4375 Y32.1797
G01 X31.4188 Y32.1805
G01 X31.4126 Y32.1812
G01 X31.3982 Y32.1834
G01 X31.3659 Y32.1898
G01 X31.1651 Y32.1498
G01 X30.9949 Y32.0361
G01 X30.9766 Y32.0088
G01 X30.9679 Y31.9970
G01 X30.9640 Y31.9921
G01 X30.9514 Y31.9783
G01 X30.5111 Y31.5381
G01 X30.4988 Y31.5269
G01 X30.4939 Y31.5230
G01 X30.4822 Y31.5143
G01 X30.4549 Y31.4961
G01 X30.3411 Y31.3258
G01 X30.3012 Y31.1250
G01 X30.3075 Y31.0928
G01 X30.3097 Y31.0784
G01 X30.3104 Y31.0721
G01 X30.3112 Y31.0534
G01 X30.3112 Y16.7240
G01 X30.3102 Y16.7053
G01 X30.3079 Y16.6888
G01 X30.3067 Y16.6827
G01 X30.3021 Y16.6645
G01 X30.2951 Y16.6449
G01 X30.2880 Y16.6298
G01 X30.2852 Y16.6242
G01 X30.2755 Y16.6082
G01 X30.2630 Y16.5914
G01 X30.2505 Y16.5775
G01 X30.1436 Y16.4706
G01 X30.1282 Y16.4566
G01 X30.1132 Y16.4454
G01 X30.1079 Y16.4419
G01 X30.0936 Y16.4335
G01 X30.0786 Y16.4263
G01 X30.0728 Y16.4238
G01 X30.0551 Y16.4175
G01 X30.0349 Y16.4125
G01 X30.0143 Y16.4094
G01 X29.9956 Y16.4084
G01 X29.9893 Y16.4085
G01 X29.9727 Y16.4094
G01 X29.9562 Y16.4118
G01 X29.9500 Y16.4129
G01 X29.9319 Y16.4175
G01 X29.9142 Y16.4238
G01 X29.9084 Y16.4263
G01 X29.8934 Y16.4335
G01 X29.8755 Y16.4442
G01 X29.8588 Y16.4566
G01 X29.8464 Y16.4677
G01 X29.8419 Y16.4721
G01 X29.8321 Y16.4828
G01 X29.8268 Y16.4893
G01 X29.8170 Y16.5028
G01 X29.8063 Y16.5206
G01 X29.7973 Y16.5395
G01 X29.7916 Y16.5551
G01 X29.7892 Y16.5631
G01 X29.7857 Y16.5772
G01 X29.7845 Y16.5834
G01 X29.7822 Y16.5999
G01 X29.7812 Y16.6207
G01 X29.7822 Y16.6415
G01 X29.7849 Y16.6601
G01 X29.8107 Y16.7900
G01 X29.8043 Y16.8222
G01 X29.8022 Y16.8366
G01 X29.8015 Y16.8429
G01 X29.8006 Y16.8616
G01 X29.8006 Y37.2838
G01 X29.8016 Y37.3046
G01 X29.8043 Y37.3232
G01 X29.8086 Y37.3414
G01 X29.8111 Y37.3494
G01 X29.8168 Y37.3650
G01 X29.8257 Y37.3839
G01 X29.8364 Y37.4017
G01 X29.8462 Y37.4152
G01 X29.8502 Y37.4201
G01 X29.8628 Y37.4339
G01 X31.6994 Y39.2706
G01 X31.7149 Y39.2846
G01 X31.7299 Y39.2958
G01 X31.7352 Y39.2992
G01 X31.7495 Y39.3077
G01 X31.7645 Y39.3149
G01 X31.7703 Y39.3174
G01 X31.7860 Y39.3230
G01 X31.8041 Y39.3278
G01 X31.8123 Y39.3294
G01 X31.8288 Y39.3317
G01 X31.8496 Y39.3327
G01 X31.8683 Y39.3319
G01 X31.8745 Y39.3312
G01 X31.8910 Y39.3287
G01 X31.9112 Y39.3236
G01 X31.9308 Y39.3166
G01 X31.9459 Y39.3096
G01 X31.9515 Y39.3067
G01 X31.9675 Y39.2970
G01 X31.9843 Y39.2846
G01 X31.9967 Y39.2734
G01 X32.0012 Y39.2691
G01 X32.0110 Y39.2583
G01 X32.0163 Y39.2518
G01 X32.0273 Y39.2366
G01 X32.0378 Y39.2187
G01 X32.0457 Y39.2017
G01 X32.0533 Y39.1801
G01 X32.0578 Y39.1619
G01 X32.1043 Y38.9281
G01 X32.3065 Y38.6255
G01 X32.6090 Y38.4234
G01 X32.8758 Y38.3703
G01 X33.8560 Y38.3703
G01 X34.1228 Y38.4234
G01 X34.4254 Y38.6255
G01 X34.6275 Y38.9281
G01 X34.6985 Y39.2850
G01 X34.6275 Y39.6419
G01 X34.4254 Y39.9445
G01 X34.1228 Y40.1466
G01 X33.8560 Y40.1997
G01 X33.1390 Y40.1997
G01 X33.1203 Y40.2007
G01 X33.1038 Y40.2031
G01 X33.0956 Y40.2047
G01 X33.0775 Y40.2095
G01 X33.0599 Y40.2158
G01 X33.0411 Y40.2248
G01 X33.0232 Y40.2355
G01 X33.0065 Y40.2479
G01 X32.9910 Y40.2619
G01 X32.9770 Y40.2773
G01 X32.9646 Y40.2940
G01 X32.9549 Y40.3101
G01 X32.9450 Y40.3308
G01 X32.9386 Y40.3484
G01 X32.9333 Y40.3685
G01 X32.9304 Y40.3870
G01 X32.9297 Y40.3933
G01 X32.9289 Y40.4078
G01 X32.9289 Y40.4162
G01 X32.9301 Y40.4349
G01 X32.9325 Y40.4514
G01 X32.9338 Y40.4575
G01 X32.9380 Y40.4736
G01 X32.9435 Y40.4893
G01 X32.9458 Y40.4952
G01 X32.9539 Y40.5121
G01 X32.9635 Y40.5282
G01 X32.9670 Y40.5334
G01 X32.9770 Y40.5467
G01 X32.9910 Y40.5621
G01 X33.2706 Y40.8417
G01 X33.2829 Y40.8530
G01 X33.2877 Y40.8570
G01 X33.3028 Y40.8681
G01 X33.3207 Y40.8788
G01 X33.3395 Y40.8877
G01 X33.3611 Y40.8953
G01 X33.3793 Y40.8998
G01 X33.3958 Y40.9024
G01 X33.4020 Y40.9031
G01 X33.4207 Y40.9039
G01 X34.5450 Y40.9039
G01 X34.6107 Y40.9170
G01 X34.6486 Y40.9423
G01 X34.6740 Y40.9803
G01 X34.6870 Y41.0459
G01 X34.6870 Y42.5124
G01 X34.6880 Y42.5311
G01 X34.6904 Y42.5476
G01 X34.6915 Y42.5538
G01 X34.6962 Y42.5719
G01 X34.7024 Y42.5896
G01 X34.7049 Y42.5954
G01 X34.7121 Y42.6104
G01 X34.7217 Y42.6265
G01 X34.7352 Y42.6450
G01 X34.7477 Y42.6589
G01 X34.7522 Y42.6633
G01 X34.7646 Y42.6744
G01 X34.7780 Y42.6844
G01 X34.7831 Y42.6880
G01 X34.7992 Y42.6975
G01 X34.8181 Y42.7064
G01 X34.8357 Y42.7128
G01 X34.8417 Y42.7146
G01 X34.8579 Y42.7185
G01 X34.9667 Y42.7402
G01 X35.1370 Y42.8539
G01 X35.1553 Y42.8812
G01 X35.1639 Y42.8930
G01 X35.1678 Y42.8979
G01 X35.1805 Y42.9117
G01 X36.8542 Y44.5854
G01 X36.8681 Y44.5981
G01 X36.8730 Y44.6020
G01 X36.8847 Y44.6107
G01 X36.9120 Y44.6289
G01 X37.0257 Y44.7992
G01 X37.0657 Y45.0000
G01 X37.0593 Y45.0322
G01 X37.0571 Y45.0466
G01 X37.0565 Y45.0529
G01 X37.0556 Y45.0716
G01 X37.0556 Y48.9512
G01 X37.0566 Y48.9699
G01 X37.0593 Y48.9885
G01 X37.0636 Y49.0067
G01 X37.0661 Y49.0147
G01 X37.0718 Y49.0303
G01 X37.0807 Y49.0492
G01 X37.0914 Y49.0670
G01 X37.1025 Y49.0821
G01 X37.1193 Y49.1007
G01 X37.1332 Y49.1132
G01 X37.1465 Y49.1232
G01 X37.1517 Y49.1268
G01 X37.1678 Y49.1363
G01 X37.1847 Y49.1444
G01 X37.1906 Y49.1468
G01 X37.2063 Y49.1523
G01 X37.2245 Y49.1569
G01 X37.2492 Y49.1606
G01 X37.2679 Y49.1614
G01 X37.2846 Y49.1607
G01 X37.2929 Y49.1599
G01 X37.3114 Y49.1569
G01 X37.3295 Y49.1523
G01 X37.3492 Y49.1452
G01 X37.3680 Y49.1363
G01 X37.3859 Y49.1256
G01 X37.4026 Y49.1132
G01 X37.4165 Y49.1007
G01 X37.4307 Y49.0854
G01 X37.4391 Y49.0744
G01 X37.6101 Y48.9602
G01 X37.8109 Y48.9202
G01 X37.8432 Y48.9266
G01 X37.8576 Y48.9288
G01 X37.8638 Y48.9295
G01 X37.8825 Y48.9303
G01 X40.0498 Y48.9303
G01 X40.0685 Y48.9295
G01 X40.0748 Y48.9288
G01 X40.0912 Y48.9262
G01 X40.1114 Y48.9212
G01 X40.1310 Y48.9142
G01 X40.1480 Y48.9062
G01 X40.1535 Y48.9032
G01 X40.1677 Y48.8945
G01 X40.1812 Y48.8847
G01 X40.1861 Y48.8808
G01 X40.1984 Y48.8696
G01 X41.0455 Y48.0225
G01 X41.0580 Y48.0086
G01 X41.0693 Y47.9935
G01 X41.0791 Y47.9776
G01 X41.0830 Y47.9702
G01 X41.0901 Y47.9551
G01 X41.0971 Y47.9355
G01 X41.1022 Y47.9153
G01 X41.1047 Y47.8988
G01 X41.1054 Y47.8926
G01 X41.1062 Y47.8739
G01 X41.1062 Y45.5361
G01 X41.1052 Y45.5153
G01 X41.1025 Y45.4968
G01 X41.0982 Y45.4785
G01 X41.0958 Y45.4705
G01 X41.0901 Y45.4549
G01 X41.0821 Y45.4379
G01 X41.0693 Y45.4165
G01 X41.0580 Y45.4014
G01 X41.0469 Y45.3890
G01 X40.6700 Y45.0120
G01 X40.6576 Y45.0008
G01 X40.6527 Y44.9969
G01 X40.6393 Y44.9870
G01 X40.6233 Y44.9773
G01 X40.6026 Y44.9674
G01 X40.5830 Y44.9604
G01 X40.5628 Y44.9553
G01 X40.5422 Y44.9523
G01 X40.5213 Y44.9512
G01 X40.5005 Y44.9523
G01 X40.4799 Y44.9553
G01 X40.4597 Y44.9604
G01 X40.4401 Y44.9674
G01 X40.4213 Y44.9763
G01 X40.4034 Y44.9870
G01 X40.3867 Y44.9994
G01 X40.3712 Y45.0134
G01 X40.3572 Y45.0289
G01 X40.3448 Y45.0456
G01 X40.3331 Y45.0653
G01 X40.3252 Y45.0823
G01 X40.3195 Y45.0979
G01 X40.3171 Y45.1060
G01 X40.3127 Y45.1242
G01 X40.3101 Y45.1427
G01 X40.3091 Y45.1615
G01 X40.3097 Y45.1802
G01 X40.3106 Y45.1885
G01 X40.3135 Y45.2070
G01 X40.3176 Y45.2232
G01 X40.3195 Y45.2292
G01 X40.3244 Y45.2429
G01 X40.3269 Y45.2486
G01 X40.3341 Y45.2636
G01 X40.3425 Y45.2778
G01 X40.4135 Y45.6350
G01 X40.3425 Y45.9919
G01 X40.1404 Y46.2945
G01 X39.8378 Y46.4966
G01 X39.5710 Y46.5497
G01 X38.5908 Y46.5497
G01 X38.3240 Y46.4966
G01 X38.0215 Y46.2945
G01 X37.8193 Y45.9919
G01 X37.7483 Y45.6350
G01 X37.8193 Y45.2781
G01 X38.0215 Y44.9755
G01 X38.3240 Y44.7734
G01 X38.5908 Y44.7203
G01 X39.5710 Y44.7203
G01 X39.8381 Y44.7734
G01 X39.8523 Y44.7818
G01 X39.8711 Y44.7907
G01 X39.8907 Y44.7978
G01 X39.9089 Y44.8024
G01 X39.9274 Y44.8054
G01 X39.9357 Y44.8062
G01 X39.9524 Y44.8069
G01 X39.9732 Y44.8059
G01 X39.9938 Y44.8028
G01 X40.0140 Y44.7978
G01 X40.0336 Y44.7907
G01 X40.0487 Y44.7837
G01 X40.0543 Y44.7808
G01 X40.0668 Y44.7734
G01 X40.0737 Y44.7687
G01 X40.0871 Y44.7587
G01 X40.1025 Y44.7447
G01 X40.1165 Y44.7293
G01 X40.1289 Y44.7125
G01 X40.1396 Y44.6947
G01 X40.1468 Y44.6797
G01 X40.1493 Y44.6739
G01 X40.1549 Y44.6582
G01 X40.1597 Y44.6401
G01 X40.1610 Y44.6339
G01 X40.1631 Y44.6195
G01 X40.1640 Y44.6112
G01 X40.1647 Y44.5925
G01 X40.1634 Y44.5717
G01 X40.1606 Y44.5532
G01 X40.1549 Y44.5310
G01 X40.1485 Y44.5133
G01 X40.1396 Y44.4945
G01 X40.1289 Y44.4766
G01 X40.1151 Y44.4583
G01 X40.1025 Y44.4445
G01 X39.7284 Y44.0704
G01 X39.7145 Y44.0579
G01 X39.6977 Y44.0455
G01 X39.6799 Y44.0348
G01 X39.6591 Y44.0251
G01 X39.6414 Y44.0188
G01 X39.6212 Y44.0138
G01 X39.6006 Y44.0107
G01 X39.5819 Y44.0097
G01 X38.5908 Y44.0097
G01 X38.3240 Y43.9566
G01 X38.0215 Y43.7545
G01 X37.8193 Y43.4519
G01 X37.7483 Y43.0950
G01 X37.8193 Y42.7381
G01 X38.0215 Y42.4355
G01 X38.3240 Y42.2334
G01 X38.5908 Y42.1803
G01 X39.5710 Y42.1803
G01 X39.8378 Y42.2334
G01 X40.1404 Y42.4355
G01 X40.3425 Y42.7381
G01 X40.4135 Y43.0950
G01 X40.4013 Y43.1565
G01 X40.3986 Y43.1751
G01 X40.3976 Y43.1938
G01 X40.3977 Y43.2001
G01 X40.3986 Y43.2167
G01 X40.4013 Y43.2352
G01 X40.4068 Y43.2575
G01 X40.4130 Y43.2752
G01 X40.4155 Y43.2810
G01 X40.4227 Y43.2960
G01 X40.4312 Y43.3103
G01 X40.4346 Y43.3156
G01 X40.4458 Y43.3306
G01 X40.4598 Y43.3460
G01 X41.9342 Y44.8204
G01 X41.9481 Y44.8331
G01 X41.9530 Y44.8370
G01 X41.9647 Y44.8457
G01 X41.9927 Y44.8644
G01 X41.9998 Y44.8738
G01 X42.0123 Y44.8877
G01 X42.0292 Y44.9032
G01 X42.0460 Y44.9156
G01 X42.0657 Y44.9273
G01 X42.0827 Y44.9352
G01 X42.0983 Y44.9410
G01 X42.1063 Y44.9434
G01 X42.1246 Y44.9477
G01 X42.1431 Y44.9504
G01 X42.1618 Y44.9514
G01 X42.1806 Y44.9507
G01 X42.1889 Y44.9499
G01 X42.2053 Y44.9473
G01 X42.2256 Y44.9423
G01 X42.2452 Y44.9352
G01 X42.2621 Y44.9273
G01 X42.2783 Y44.9179
G01 X42.2853 Y44.9132
G01 X42.3002 Y44.9019
G01 X42.3155 Y44.8877
G01 X42.3280 Y44.8738
G01 X42.3405 Y44.8570
G01 X42.3512 Y44.8392
G01 X42.3584 Y44.8242
G01 X42.3609 Y44.8184
G01 X42.3658 Y44.8047
G01 X42.3682 Y44.7967
G01 X42.3725 Y44.7785
G01 X42.3754 Y44.7578
G01 X42.3762 Y44.7391
G01 X42.3762 Y41.2799
G01 X42.3752 Y41.2612
G01 X42.3722 Y41.2406
G01 X42.3671 Y41.2204
G01 X42.3592 Y41.1988
G01 X42.3512 Y41.1819
G01 X42.3393 Y41.1623
G01 X42.3267 Y41.1457
G01 X42.3155 Y41.1334
G01 X42.3110 Y41.1290
G01 X42.2986 Y41.1179
G01 X42.2819 Y41.1055
G01 X42.2640 Y41.0948
G01 X42.2452 Y41.0858
G01 X42.2256 Y41.0788
G01 X42.2053 Y41.0738
G01 X42.1847 Y41.0707
G01 X42.1660 Y41.0697
G01 X40.3506 Y41.0697
G01 X40.3298 Y41.0707
G01 X40.3112 Y41.0734
G01 X40.3051 Y41.0747
G01 X40.2890 Y41.0788
G01 X40.2732 Y41.0843
G01 X40.2674 Y41.0867
G01 X40.2505 Y41.0948
G01 X40.2309 Y41.1067
G01 X40.2159 Y41.1179
G01 X40.2035 Y41.1290
G01 X40.1990 Y41.1334
G01 X40.1865 Y41.1473
G01 X40.1752 Y41.1623
G01 X40.1404 Y41.2145
G01 X39.8378 Y41.4166
G01 X39.5710 Y41.4697
G01 X38.5908 Y41.4697
G01 X38.3240 Y41.4166
G01 X38.0215 Y41.2145
G01 X37.8193 Y40.9119
G01 X37.7483 Y40.5550
G01 X37.8193 Y40.1981
G01 X38.0215 Y39.8955
G01 X38.3240 Y39.6934
G01 X38.5908 Y39.6403
G01 X39.5710 Y39.6403
G01 X39.8378 Y39.6934
G01 X40.1404 Y39.8955
G01 X40.1752 Y39.9477
G01 X40.1865 Y39.9627
G01 X40.1990 Y39.9766
G01 X40.2035 Y39.9810
G01 X40.2159 Y39.9921
G01 X40.2309 Y40.0033
G01 X40.2505 Y40.0152
G01 X40.2674 Y40.0233
G01 X40.2732 Y40.0257
G01 X40.2890 Y40.0312
G01 X40.3051 Y40.0353
G01 X40.3112 Y40.0366
G01 X40.3298 Y40.0393
G01 X40.3506 Y40.0403
G01 X42.1660 Y40.0403
G01 X42.1847 Y40.0393
G01 X42.2012 Y40.0369
G01 X42.2074 Y40.0358
G01 X42.2256 Y40.0312
G01 X42.2452 Y40.0242
G01 X42.2603 Y40.0171
G01 X42.2658 Y40.0142
G01 X42.2819 Y40.0045
G01 X42.2986 Y39.9921
G01 X42.3126 Y39.9796
G01 X42.3169 Y39.9751
G01 X42.3280 Y39.9627
G01 X42.3380 Y39.9494
G01 X42.3416 Y39.9442
G01 X42.3512 Y39.9281
G01 X42.3601 Y39.9092
G01 X42.3665 Y39.8916
G01 X42.3682 Y39.8856
G01 X42.3722 Y39.8694
G01 X42.3747 Y39.8530
G01 X42.3754 Y39.8467
G01 X42.3762 Y39.8301
G01 X42.3762 Y37.5840
G01 X42.3752 Y37.5653
G01 X42.3725 Y37.5468
G01 X42.3682 Y37.5285
G01 X42.3658 Y37.5205
G01 X42.3601 Y37.5049
G01 X42.3512 Y37.4860
G01 X42.3405 Y37.4682
G01 X42.3293 Y37.4531
G01 X42.3140 Y37.4360
G01 X40.9299 Y36.0519
G01 X40.9145 Y36.0379
G01 X40.8995 Y36.0267
G01 X40.8942 Y36.0232
G01 X40.8799 Y36.0148
G01 X40.8649 Y36.0075
G01 X40.8591 Y36.0051
G01 X40.8434 Y35.9995
G01 X40.8253 Y35.9947
G01 X40.8171 Y35.9931
G01 X40.8006 Y35.9907
G01 X40.7798 Y35.9897
G01 X40.3485 Y35.9897
G01 X40.3298 Y35.9907
G01 X40.3133 Y35.9931
G01 X40.3071 Y35.9942
G01 X40.2890 Y35.9988
G01 X40.2693 Y36.0058
G01 X40.2524 Y36.0138
G01 X40.2469 Y36.0168
G01 X40.2344 Y36.0243
G01 X40.2292 Y36.0279
G01 X40.2159 Y36.0379
G01 X40.2035 Y36.0490
G01 X40.1990 Y36.0534
G01 X40.1878 Y36.0657
G01 X40.1765 Y36.0806
G01 X40.1404 Y36.1345
G01 X39.8378 Y36.3366
G01 X39.5710 Y36.3897
G01 X38.5908 Y36.3897
G01 X38.3240 Y36.3366
G01 X38.0215 Y36.1345
G01 X37.9845 Y36.0791
G01 X37.9720 Y36.0623
G01 X37.9595 Y36.0484
G01 X37.9550 Y36.0440
G01 X37.9426 Y36.0329
G01 X37.9259 Y36.0205
G01 X37.9098 Y36.0108
G01 X37.9043 Y36.0079
G01 X37.8892 Y36.0009
G01 X37.8696 Y35.9938
G01 X37.8493 Y35.9888
G01 X37.8329 Y35.9862
G01 X37.8266 Y35.9855
G01 X37.8079 Y35.9847
G01 X37.7871 Y35.9857
G01 X37.7665 Y35.9888
G01 X37.7463 Y35.9938
G01 X37.7306 Y35.9994
G01 X37.7248 Y36.0017
G01 X37.7097 Y36.0088
G01 X37.6935 Y36.0182
G01 X37.6865 Y36.0229
G01 X37.6749 Y36.0316
G01 X37.6701 Y36.0356
G01 X37.6578 Y36.0469
G01 X37.6438 Y36.0623
G01 X37.6314 Y36.0791
G01 X37.6207 Y36.0969
G01 X37.6118 Y36.1158
G01 X37.6048 Y36.1354
G01 X37.5997 Y36.1556
G01 X37.5971 Y36.1720
G01 X37.5965 Y36.1783
G01 X37.5956 Y36.1970
G01 X37.5956 Y36.9839
G01 X37.5963 Y37.0005
G01 X37.5969 Y37.0068
G01 X37.5990 Y37.0212
G01 X37.6006 Y37.0294
G01 X37.6048 Y37.0455
G01 X37.6118 Y37.0651
G01 X37.6207 Y37.0840
G01 X37.6292 Y37.0983
G01 X37.6338 Y37.1052
G01 X37.6451 Y37.1202
G01 X37.6578 Y37.1340
G01 X37.8131 Y37.2893
G01 X37.8285 Y37.3033
G01 X37.8418 Y37.3133
G01 X37.8488 Y37.3179
G01 X37.8650 Y37.3273
G01 X37.8819 Y37.3353
G01 X37.8996 Y37.3417
G01 X37.9177 Y37.3465
G01 X37.9259 Y37.3481
G01 X37.9424 Y37.3504
G01 X37.9611 Y37.3514
G01 X37.9840 Y37.3504
G01 X38.0026 Y37.3478
G01 X38.0087 Y37.3465
G01 X38.0248 Y37.3423
G01 X38.0405 Y37.3368
G01 X38.0464 Y37.3345
G01 X38.0633 Y37.3264
G01 X38.0811 Y37.3157
G01 X38.3240 Y37.1534
G01 X38.5908 Y37.1003
G01 X39.5710 Y37.1003
G01 X39.8378 Y37.1534
G01 X40.1404 Y37.3555
G01 X40.3425 Y37.6581
G01 X40.4135 Y38.0150
G01 X40.3425 Y38.3719
G01 X40.1404 Y38.6745
G01 X39.8378 Y38.8766
G01 X39.5710 Y38.9297
G01 X38.5908 Y38.9297
G01 X38.3240 Y38.8766
G01 X38.0215 Y38.6745
G01 X37.9937 Y38.6331
G01 X37.9837 Y38.6198
G01 X37.9712 Y38.6059
G01 X37.9575 Y38.5931
G01 X37.9510 Y38.5878
G01 X37.9376 Y38.5780
G01 X37.9215 Y38.5683
G01 X37.9047 Y38.5601
G01 X37.8970 Y38.5569
G01 X37.8813 Y38.5513
G01 X37.8631 Y38.5467
G01 X37.8425 Y38.5435
G01 X37.8236 Y38.5423
G01 X37.6101 Y38.4998
G01 X37.4399 Y38.3861
G01 X37.4216 Y38.3588
G01 X37.4129 Y38.3470
G01 X37.4090 Y38.3421
G01 X37.3964 Y38.3283
G01 X36.7676 Y37.6996
G01 X36.7538 Y37.6869
G01 X36.7489 Y37.6830
G01 X36.7372 Y37.6743
G01 X36.7099 Y37.6561
G01 X36.5961 Y37.4858
G01 X36.5562 Y37.2850
G01 X36.5625 Y37.2528
G01 X36.5647 Y37.2384
G01 X36.5654 Y37.2321
G01 X36.5662 Y37.2134
G01 X36.5662 Y34.6066
G01 X36.5654 Y34.5879
G01 X36.5647 Y34.5816
G01 X36.5625 Y34.5672
G01 X36.5562 Y34.5350
G01 X36.5961 Y34.3342
G01 X36.7099 Y34.1639
G01 X36.7372 Y34.1457
G01 X36.7489 Y34.1370
G01 X36.7538 Y34.1331
G01 X36.7676 Y34.1204
G01 X37.7020 Y33.1860
G01 X37.7173 Y33.1689
G01 X37.7273 Y33.1556
G01 X37.7307 Y33.1503
G01 X37.7392 Y33.1360
G01 X37.7464 Y33.1210
G01 X37.7488 Y33.1152
G01 X37.7551 Y33.0975
G01 X37.7605 Y33.0752
G01 X37.7632 Y33.0567
G01 X37.7641 Y33.0401
G01 X37.7642 Y33.0338
G01 X37.7632 Y33.0151
G01 X37.7605 Y32.9965
G01 X37.7483 Y32.9350
G01 X37.8193 Y32.5781
G01 X38.0215 Y32.2755
G01 X38.3240 Y32.0734
G01 X38.5908 Y32.0203
G01 X39.5710 Y32.0203
G01 X39.8378 Y32.0734
G01 X40.1404 Y32.2755
G01 X40.3425 Y32.5781
G01 X40.4135 Y32.9350
G01 X40.3425 Y33.2919
G01 X40.1404 Y33.5945
G01 X39.8378 Y33.7966
G01 X39.5710 Y33.8497
G01 X38.5800 Y33.8497
G01 X38.5592 Y33.8509
G01 X38.5427 Y33.8534
G01 X38.5366 Y33.8547
G01 X38.5204 Y33.8588
G01 X38.5047 Y33.8643
G01 X38.4989 Y33.8667
G01 X38.4857 Y33.8729
G01 X38.4801 Y33.8758
G01 X38.4676 Y33.8832
G01 X38.4607 Y33.8879
G01 X38.4474 Y33.8979
G01 X38.4319 Y33.9119
G01 X38.0579 Y34.2859
G01 X38.0467 Y34.2983
G01 X38.0428 Y34.3032
G01 X38.0329 Y34.3166
G01 X38.0243 Y34.3309
G01 X38.0213 Y34.3364
G01 X38.0150 Y34.3495
G01 X38.0118 Y34.3572
G01 X38.0063 Y34.3729
G01 X38.0012 Y34.3932
G01 X37.9982 Y34.4138
G01 X37.9973 Y34.4304
G01 X37.9973 Y34.4388
G01 X37.9980 Y34.4533
G01 X37.9987 Y34.4595
G01 X38.0012 Y34.4760
G01 X38.0063 Y34.4962
G01 X38.0133 Y34.5158
G01 X38.0203 Y34.5309
G01 X38.0243 Y34.5383
G01 X38.0318 Y34.5508
G01 X38.0354 Y34.5560
G01 X38.0454 Y34.5693
G01 X38.0593 Y34.5847
G01 X38.0748 Y34.5987
G01 X38.0915 Y34.6111
G01 X38.1094 Y34.6218
G01 X38.1282 Y34.6307
G01 X38.1478 Y34.6377
G01 X38.1681 Y34.6428
G01 X38.1887 Y34.6459
G01 X38.2116 Y34.6469
G01 X38.2303 Y34.6459
G01 X38.2468 Y34.6435
G01 X38.2529 Y34.6424
G01 X38.2711 Y34.6378
G01 X38.2888 Y34.6315
G01 X38.2945 Y34.6290
G01 X38.3096 Y34.6218
G01 X38.3237 Y34.6134
G01 X38.5908 Y34.5603
G01 X39.5710 Y34.5603
G01 X39.8378 Y34.6134
G01 X40.1404 Y34.8155
G01 X40.1741 Y34.8660
G01 X40.1852 Y34.8811
G01 X40.1990 Y34.8966
G01 X40.2127 Y34.9094
G01 X40.2175 Y34.9134
G01 X40.2326 Y34.9245
G01 X40.2505 Y34.9352
G01 X40.2693 Y34.9442
G01 X40.2870 Y34.9505
G01 X40.2930 Y34.9523
G01 X40.3092 Y34.9562
G01 X40.3256 Y34.9588
G01 X40.3319 Y34.9595
G01 X40.3506 Y34.9603
G01 X41.0093 Y34.9603
G01 X41.0281 Y34.9595
G01 X41.0343 Y34.9588
G01 X41.0487 Y34.9566
G01 X41.0809 Y34.9502
G01 X41.2817 Y34.9902
G01 X41.4520 Y35.1039
G01 X41.4703 Y35.1312
G01 X41.4789 Y35.1430
G01 X41.4828 Y35.1479
G01 X41.4955 Y35.1617
G01 X43.2042 Y36.8704
G01 X43.2181 Y36.8831
G01 X43.2230 Y36.8870
G01 X43.2347 Y36.8957
G01 X43.2620 Y36.9139
G01 X43.3757 Y37.0842
G01 X43.4157 Y37.2850
G01 X43.4093 Y37.3172
G01 X43.4071 Y37.3316
G01 X43.4065 Y37.3379
G01 X43.4056 Y37.3566
G01 X43.4056 Y40.4834
G01 X43.4065 Y40.5021
G01 X43.4071 Y40.5084
G01 X43.4093 Y40.5228
G01 X43.4157 Y40.5550
G01 X43.4093 Y40.5872
G01 X43.4071 Y40.6016
G01 X43.4065 Y40.6079
G01 X43.4056 Y40.6266
G01 X43.4056 Y48.2635
G01 X43.4065 Y48.2822
G01 X43.4071 Y48.2885
G01 X43.4093 Y48.3029
G01 X43.4157 Y48.3351
G01 X43.3713 Y48.5585
G01 X43.3686 Y48.5771
G01 X43.3676 Y48.5979
G01 X43.3686 Y48.6187
G01 X43.3713 Y48.6373
G01 X43.3726 Y48.6434
G01 X43.3767 Y48.6595
G01 X43.3822 Y48.6752
G01 X43.3846 Y48.6811
G01 X43.3908 Y48.6943
G01 X43.3937 Y48.6998
G01 X43.4034 Y48.7159
G01 X43.4158 Y48.7326
G01 X43.4298 Y48.7480
G01 X43.4468 Y48.7633
G01 X43.4619 Y48.7744
G01 X43.4798 Y48.7851
G01 X43.4986 Y48.7941
G01 X43.5143 Y48.7998
G01 X43.5203 Y48.8017
G01 X43.5344 Y48.8052
G01 X43.5426 Y48.8069
G01 X43.5591 Y48.8092
G01 X43.5799 Y48.8102
G01 X43.6007 Y48.8092
G01 X43.6172 Y48.8069
G01 X43.6254 Y48.8052
G01 X43.6395 Y48.8017
G01 X43.6455 Y48.7998
G01 X43.6611 Y48.7941
G01 X43.6800 Y48.7851
G01 X43.6978 Y48.7744
G01 X43.7113 Y48.7646
G01 X43.7162 Y48.7607
G01 X43.7300 Y48.7480
G01 X44.2191 Y48.2590
G01 X44.2303 Y48.2467
G01 X44.2356 Y48.2403
G01 X44.2466 Y48.2251
G01 X44.2562 Y48.2090
G01 X44.2642 Y48.1920
G01 X44.2727 Y48.1685
G01 X44.2772 Y48.1503
G01 X44.2797 Y48.1338
G01 X44.2804 Y48.1276
G01 X44.2812 Y48.1089
G01 X44.2812 Y42.1316
G01 X44.2804 Y42.1129
G01 X44.2797 Y42.1066
G01 X44.2775 Y42.0922
G01 X44.2712 Y42.0600
G01 X44.3111 Y41.8592
G01 X44.4249 Y41.6889
G01 X44.4522 Y41.6707
G01 X44.4639 Y41.6620
G01 X44.4688 Y41.6581
G01 X44.4826 Y41.6454
G01 X45.3220 Y40.8060
G01 X45.3360 Y40.7906
G01 X45.3484 Y40.7738
G01 X45.3592 Y40.7560
G01 X45.3681 Y40.7371
G01 X45.3751 Y40.7175
G01 X45.3797 Y40.6993
G01 X45.3809 Y40.6932
G01 X45.3832 Y40.6767
G01 X45.3841 Y40.6601
G01 X45.3842 Y40.6538
G01 X45.3832 Y40.6351
G01 X45.3805 Y40.6165
G01 X45.3683 Y40.5550
G01 X45.4393 Y40.1981
G01 X45.6415 Y39.8955
G01 X45.9440 Y39.6934
G01 X46.2108 Y39.6403
G01 X47.1910 Y39.6403
G01 X47.4578 Y39.6934
G01 X47.7604 Y39.8955
G01 X47.9625 Y40.1981
G01 X48.0335 Y40.5550
G01 X47.9625 Y40.9119
G01 X47.7604 Y41.2145
G01 X47.4578 Y41.4166
G01 X47.1910 Y41.4697
G01 X46.2000 Y41.4697
G01 X46.1812 Y41.4707
G01 X46.1648 Y41.4731
G01 X46.1566 Y41.4747
G01 X46.1384 Y41.4795
G01 X46.1208 Y41.4858
G01 X46.1038 Y41.4938
G01 X46.0876 Y41.5032
G01 X46.0807 Y41.5079
G01 X46.0674 Y41.5179
G01 X46.0519 Y41.5319
G01 X45.6793 Y41.9045
G01 X45.6654 Y41.9199
G01 X45.6554 Y41.9332
G01 X45.6507 Y41.9402
G01 X45.6432 Y41.9527
G01 X45.6403 Y41.9582
G01 X45.6325 Y41.9753
G01 X45.6257 Y41.9950
G01 X45.6212 Y42.0132
G01 X45.6180 Y42.0359
G01 X45.6172 Y42.0546
G01 X45.6182 Y42.0754
G01 X45.6212 Y42.0960
G01 X45.6269 Y42.1182
G01 X45.6333 Y42.1358
G01 X45.6422 Y42.1547
G01 X45.6529 Y42.1725
G01 X45.6654 Y42.1893
G01 X45.6793 Y42.2047
G01 X45.6948 Y42.2187
G01 X45.7115 Y42.2311
G01 X45.7312 Y42.2428
G01 X45.7482 Y42.2507
G01 X45.7639 Y42.2564
G01 X45.7699 Y42.2583
G01 X45.7881 Y42.2628
G01 X45.8087 Y42.2659
G01 X45.8253 Y42.2668
G01 X45.8337 Y42.2668
G01 X45.8524 Y42.2656
G01 X45.8729 Y42.2624
G01 X45.8891 Y42.2583
G01 X45.8951 Y42.2564
G01 X45.9088 Y42.2515
G01 X45.9145 Y42.2490
G01 X45.9296 Y42.2418
G01 X45.9437 Y42.2334
G01 X46.2108 Y42.1803
G01 X47.1910 Y42.1803
G01 X47.3584 Y42.2136
G01 X47.3770 Y42.2163
G01 X47.3957 Y42.2173
G01 X47.4186 Y42.2163
G01 X47.4392 Y42.2132
G01 X47.4594 Y42.2081
G01 X47.4810 Y42.2003
G01 X47.4979 Y42.1922
G01 X47.5158 Y42.1815
G01 X47.5325 Y42.1691
G01 X47.5479 Y42.1551
G01 X48.6640 Y41.0390
G01 X48.6767 Y41.0252
G01 X48.6806 Y41.0203
G01 X48.6905 Y41.0068
G01 X48.7012 Y40.9890
G01 X48.7101 Y40.9701
G01 X48.7158 Y40.9545
G01 X48.7177 Y40.9485
G01 X48.7222 Y40.9303
G01 X48.7252 Y40.9097
G01 X48.7262 Y40.8889
G01 X48.7262 Y38.8540
G01 X48.7252 Y38.8353
G01 X48.7222 Y38.8147
G01 X48.7171 Y38.7945
G01 X48.7116 Y38.7788
G01 X48.7092 Y38.7730
G01 X48.7030 Y38.7598
G01 X48.6991 Y38.7524
G01 X48.6893 Y38.7365
G01 X48.6767 Y38.7198
G01 X48.6640 Y38.7060
G01 X48.5499 Y38.5919
G01 X48.5345 Y38.5779
G01 X48.5177 Y38.5655
G01 X48.4999 Y38.5548
G01 X48.4810 Y38.5458
G01 X48.4634 Y38.5395
G01 X48.4574 Y38.5377
G01 X48.4412 Y38.5338
G01 X48.4248 Y38.5312
G01 X48.4185 Y38.5305
G01 X48.4019 Y38.5297
G01 X47.9706 Y38.5297
G01 X47.9540 Y38.5304
G01 X47.9477 Y38.5309
G01 X47.9292 Y38.5338
G01 X47.9110 Y38.5382
G01 X47.9050 Y38.5401
G01 X47.8893 Y38.5458
G01 X47.8724 Y38.5538
G01 X47.8509 Y38.5667
G01 X47.8359 Y38.5779
G01 X47.8235 Y38.5890
G01 X47.8190 Y38.5934
G01 X47.8065 Y38.6073
G01 X47.7952 Y38.6223
G01 X47.7604 Y38.6745
G01 X47.4578 Y38.8766
G01 X47.1910 Y38.9297
G01 X46.2108 Y38.9297
G01 X45.9440 Y38.8766
G01 X45.6415 Y38.6745
G01 X45.4393 Y38.3719
G01 X45.3683 Y38.0150
G01 X45.4393 Y37.6581
G01 X45.6415 Y37.3555
G01 X45.9440 Y37.1534
G01 X46.2108 Y37.1003
G01 X47.1910 Y37.1003
G01 X47.4578 Y37.1534
G01 X47.7604 Y37.3555
G01 X47.7941 Y37.4060
G01 X47.8052 Y37.4211
G01 X47.8190 Y37.4366
G01 X47.8327 Y37.4494
G01 X47.8375 Y37.4534
G01 X47.8526 Y37.4645
G01 X47.8705 Y37.4752
G01 X47.8893 Y37.4842
G01 X47.9110 Y37.4918
G01 X47.9292 Y37.4962
G01 X47.9456 Y37.4988
G01 X47.9519 Y37.4995
G01 X47.9706 Y37.5003
G01 X48.6293 Y37.5003
G01 X48.6481 Y37.4995
G01 X48.6543 Y37.4988
G01 X48.6687 Y37.4966
G01 X48.7009 Y37.4902
G01 X48.9017 Y37.5302
G01 X49.0720 Y37.6439
G01 X49.0903 Y37.6712
G01 X49.0989 Y37.6830
G01 X49.1028 Y37.6879
G01 X49.1140 Y37.7002
G01 X49.5542 Y38.1404
G01 X49.5681 Y38.1531
G01 X49.5730 Y38.1570
G01 X49.5847 Y38.1657
G01 X49.6120 Y38.1839
G01 X49.7257 Y38.3542
G01 X49.7657 Y38.5550
G01 X49.7593 Y38.5872
G01 X49.7571 Y38.6016
G01 X49.7565 Y38.6079
G01 X49.7556 Y38.6266
G01 X49.7556 Y41.1184
G01 X49.7565 Y41.1371
G01 X49.7571 Y41.1434
G01 X49.7593 Y41.1578
G01 X49.7657 Y41.1900
G01 X49.7257 Y41.3908
G01 X49.6120 Y41.5611
G01 X49.5847 Y41.5793
G01 X49.5730 Y41.5880
G01 X49.5681 Y41.5919
G01 X49.5542 Y41.6046
G01 X48.0716 Y43.0872
G01 X48.0603 Y43.0995
G01 X48.0563 Y43.1043
G01 X48.0451 Y43.1194
G01 X48.0344 Y43.1373
G01 X48.0255 Y43.1561
G01 X48.0179 Y43.1778
G01 X48.0134 Y43.1960
G01 X47.9625 Y43.4519
G01 X47.7604 Y43.7545
G01 X47.4578 Y43.9566
G01 X47.1910 Y44.0097
G01 X46.2108 Y44.0097
G01 X45.9440 Y43.9566
G01 X45.6409 Y43.7541
G01 X45.6266 Y43.7454
G01 X45.6211 Y43.7424
G01 X45.6042 Y43.7344
G01 X45.5846 Y43.7274
G01 X45.5643 Y43.7224
G01 X45.5458 Y43.7195
G01 X45.5396 Y43.7190
G01 X45.5229 Y43.7183
G01 X45.5042 Y43.7191
G01 X45.4856 Y43.7216
G01 X45.4774 Y43.7233
G01 X45.4613 Y43.7274
G01 X45.4417 Y43.7344
G01 X45.4228 Y43.7433
G01 X45.4085 Y43.7518
G01 X45.4015 Y43.7565
G01 X45.3899 Y43.7652
G01 X45.3851 Y43.7692
G01 X45.3728 Y43.7805
G01 X45.3588 Y43.7959
G01 X45.3464 Y43.8126
G01 X45.3377 Y43.8269
G01 X45.3347 Y43.8324
G01 X45.3268 Y43.8493
G01 X45.3198 Y43.8690
G01 X45.3147 Y43.8892
G01 X45.3116 Y43.9098
G01 X45.3106 Y43.9285
G01 X45.3106 Y44.5016
G01 X45.3116 Y44.5224
G01 X45.3140 Y44.5389
G01 X45.3151 Y44.5451
G01 X45.3198 Y44.5632
G01 X45.3260 Y44.5809
G01 X45.3285 Y44.5867
G01 X45.3357 Y44.6017
G01 X45.3452 Y44.6178
G01 X45.3601 Y44.6379
G01 X45.3728 Y44.6517
G01 X45.3851 Y44.6630
G01 X45.3899 Y44.6670
G01 X45.4050 Y44.6781
G01 X45.4210 Y44.6878
G01 X45.4266 Y44.6907
G01 X45.4417 Y44.6977
G01 X45.4593 Y44.7041
G01 X45.4774 Y44.7089
G01 X45.4856 Y44.7105
G01 X45.5021 Y44.7129
G01 X45.5229 Y44.7139
G01 X47.8800 Y44.7139
G01 X47.9457 Y44.7270
G01 X47.9836 Y44.7523
G01 X48.0090 Y44.7903
G01 X48.0220 Y44.8559
G01 X48.0220 Y46.4141
G01 X48.0090 Y46.4797
G01 X47.9836 Y46.5177
G01 X47.9457 Y46.5430
G01 X47.8800 Y46.5561
G01 X45.5208 Y46.5561
G01 X45.5021 Y46.5571
G01 X45.4815 Y46.5602
G01 X45.4613 Y46.5652
G01 X45.4436 Y46.5715
G01 X45.4247 Y46.5802
G01 X45.4085 Y46.5896
G01 X45.4015 Y46.5943
G01 X45.3899 Y46.6030
G01 X45.3851 Y46.6070
G01 X45.3713 Y46.6198
G01 X45.3575 Y46.6353
G01 X45.3464 Y46.6505
G01 X45.3347 Y46.6702
G01 X45.3268 Y46.6872
G01 X45.3192 Y46.7088
G01 X45.3143 Y46.7290
G01 X45.3119 Y46.7455
G01 X45.3113 Y46.7518
G01 X45.3106 Y46.7684
G01 X45.3106 Y48.3384
G01 X45.3115 Y48.3571
G01 X45.3121 Y48.3634
G01 X45.3143 Y48.3778
G01 X45.3207 Y48.4100
G01 X45.2807 Y48.6108
G01 X45.1670 Y48.7811
G01 X45.1397 Y48.7993
G01 X45.1280 Y48.8080
G01 X45.1231 Y48.8119
G01 X45.1092 Y48.8246
G01 X43.5393 Y50.3945
G01 X43.5254 Y50.4099
G01 X43.5154 Y50.4232
G01 X43.5107 Y50.4302
G01 X43.5032 Y50.4427
G01 X43.5003 Y50.4482
G01 X43.4941 Y50.4614
G01 X43.4918 Y50.4672
G01 X43.4863 Y50.4829
G01 X43.4822 Y50.4991
G01 X43.4809 Y50.5052
G01 X43.4784 Y50.5217
G01 X43.4772 Y50.5425
G01 X43.4782 Y50.5654
G01 X43.4812 Y50.5860
G01 X43.4863 Y50.6062
G01 X43.4941 Y50.6278
G01 X43.5032 Y50.6465
G01 X43.5118 Y50.6608
G01 X43.5154 Y50.6660
G01 X43.5254 Y50.6793
G01 X43.5365 Y50.6917
G01 X43.5408 Y50.6962
G01 X43.5516 Y50.7060
G01 X43.5564 Y50.7100
G01 X43.5715 Y50.7211
G01 X43.5894 Y50.7318
G01 X43.6082 Y50.7407
G01 X43.6299 Y50.7483
G01 X43.6460 Y50.7524
G01 X43.6522 Y50.7535
G01 X43.6687 Y50.7559
G01 X43.6853 Y50.7568
G01 X43.6916 Y50.7569
G01 X43.7082 Y50.7561
G01 X43.7288 Y50.7532
G01 X43.7511 Y50.7478
G01 X43.7688 Y50.7415
G01 X43.7877 Y50.7328
G01 X43.8037 Y50.7234
G01 X44.1609 Y50.6524
G01 X44.5178 Y50.7234
G01 X44.8204 Y50.9255
G01 X45.0225 Y51.2281
G01 X45.0756 Y51.4949
G01 X45.0756 Y52.4751
G01 X45.0225 Y52.7419
G01 X44.8204 Y53.0445
G01 X44.5178 Y53.2466
G01 X44.1609 Y53.3176
G01 X43.8040 Y53.2466
G01 X43.5015 Y53.0445
G01 X43.2993 Y52.7419
G01 X43.2462 Y52.4751
G01 X43.2462 Y51.4949
G01 X43.2994 Y51.2278
G01 X43.3077 Y51.2136
G01 X43.3167 Y51.1948
G01 X43.3237 Y51.1752
G01 X43.3287 Y51.1550
G01 X43.3318 Y51.1344
G01 X43.3328 Y51.1136
G01 X43.3318 Y51.0927
G01 X43.3287 Y51.0721
G01 X43.3237 Y51.0519
G01 X43.3167 Y51.0323
G01 X43.3077 Y51.0135
G01 X43.2970 Y50.9956
G01 X43.2846 Y50.9789
G01 X43.2706 Y50.9634
G01 X43.2552 Y50.9494
G01 X43.2385 Y50.9370
G01 X43.2206 Y50.9263
G01 X43.2017 Y50.9174
G01 X43.1821 Y50.9104
G01 X43.1619 Y50.9053
G01 X43.1413 Y50.9023
G01 X43.1205 Y50.9012
G01 X43.0997 Y50.9023
G01 X43.0811 Y50.9049
G01 X43.0629 Y50.9093
G01 X43.0549 Y50.9117
G01 X43.0393 Y50.9174
G01 X43.0204 Y50.9263
G01 X43.0043 Y50.9359
G01 X42.9991 Y50.9394
G01 X42.9858 Y50.9494
G01 X42.9719 Y50.9620
G01 X42.5963 Y51.3375
G01 X42.5838 Y51.3514
G01 X42.5714 Y51.3682
G01 X42.5607 Y51.3860
G01 X42.5535 Y51.4011
G01 X42.5510 Y51.4068
G01 X42.5454 Y51.4225
G01 X42.5401 Y51.4427
G01 X42.5366 Y51.4653
G01 X42.5356 Y51.4840
G01 X42.5356 Y52.4751
G01 X42.4825 Y52.7419
G01 X42.2804 Y53.0445
G01 X41.9778 Y53.2466
G01 X41.6209 Y53.3176
G01 X41.2640 Y53.2466
G01 X40.9615 Y53.0445
G01 X40.7593 Y52.7419
G01 X40.7062 Y52.4751
G01 X40.7062 Y51.7581
G01 X40.7052 Y51.7394
G01 X40.7029 Y51.7229
G01 X40.7012 Y51.7147
G01 X40.6965 Y51.6966
G01 X40.6901 Y51.6790
G01 X40.6812 Y51.6601
G01 X40.6705 Y51.6423
G01 X40.6580 Y51.6255
G01 X40.6441 Y51.6101
G01 X40.6286 Y51.5961
G01 X40.6119 Y51.5837
G01 X40.5958 Y51.5740
G01 X40.5752 Y51.5641
G01 X40.5575 Y51.5577
G01 X40.5374 Y51.5524
G01 X40.5189 Y51.5494
G01 X40.5126 Y51.5487
G01 X40.4981 Y51.5480
G01 X40.4897 Y51.5480
G01 X40.4710 Y51.5492
G01 X40.4546 Y51.5516
G01 X40.4484 Y51.5529
G01 X40.4323 Y51.5570
G01 X40.4166 Y51.5626
G01 X40.4107 Y51.5649
G01 X40.3938 Y51.5730
G01 X40.3777 Y51.5825
G01 X40.3725 Y51.5861
G01 X40.3592 Y51.5961
G01 X40.3468 Y51.6072
G01 X40.0563 Y51.8976
G01 X40.0438 Y51.9115
G01 X40.0326 Y51.9265
G01 X40.0227 Y51.9425
G01 X40.0188 Y51.9499
G01 X40.0126 Y51.9630
G01 X40.0103 Y51.9689
G01 X40.0048 Y51.9846
G01 X40.0006 Y52.0007
G01 X39.9993 Y52.0069
G01 X39.9969 Y52.0233
G01 X39.9957 Y52.0420
G01 X39.9956 Y52.4751
G01 X39.9425 Y52.7419
G01 X39.7404 Y53.0445
G01 X39.4378 Y53.2466
G01 X39.0809 Y53.3176
G01 X38.7240 Y53.2466
G01 X38.7018 Y53.2318
G01 X38.6893 Y53.2243
G01 X38.6838 Y53.2212
G01 X38.6687 Y53.2141
G01 X38.6472 Y53.2063
G01 X38.6290 Y53.2016
G01 X38.6229 Y53.2005
G01 X38.6064 Y53.1982
G01 X38.5856 Y53.1971
G01 X38.5648 Y53.1982
G01 X38.5483 Y53.2005
G01 X38.5421 Y53.2016
G01 X38.5280 Y53.2052
G01 X38.5200 Y53.2076
G01 X38.5043 Y53.2133
G01 X38.4855 Y53.2222
G01 X38.4676 Y53.2329
G01 X38.4525 Y53.2440
G01 X38.4477 Y53.2481
G01 X38.4354 Y53.2593
G01 X38.4242 Y53.2716
G01 X38.4201 Y53.2764
G01 X38.4102 Y53.2898
G01 X38.3983 Y53.3094
G01 X38.3894 Y53.3282
G01 X38.3818 Y53.3498
G01 X38.3778 Y53.3660
G01 X38.3758 Y53.3758
G01 X38.2907 Y53.5031
G01 X37.5905 Y54.2033
G01 X37.5778 Y54.2171
G01 X37.5739 Y54.2220
G01 X37.5653 Y54.2338
G01 X37.5470 Y54.2611
G01 X37.3767 Y54.3748
G01 X37.1759 Y54.4148
G01 X37.1437 Y54.4084
G01 X37.1293 Y54.4062
G01 X37.1231 Y54.4055
G01 X37.1043 Y54.4047
G01 X27.9575 Y54.4047
G01 X27.9388 Y54.4055
G01 X27.9326 Y54.4062
G01 X27.9182 Y54.4084
G01 X27.8859 Y54.4148
G01 X27.6851 Y54.3748
G01 X27.5149 Y54.2611
G01 X27.4966 Y54.2338
G01 X27.4879 Y54.2220
G01 X27.4840 Y54.2171
G01 X27.4714 Y54.2033
G01 X26.6319 Y53.3639
G01 X26.6165 Y53.3499
G01 X26.5980 Y53.3363
G01 X26.5819 Y53.3268
G01 X26.5611 Y53.3171
G01 X26.5414 Y53.3103
G01 X26.5253 Y53.3062
G01 X26.5191 Y53.3051
G01 X26.5026 Y53.3027
G01 X26.4860 Y53.3018
G01 X26.4797 Y53.3017
G01 X26.4610 Y53.3027
G01 X26.4424 Y53.3054
G01 X26.3809 Y53.3176
G01 X26.0240 Y53.2466
G01 X25.7215 Y53.0445
G01 X25.5193 Y52.7419
G01 X25.4662 Y52.4751
G01 X25.4662 Y51.4949
G01 X25.5193 Y51.2281
G01 X25.7215 Y50.9255
G01 X26.0240 Y50.7234
G01 X26.3809 Y50.6524
G01 X26.7378 Y50.7234
G01 X27.0404 Y50.9255
G01 X27.2425 Y51.2281
G01 X27.2956 Y51.4949
G01 X27.2956 Y52.4860
G01 X27.2966 Y52.5047
G01 X27.2990 Y52.5212
G01 X27.3006 Y52.5294
G01 X27.3054 Y52.5475
G01 X27.3118 Y52.5651
G01 X27.3197 Y52.5821
G01 X27.3292 Y52.5983
G01 X27.3338 Y52.6052
G01 X27.3438 Y52.6186
G01 X27.3578 Y52.6340
G01 X27.7304 Y53.0066
G01 X27.7458 Y53.0206
G01 X27.7591 Y53.0306
G01 X27.7643 Y53.0341
G01 X27.7768 Y53.0416
G01 X27.7842 Y53.0456
G01 X27.7993 Y53.0526
G01 X27.8189 Y53.0596
G01 X27.8391 Y53.0647
G01 X27.8597 Y53.0677
G01 X27.8805 Y53.0688
G01 X27.9013 Y53.0677
G01 X27.9219 Y53.0647
G01 X27.9421 Y53.0596
G01 X27.9617 Y53.0526
G01 X27.9806 Y53.0437
G01 X27.9985 Y53.0330
G01 X28.0152 Y53.0206
G01 X28.0306 Y53.0066
G01 X28.0446 Y52.9911
G01 X28.0570 Y52.9744
G01 X28.0677 Y52.9565
G01 X28.0767 Y52.9377
G01 X28.0824 Y52.9221
G01 X28.0843 Y52.9161
G01 X28.0887 Y52.8979
G01 X28.0918 Y52.8773
G01 X28.0927 Y52.8606
G01 X28.0927 Y52.8523
G01 X28.0916 Y52.8336
G01 X28.0883 Y52.8130
G01 X28.0843 Y52.7968
G01 X28.0824 Y52.7908
G01 X28.0774 Y52.7771
G01 X28.0750 Y52.7714
G01 X28.0677 Y52.7564
G01 X28.0594 Y52.7422
G01 X28.0062 Y52.4751
G01 X28.0062 Y51.4949
G01 X28.0593 Y51.2281
G01 X28.2615 Y50.9255
G01 X28.3136 Y50.8907
G01 X28.3302 Y50.8781
G01 X28.3441 Y50.8655
G01 X28.3553 Y50.8532
G01 X28.3593 Y50.8484
G01 X28.3705 Y50.8333
G01 X28.3812 Y50.8154
G01 X28.3884 Y50.8004
G01 X28.3909 Y50.7946
G01 X28.3971 Y50.7770
G01 X28.4017 Y50.7588
G01 X28.4029 Y50.7526
G01 X28.4052 Y50.7361
G01 X28.4062 Y50.7174
G01 X28.4062 Y48.4766
G01 X28.4054 Y48.4579
G01 X28.4025 Y48.4373
G01 X28.3982 Y48.4190
G01 X28.3965 Y48.4130
G01 X28.3916 Y48.3993
G01 X28.3884 Y48.3916
G01 X28.3812 Y48.3766
G01 X28.3705 Y48.3587
G01 X28.3580 Y48.3420
G01 X28.3441 Y48.3265
G01 X28.3286 Y48.3125
G01 X28.3119 Y48.3001
G01 X28.2940 Y48.2894
G01 X28.2790 Y48.2822
G01 X28.2732 Y48.2797
G01 X28.2595 Y48.2748
G01 X28.2515 Y48.2724
G01 X28.2353 Y48.2684
G01 X28.2147 Y48.2654
G01 X28.1939 Y48.2643
G01 X28.1752 Y48.2652
G01 X28.1690 Y48.2659
G01 X28.1525 Y48.2684
G01 X28.1363 Y48.2724
G01 X28.1303 Y48.2741
G01 X28.1127 Y48.2805
G01 X28.0938 Y48.2894
G01 X28.0777 Y48.2990
G01 X28.0725 Y48.3025
G01 X28.0592 Y48.3125
G01 X28.0468 Y48.3236
G01 X28.0423 Y48.3280
G01 X28.0325 Y48.3388
G01 X28.0285 Y48.3436
G01 X28.0186 Y48.3570
G01 X28.0077 Y48.3747
G01 X27.9978 Y48.3954
G01 X27.9914 Y48.4130
G01 X27.9857 Y48.4352
G01 X27.9632 Y48.5484
G01 X27.8494 Y48.7186
G01 X27.8221 Y48.7369
G01 X27.8104 Y48.7456
G01 X27.8055 Y48.7495
G01 X27.7932 Y48.7607
G01 X27.4305 Y49.1233
G01 X27.4178 Y49.1371
G01 X27.4139 Y49.1420
G01 X27.4053 Y49.1538
G01 X27.3870 Y49.1811
G01 X27.2167 Y49.2948
G01 X27.0159 Y49.3348
G01 X26.9837 Y49.3284
G01 X26.9693 Y49.3262
G01 X26.9631 Y49.3255
G01 X26.9443 Y49.3247
G01 X22.7771 Y49.3247
G01 X22.7583 Y49.3255
G01 X22.7521 Y49.3262
G01 X22.7356 Y49.3288
G01 X22.7195 Y49.3327
G01 X22.7134 Y49.3345
G01 X22.6958 Y49.3408
G01 X22.6751 Y49.3508
G01 X22.6591 Y49.3605
G01 X22.6457 Y49.3703
G01 X22.6408 Y49.3742
G01 X22.6269 Y49.3869
G01 X21.8763 Y50.1375
G01 X21.8638 Y50.1514
G01 X21.8538 Y50.1648
G01 X21.8491 Y50.1717
G01 X21.8397 Y50.1879
G01 X21.8318 Y50.2049
G01 X21.8254 Y50.2225
G01 X21.8206 Y50.2406
G01 X21.8190 Y50.2488
G01 X21.8166 Y50.2653
G01 X21.8156 Y50.2861
G01 X21.8156 Y50.7153
G01 X21.8166 Y50.7361
G01 X21.8190 Y50.7526
G01 X21.8206 Y50.7608
G01 X21.8254 Y50.7790
G01 X21.8326 Y50.7985
G01 X21.8397 Y50.8136
G01 X21.8427 Y50.8191
G01 X21.8502 Y50.8315
G01 X21.8538 Y50.8367
G01 X21.8638 Y50.8500
G01 X21.8749 Y50.8624
G01 X21.8793 Y50.8669
G01 X21.8916 Y50.8781
G01 X21.9065 Y50.8895
G01 X21.9604 Y50.9255
G01 X22.1625 Y51.2281
G01 X22.2156 Y51.4949
G01 X22.2156 Y52.4751
G01 X22.1625 Y52.7419
G01 X21.9604 Y53.0445
G01 X21.6578 Y53.2466
G01 X21.3009 Y53.3176
G01 X20.9440 Y53.2466
G01 X20.6415 Y53.0445
G01 X20.4393 Y52.7419
G01 X20.3862 Y52.4751
G01 X20.3862 Y51.4949
G01 X20.4393 Y51.2281
G01 X20.6415 Y50.9255
G01 X20.6919 Y50.8919
G01 X20.7070 Y50.8808
G01 X20.7226 Y50.8669
G01 X20.7353 Y50.8532
G01 X20.7393 Y50.8484
G01 X20.7505 Y50.8333
G01 X20.7612 Y50.8154
G01 X20.7701 Y50.7966
G01 X20.7765 Y50.7790
G01 X20.7782 Y50.7729
G01 X20.7822 Y50.7568
G01 X20.7847 Y50.7403
G01 X20.7854 Y50.7341
G01 X20.7862 Y50.7153
G01 X20.7862 Y50.0566
G01 X20.7854 Y50.0379
G01 X20.7847 Y50.0316
G01 X20.7825 Y50.0172
G01 X20.7762 Y49.9850
G01 X20.8161 Y49.7842
G01 X20.9299 Y49.6139
G01 X20.9572 Y49.5957
G01 X20.9689 Y49.5870
G01 X20.9738 Y49.5831
G01 X20.9876 Y49.5704
G01 X22.0614 Y48.4967
G01 X22.0740 Y48.4829
G01 X22.0779 Y48.4780
G01 X22.0866 Y48.4662
G01 X22.1049 Y48.4389
G01 X22.2751 Y48.3252
G01 X22.4759 Y48.2852
G01 X22.5082 Y48.2916
G01 X22.5226 Y48.2938
G01 X22.5288 Y48.2945
G01 X22.5475 Y48.2953
G01 X26.7148 Y48.2953
G01 X26.7356 Y48.2943
G01 X26.7562 Y48.2912
G01 X26.7764 Y48.2862
G01 X26.7980 Y48.2783
G01 X26.8149 Y48.2702
G01 X26.8327 Y48.2595
G01 X26.8495 Y48.2471
G01 X26.8634 Y48.2346
G01 X26.9015 Y48.1966
G01 X26.9141 Y48.1827
G01 X26.9279 Y48.1644
G01 X26.9376 Y48.1484
G01 X26.9467 Y48.1296
G01 X26.9532 Y48.1120
G01 X26.9551 Y48.1061
G01 X26.9587 Y48.0919
G01 X26.9603 Y48.0837
G01 X26.9626 Y48.0672
G01 X26.9636 Y48.0485
G01 X26.9636 Y48.0136
G01 X26.9628 Y47.9969
G01 X26.9621 Y47.9907
G01 X26.9596 Y47.9742
G01 X26.9556 Y47.9581
G01 X26.9539 Y47.9520
G01 X26.9475 Y47.9344
G01 X26.9396 Y47.9174
G01 X26.9365 Y47.9119
G01 X26.9279 Y47.8977
G01 X26.9181 Y47.8843
G01 X26.9141 Y47.8794
G01 X26.9015 Y47.8655
G01 X26.8844 Y47.8502
G01 X26.8693 Y47.8391
G01 X26.7829 Y47.7814
G01 X26.5696 Y47.4623
G01 X26.4948 Y47.0859
G01 X26.5696 Y46.7095
G01 X26.7829 Y46.3904
G01 X27.1020 Y46.1772
G01 X27.3833 Y46.1212
G01 X27.5734 Y46.1212
G01 X27.8548 Y46.1772
G01 X28.1739 Y46.3904
G01 X28.3871 Y46.7095
G01 X28.4619 Y47.0859
G01 X28.3928 Y47.4337
G01 X28.3902 Y47.4501
G01 X28.3895 Y47.4564
G01 X28.3887 Y47.4751
G01 X28.3897 Y47.4959
G01 X28.3928 Y47.5165
G01 X28.3985 Y47.5387
G01 X28.4048 Y47.5564
G01 X28.4128 Y47.5733
G01 X28.4222 Y47.5895
G01 X28.4269 Y47.5965
G01 X28.4369 Y47.6098
G01 X28.4509 Y47.6252
G01 X28.4663 Y47.6392
G01 X28.4796 Y47.6492
G01 X28.4866 Y47.6539
G01 X28.5028 Y47.6633
G01 X28.5197 Y47.6713
G01 X28.5374 Y47.6776
G01 X28.5555 Y47.6824
G01 X28.5637 Y47.6841
G01 X28.5802 Y47.6864
G01 X28.5989 Y47.6874
G01 X28.6197 Y47.6866
G01 X28.6383 Y47.6841
G01 X28.6465 Y47.6824
G01 X28.6606 Y47.6789
G01 X28.6666 Y47.6770
G01 X28.6822 Y47.6713
G01 X28.7011 Y47.6623
G01 X28.7189 Y47.6516
G01 X28.7357 Y47.6392
G01 X28.7511 Y47.6252
G01 X28.9984 Y47.3779
G01 X29.0096 Y47.3656
G01 X29.0135 Y47.3607
G01 X29.0234 Y47.3472
G01 X29.0331 Y47.3312
G01 X29.0430 Y47.3105
G01 X29.0494 Y47.2929
G01 X29.0511 Y47.2869
G01 X29.0551 Y47.2707
G01 X29.0576 Y47.2542
G01 X29.0583 Y47.2480
G01 X29.0591 Y47.2293
G01 X29.0581 Y47.2085
G01 X29.0554 Y47.1899
G01 X29.0348 Y47.0859
G01 X29.1096 Y46.7095
G01 X29.3229 Y46.3904
G01 X29.6420 Y46.1772
G01 X29.9233 Y46.1212
G01 X30.1134 Y46.1212
G01 X30.3948 Y46.1772
G01 X30.7139 Y46.3904
G01 X30.9271 Y46.7095
G01 X31.0019 Y47.0859
G01 X30.9328 Y47.4337
G01 X30.9302 Y47.4501
G01 X30.9295 Y47.4564
G01 X30.9287 Y47.4730
G01 X30.9295 Y47.4938
G01 X30.9328 Y47.5165
G01 X30.9372 Y47.5347
G01 X30.9448 Y47.5564
G01 X30.9537 Y47.5752
G01 X30.9645 Y47.5931
G01 X30.9769 Y47.6098
G01 X30.9909 Y47.6252
G01 X31.0063 Y47.6392
G01 X31.0230 Y47.6516
G01 X31.0409 Y47.6623
G01 X31.0597 Y47.6713
G01 X31.0794 Y47.6783
G01 X31.0996 Y47.6833
G01 X31.1202 Y47.6864
G01 X31.1410 Y47.6874
G01 X31.1618 Y47.6864
G01 X31.1824 Y47.6833
G01 X31.2046 Y47.6776
G01 X31.2222 Y47.6713
G01 X31.2429 Y47.6613
G01 X31.2607 Y47.6505
G01 X31.2740 Y47.6405
G01 X31.2788 Y47.6365
G01 X31.2911 Y47.6252
G01 X31.5251 Y47.3913
G01 X31.5377 Y47.3774
G01 X31.5416 Y47.3725
G01 X31.5515 Y47.3591
G01 X31.5601 Y47.3449
G01 X31.5632 Y47.3394
G01 X31.5711 Y47.3224
G01 X31.5787 Y47.3008
G01 X31.5832 Y47.2826
G01 X31.5857 Y47.2661
G01 X31.5864 Y47.2599
G01 X31.5873 Y47.2411
G01 X31.5873 Y46.2568
G01 X31.6003 Y46.1911
G01 X31.6257 Y46.1532
G01 X31.6636 Y46.1278
G01 X31.7293 Y46.1148
G01 X33.1268 Y46.1148
G01 X33.1476 Y46.1138
G01 X33.1662 Y46.1111
G01 X33.1723 Y46.1098
G01 X33.1885 Y46.1056
G01 X33.2042 Y46.1001
G01 X33.2100 Y46.0978
G01 X33.2269 Y46.0897
G01 X33.2430 Y46.0801
G01 X33.2482 Y46.0766
G01 X33.2615 Y46.0666
G01 X33.2739 Y46.0555
G01 X33.2784 Y46.0511
G01 X33.2909 Y46.0372
G01 X33.3022 Y46.0221
G01 X33.3056 Y46.0169
G01 X33.3141 Y46.0025
G01 X33.3221 Y45.9856
G01 X33.3287 Y45.9681
G01 X33.3311 Y45.9601
G01 X33.3351 Y45.9439
G01 X33.3379 Y45.9254
G01 X33.3391 Y45.9004
G01 X33.3381 Y45.8817
G01 X33.3358 Y45.8652
G01 X33.3346 Y45.8590
G01 X33.3300 Y45.8408
G01 X33.3237 Y45.8232
G01 X33.3213 Y45.8174
G01 X33.3141 Y45.8024
G01 X33.3045 Y45.7863
G01 X33.2896 Y45.7662
G01 X33.2769 Y45.7523
G01 X32.4665 Y44.9419
G01 X32.4510 Y44.9279
G01 X32.4343 Y44.9155
G01 X32.4164 Y44.9048
G01 X32.4014 Y44.8975
G01 X32.3957 Y44.8951
G01 X32.3780 Y44.8888
G01 X32.3578 Y44.8838
G01 X32.3372 Y44.8807
G01 X32.3164 Y44.8797
G01 X23.2775 Y44.8797
G01 X23.2588 Y44.8805
G01 X23.2526 Y44.8812
G01 X23.2382 Y44.8834
G01 X23.2059 Y44.8898
G01 X23.0051 Y44.8498
G01 X22.8349 Y44.7361
G01 X22.7211 Y44.5658
G01 X22.6812 Y44.3650
G01 X22.6875 Y44.3328
G01 X22.6897 Y44.3184
G01 X22.6904 Y44.3121
G01 X22.6912 Y44.2955
G01 X22.6912 Y44.0311
G01 X22.6900 Y44.0082
G01 X22.6872 Y43.9897
G01 X22.6832 Y43.9735
G01 X22.6808 Y43.9655
G01 X22.6742 Y43.9480
G01 X22.6662 Y43.9310
G01 X22.6566 Y43.9149
G01 X22.6456 Y43.8997
G01 X22.6403 Y43.8933
G01 X22.6291 Y43.8810
G01 X22.4184 Y43.6704
G01 X22.4045 Y43.6579
G01 X22.3895 Y43.6467
G01 X22.3735 Y43.6368
G01 X22.3661 Y43.6329
G01 X22.3491 Y43.6251
G01 X22.3294 Y43.6182
G01 X22.3112 Y43.6138
G01 X22.2885 Y43.6105
G01 X22.2698 Y43.6097
G01 X22.0564 Y43.6097
G01 X22.0377 Y43.6107
G01 X22.0171 Y43.6138
G01 X21.9969 Y43.6188
G01 X21.9812 Y43.6243
G01 X21.9754 Y43.6267
G01 X21.9622 Y43.6329
G01 X21.9548 Y43.6368
G01 X21.9406 Y43.6455
G01 X21.9238 Y43.6579
G01 X21.9084 Y43.6719
G01 X21.8971 Y43.6841
G01 X21.8918 Y43.6906
G01 X21.8832 Y43.7023
G01 X21.8798 Y43.7076
G01 X21.8713 Y43.7219
G01 X21.8624 Y43.7408
G01 X21.8554 Y43.7604
G01 X21.8507 Y43.7785
G01 X21.8472 Y43.8012
G01 X21.8462 Y43.8241
G01 X21.8471 Y43.8407
G01 X21.8478 Y43.8470
G01 X21.8503 Y43.8634
G01 X21.8542 Y43.8796
G01 X21.8560 Y43.8856
G01 X21.8624 Y43.9032
G01 X21.8723 Y43.9239
G01 X21.8820 Y43.9400
G01 X21.9275 Y44.0081
G01 X21.9985 Y44.3650
G01 X21.9275 Y44.7219
G01 X21.7254 Y45.0245
G01 X21.4228 Y45.2266
G01 X21.1560 Y45.2797
G01 X20.1758 Y45.2797
G01 X19.9090 Y45.2266
G01 X19.6065 Y45.0245
G01 X19.4043 Y44.7219
G01 X19.3333 Y44.3650
G01 X19.4043 Y44.0081
G01 X19.4510 Y43.9382
G01 X19.4606 Y43.9221
G01 X19.4686 Y43.9052
G01 X19.4765 Y43.8836
G01 X19.4815 Y43.8634
G01 X19.4846 Y43.8428
G01 X19.4856 Y43.8220
G01 X19.4846 Y43.8012
G01 X19.4819 Y43.7826
G01 X19.4806 Y43.7765
G01 X19.4765 Y43.7604
G01 X19.4710 Y43.7447
G01 X19.4686 Y43.7388
G01 X19.4606 Y43.7219
G01 X19.4498 Y43.7040
G01 X19.4387 Y43.6889
G01 X19.4347 Y43.6841
G01 X19.4234 Y43.6719
G01 X19.4112 Y43.6606
G01 X19.4064 Y43.6566
G01 X19.3930 Y43.6467
G01 X19.3770 Y43.6368
G01 X19.3697 Y43.6329
G01 X19.3546 Y43.6258
G01 X19.3349 Y43.6188
G01 X19.3168 Y43.6142
G01 X19.3106 Y43.6131
G01 X19.2941 Y43.6107
G01 X19.2754 Y43.6097
G01 X17.5625 Y43.6097
G01 X17.5438 Y43.6105
G01 X17.5376 Y43.6112
G01 X17.5232 Y43.6134
G01 X17.4909 Y43.6198
G01 X17.2901 Y43.5798
G01 X17.1199 Y43.4661
G01 X17.1016 Y43.4388
G01 X17.0929 Y43.4270
G01 X17.0890 Y43.4221
G01 X17.0764 Y43.4083
G01 X16.0699 Y42.4019
G01 X16.0545 Y42.3879
G01 X16.0395 Y42.3767
G01 X16.0342 Y42.3732
G01 X16.0199 Y42.3648
G01 X16.0049 Y42.3575
G01 X15.9991 Y42.3551
G01 X15.9834 Y42.3495
G01 X15.9653 Y42.3447
G01 X15.9571 Y42.3431
G01 X15.9406 Y42.3407
G01 X15.9198 Y42.3397
G01 X14.3156 Y42.3397
G01 X14.2948 Y42.3407
G01 X14.2783 Y42.3431
G01 X14.2721 Y42.3442
G01 X14.2540 Y42.3488
G01 X14.2343 Y42.3558
G01 X14.2155 Y42.3648
G01 X14.1959 Y42.3767
G01 X14.1809 Y42.3879
G01 X14.1685 Y42.3990
G01 X14.1640 Y42.4034
G01 X14.1515 Y42.4173
G01 X14.1402 Y42.4323
G01 X14.1054 Y42.4845
G01 X13.8028 Y42.6866
G01 X13.5360 Y42.7397
G01 X12.5558 Y42.7397
G01 X12.2890 Y42.6866
G01 X11.9841 Y42.4829
G01 X11.9698 Y42.4744
G01 X11.9643 Y42.4715
G01 X11.9492 Y42.4644
G01 X11.9335 Y42.4587
G01 X11.9275 Y42.4568
G01 X11.9114 Y42.4528
G01 X11.8929 Y42.4498
G01 X11.8866 Y42.4491
G01 X11.8721 Y42.4484
G01 X11.8637 Y42.4484
G01 X11.8450 Y42.4495
G01 X11.8245 Y42.4528
G01 X11.8043 Y42.4580
G01 X11.7886 Y42.4637
G01 X11.7828 Y42.4661
G01 X11.7678 Y42.4733
G01 X11.7535 Y42.4818
G01 X11.7482 Y42.4852
G01 X11.7332 Y42.4965
G01 X11.7193 Y42.5090
G01 X11.7149 Y42.5135
G01 X11.7038 Y42.5259
G01 X11.6926 Y42.5409
G01 X11.6797 Y42.5624
G01 X11.6718 Y42.5793
G01 X11.6661 Y42.5950
G01 X11.6642 Y42.6010
G01 X11.6597 Y42.6192
G01 X11.6569 Y42.6377
G01 X11.6563 Y42.6440
G01 X11.6556 Y42.6606
G01 X11.6556 Y43.5294
G01 X11.6563 Y43.5460
G01 X11.6569 Y43.5523
G01 X11.6593 Y43.5688
G01 X11.6636 Y43.5870
G01 X11.6654 Y43.5930
G01 X11.6703 Y43.6068
G01 X11.6735 Y43.6145
G01 X11.6807 Y43.6295
G01 X11.6914 Y43.6474
G01 X11.7038 Y43.6641
G01 X11.7178 Y43.6795
G01 X11.7316 Y43.6922
G01 X11.7365 Y43.6961
G01 X11.7500 Y43.7059
G01 X11.7642 Y43.7146
G01 X11.7697 Y43.7176
G01 X11.7867 Y43.7256
G01 X11.8043 Y43.7320
G01 X11.8103 Y43.7337
G01 X11.8265 Y43.7376
G01 X11.8430 Y43.7402
G01 X11.8492 Y43.7409
G01 X11.8679 Y43.7417
G01 X11.8866 Y43.7409
G01 X11.8929 Y43.7402
G01 X11.9093 Y43.7376
G01 X11.9275 Y43.7332
G01 X11.9453 Y43.7271
G01 X11.9530 Y43.7239
G01 X11.9680 Y43.7167
G01 X11.9841 Y43.7071
G01 X12.2890 Y43.5034
G01 X12.5558 Y43.4503
G01 X13.5360 Y43.4503
G01 X13.8028 Y43.5034
G01 X14.1054 Y43.7055
G01 X14.3075 Y44.0081
G01 X14.3785 Y44.3650
G01 X14.3075 Y44.7219
G01 X14.2560 Y44.7990
G01 X14.2453 Y44.8169
G01 X14.2364 Y44.8357
G01 X14.2307 Y44.8514
G01 X14.2288 Y44.8573
G01 X14.2252 Y44.8715
G01 X14.2236 Y44.8797
G01 X14.2213 Y44.8961
G01 X14.2203 Y44.9128
G01 X14.2203 Y44.9190
G01 X14.2209 Y44.9336
G01 X14.2215 Y44.9398
G01 X14.2239 Y44.9563
G01 X14.2288 Y44.9766
G01 X14.2364 Y44.9982
G01 X14.2453 Y45.0170
G01 X14.2560 Y45.0349
G01 X14.2698 Y45.0532
G01 X14.2810 Y45.0656
G01 X14.2855 Y45.0700
G01 X14.2979 Y45.0811
G01 X14.3112 Y45.0911
G01 X14.3163 Y45.0946
G01 X14.3325 Y45.1042
G01 X14.3532 Y45.1139
G01 X14.3709 Y45.1201
G01 X14.3891 Y45.1248
G01 X14.5167 Y45.1502
G01 X14.6440 Y45.2352
G01 X17.6768 Y48.2680
G01 X17.6908 Y48.2805
G01 X17.7041 Y48.2905
G01 X17.7093 Y48.2941
G01 X17.7254 Y48.3036
G01 X17.7442 Y48.3126
G01 X17.7599 Y48.3183
G01 X17.7679 Y48.3207
G01 X17.7867 Y48.3252
G01 X17.9570 Y48.4389
G01 X17.9753 Y48.4662
G01 X17.9839 Y48.4780
G01 X17.9878 Y48.4829
G01 X18.0005 Y48.4967
G01 X19.0742 Y49.5704
G01 X19.0881 Y49.5831
G01 X19.0930 Y49.5870
G01 X19.1047 Y49.5957
G01 X19.1320 Y49.6139
G01 X19.2457 Y49.7842
G01 X19.2857 Y49.9850
G01 X19.2793 Y50.0172
G01 X19.2771 Y50.0316
G01 X19.2765 Y50.0379
G01 X19.2756 Y50.0566
G01 X19.2756 Y50.7153
G01 X19.2765 Y50.7341
G01 X19.2771 Y50.7403
G01 X19.2797 Y50.7568
G01 X19.2836 Y50.7729
G01 X19.2854 Y50.7790
G01 X19.2918 Y50.7966
G01 X19.3007 Y50.8154
G01 X19.3114 Y50.8333
G01 X19.3225 Y50.8484
G01 X19.3265 Y50.8532
G01 X19.3393 Y50.8669
G01 X19.3549 Y50.8808
G01 X19.3700 Y50.8919
G01 X19.4204 Y50.9255
G01 X19.6225 Y51.2281
G01 X19.6756 Y51.4949
G01 X19.6756 Y52.4751
G01 X19.6225 Y52.7419
G01 X19.4204 Y53.0445
G01 X19.1178 Y53.2466
G01 X18.7609 Y53.3176
G01 X18.4040 Y53.2466
G01 X18.3341 Y53.1999
G01 X18.3180 Y53.1904
G01 X18.3011 Y53.1823
G01 X18.2796 Y53.1744
G01 X18.2593 Y53.1694
G01 X18.2387 Y53.1663
G01 X18.2158 Y53.1653
G01 X18.1971 Y53.1663
G01 X18.1806 Y53.1687
G01 X18.1745 Y53.1698
G01 X18.1563 Y53.1744
G01 X18.1386 Y53.1807
G01 X18.1328 Y53.1832
G01 X18.1178 Y53.1904
G01 X18.1035 Y53.1988
G01 X18.0982 Y53.2023
G01 X18.0832 Y53.2135
G01 X18.0693 Y53.2260
G01 X18.0649 Y53.2305
G01 X18.0538 Y53.2429
G01 X18.0426 Y53.2579
G01 X18.0297 Y53.2794
G01 X18.0226 Y53.2944
G01 X18.0203 Y53.3003
G01 X18.0148 Y53.3160
G01 X18.0106 Y53.3321
G01 X18.0093 Y53.3382
G01 X18.0066 Y53.3568
G01 X18.0056 Y53.3776
G01 X18.0056 Y55.7030
G01 X18.0065 Y55.7217
G01 X18.0071 Y55.7280
G01 X18.0097 Y55.7444
G01 X18.0147 Y55.7646
G01 X18.0218 Y55.7842
G01 X18.0288 Y55.7993
G01 X18.0317 Y55.8049
G01 X18.0392 Y55.8174
G01 X18.0438 Y55.8244
G01 X18.0525 Y55.8361
G01 X18.0565 Y55.8409
G01 X18.0678 Y55.8531
G01 X18.0801 Y55.8644
G01 X18.0849 Y55.8684
G01 X18.1000 Y55.8795
G01 X18.1178 Y55.8902
G01 X18.1347 Y55.8983
G01 X18.1406 Y55.9007
G01 X18.1563 Y55.9062
G01 X18.1724 Y55.9103
G01 X18.1786 Y55.9116
G01 X18.1971 Y55.9143
G01 X18.2179 Y55.9153
G01 X27.5793 Y55.9153
G01 X27.5981 Y55.9145
G01 X27.6043 Y55.9138
G01 X27.6187 Y55.9116
G01 X27.6509 Y55.9052
G01 X27.6832 Y55.9116
G01 X27.6976 Y55.9138
G01 X27.7038 Y55.9145
G01 X27.7225 Y55.9153
G01 X45.7648 Y55.9153
G01 X45.7835 Y55.9145
G01 X45.7898 Y55.9138
G01 X45.8062 Y55.9112
G01 X45.8224 Y55.9073
G01 X45.8284 Y55.9055
G01 X45.8460 Y55.8992
G01 X45.8630 Y55.8912
G01 X45.8685 Y55.8882
G01 X45.8827 Y55.8795
G01 X45.8962 Y55.8697
G01 X45.9011 Y55.8658
G01 X45.9149 Y55.8531
G01 X48.9965 Y52.7716
G01 X49.0105 Y52.7561
G01 X49.0229 Y52.7394
G01 X49.0336 Y52.7215
G01 X49.0408 Y52.7065
G01 X49.0433 Y52.7007
G01 X49.0495 Y52.6831
G01 X49.0546 Y52.6629
G01 X49.0576 Y52.6422
G01 X49.0587 Y52.6214
G01 X49.0587 Y48.5575
G01 X49.0578 Y48.5387
G01 X49.0571 Y48.5325
G01 X49.0550 Y48.5181
G01 X49.0486 Y48.4859
G01 X49.0885 Y48.2851
G01 X49.2023 Y48.1148
G01 X49.2296 Y48.0965
G01 X49.2413 Y48.0879
G01 X49.2462 Y48.0839
G01 X49.2600 Y48.0713
G01 X49.9965 Y47.3349
G01 X50.0091 Y47.3210
G01 X50.0131 Y47.3161
G01 X50.0229 Y47.3027
G01 X50.0315 Y47.2885
G01 X50.0346 Y47.2830
G01 X50.0425 Y47.2660
G01 X50.0495 Y47.2464
G01 X50.0546 Y47.2262
G01 X50.0578 Y47.2035
G01 X50.0587 Y47.1847
G01 X50.0587 Y46.9039
G01 X50.1979 Y46.5677
G01 X50.4552 Y46.3104
G01 X50.7914 Y46.1712
G01 X51.1553 Y46.1712
G01 X51.4915 Y46.3104
G01 X51.7488 Y46.5677
G01 X51.8880 Y46.9039
G01 X51.8880 Y47.2678
G01 X51.7488 Y47.6040
G01 X51.4915 Y47.8613
G01 X51.1553 Y48.0006
G01 X50.8745 Y48.0006
G01 X50.8537 Y48.0016
G01 X50.8331 Y48.0046
G01 X50.8149 Y48.0091
G01 X50.8089 Y48.0110
G01 X50.7932 Y48.0167
G01 X50.7781 Y48.0237
G01 X50.7726 Y48.0266
G01 X50.7583 Y48.0352
G01 X50.7398 Y48.0487
G01 X50.7244 Y48.0627
G01 X50.1488 Y48.6384
G01 X50.1376 Y48.6507
G01 X50.1337 Y48.6556
G01 X50.1238 Y48.6691
G01 X50.1152 Y48.6833
G01 X50.1121 Y48.6888
G01 X50.1042 Y48.7058
G01 X50.0972 Y48.7254
G01 X50.0926 Y48.7435
G01 X50.0914 Y48.7497
G01 X50.0891 Y48.7662
G01 X50.0880 Y48.7870
G01 X50.0880 Y52.4964
G01 X50.0891 Y52.5173
G01 X50.0921 Y52.5379
G01 X50.0972 Y52.5581
G01 X50.1027 Y52.5738
G01 X50.1059 Y52.5815
G01 X50.1141 Y52.5984
G01 X50.1227 Y52.6126
G01 X50.1405 Y52.6394
G01 X50.1805 Y52.8402
G01 X50.1405 Y53.0410
G01 X50.0268 Y53.2113
G01 X49.9995 Y53.2296
G01 X49.9877 Y53.2382
G01 X49.9828 Y53.2421
G01 X49.9690 Y53.2548
G01 X46.4805 Y56.7433
G01 X46.4678 Y56.7571
G01 X46.4639 Y56.7620
G01 X46.4553 Y56.7738
G01 X46.4370 Y56.8011
G01 X46.2667 Y56.9148
G01 X46.0659 Y56.9548
G01 X46.0337 Y56.9484
G01 X46.0193 Y56.9462
G01 X46.0131 Y56.9455
G01 X45.9943 Y56.9447
G01 X27.9521 Y56.9447
G01 X27.9333 Y56.9455
G01 X27.9271 Y56.9462
G01 X27.9106 Y56.9488
G01 X27.8904 Y56.9538
G01 X27.8708 Y56.9608
G01 X27.8557 Y56.9679
G01 X27.8483 Y56.9718
G01 X27.8324 Y56.9817
G01 X27.8174 Y56.9929
G01 X27.8019 Y57.0069
G01 X11.7178 Y73.0910
G01 X11.7051 Y73.1048
G01 X11.6938 Y73.1198
G01 X11.6892 Y73.1267
G01 X11.6807 Y73.1411
G01 X11.6718 Y73.1599
G01 X11.6647 Y73.1795
G01 X11.6606 Y73.1956
G01 X11.6590 Y73.2038
G01 X11.6565 Y73.2224
G01 X11.6556 Y73.2411
G01 X11.6556 Y73.5774
G01 X11.6565 Y73.5941
G01 X11.6571 Y73.6003
G01 X11.6597 Y73.6168
G01 X11.6642 Y73.6350
G01 X11.6718 Y73.6566
G01 X11.6807 Y73.6754
G01 X11.6914 Y73.6933
G01 X11.7025 Y73.7084
G01 X11.7065 Y73.7132
G01 X11.7193 Y73.7269
G01 X11.7349 Y73.7408
G01 X11.7500 Y73.7519
G01 X11.8004 Y73.7855
G01 X12.0025 Y74.0881
G01 X12.0556 Y74.3549
G01 X12.0556 Y75.3351
G01 X12.0025 Y75.6019
G01 X11.8004 Y75.9045
G01 X11.4978 Y76.1066
G01 X11.1409 Y76.1776
G01 X10.7840 Y76.1066
G01 X10.4815 Y75.9045
G01 X10.2793 Y75.6019
G01 X10.2262 Y75.3351
G01 X10.2262 Y74.3549
G01 X10.2793 Y74.0881
G01 X10.4815 Y73.7855
G01 X10.5319 Y73.7519
G01 X10.5470 Y73.7408
G01 X10.5626 Y73.7269
G01 X10.5753 Y73.7132
G01 X10.5793 Y73.7084
G01 X10.5905 Y73.6933
G01 X10.6012 Y73.6754
G01 X10.6101 Y73.6566
G01 X10.6177 Y73.6350
G01 X10.6222 Y73.6168
G01 X10.6247 Y73.6003
G01 X10.6254 Y73.5941
G01 X10.6262 Y73.5753
G01 X10.6262 Y72.9166
G01 X10.6254 Y72.8979
G01 X10.6247 Y72.8916
G01 X10.6225 Y72.8772
G01 X10.6162 Y72.8450
G01 X10.6561 Y72.6442
G01 X10.7699 Y72.4739
G01 X10.9401 Y72.3602
G01 X10.9590 Y72.3557
G01 X10.9670 Y72.3533
G01 X10.9826 Y72.3476
G01 X11.0015 Y72.3386
G01 X11.0193 Y72.3279
G01 X11.0328 Y72.3181
G01 X11.0377 Y72.3142
G01 X11.0515 Y72.3015
G01 X26.0459 Y57.3071
G01 X26.0599 Y57.2917
G01 X26.0711 Y57.2767
G01 X26.0746 Y57.2714
G01 X26.0830 Y57.2571
G01 X26.0902 Y57.2421
G01 X26.0927 Y57.2363
G01 X26.0990 Y57.2186
G01 X26.1040 Y57.1984
G01 X26.1069 Y57.1799
G01 X26.1074 Y57.1736
G01 X26.1081 Y57.1591
G01 X26.1080 Y57.1528
G01 X26.1071 Y57.1362
G01 X26.1047 Y57.1197
G01 X26.1036 Y57.1135
G01 X26.1001 Y57.0994
G01 X26.0976 Y57.0914
G01 X26.0911 Y57.0738
G01 X26.0820 Y57.0551
G01 X26.0723 Y57.0390
G01 X26.0599 Y57.0223
G01 X26.0459 Y57.0069
G01 X26.0321 Y56.9942
G01 X26.0155 Y56.9817
G01 X25.9995 Y56.9718
G01 X25.9940 Y56.9688
G01 X25.9809 Y56.9625
G01 X25.9731 Y56.9593
G01 X25.9574 Y56.9538
G01 X25.9372 Y56.9488
G01 X25.9166 Y56.9457
G01 X25.8979 Y56.9447
G01 X17.5625 Y56.9447
G01 X17.5438 Y56.9455
G01 X17.5376 Y56.9462
G01 X17.5232 Y56.9484
G01 X17.4909 Y56.9548
G01 X17.2901 Y56.9148
G01 X17.1199 Y56.8011
G01 X17.0061 Y56.6308
G01 X16.9662 Y56.4300
G01 X16.9725 Y56.3978
G01 X16.9747 Y56.3834
G01 X16.9754 Y56.3771
G01 X16.9762 Y56.3584
G01 X16.9762 Y53.3776
G01 X16.9752 Y53.3568
G01 X16.9722 Y53.3362
G01 X16.9671 Y53.3160
G01 X16.9601 Y53.2964
G01 X16.9512 Y53.2775
G01 X16.9427 Y53.2632
G01 X16.9393 Y53.2579
G01 X16.9280 Y53.2429
G01 X16.9155 Y53.2290
G01 X16.9110 Y53.2246
G01 X16.8986 Y53.2135
G01 X16.8819 Y53.2011
G01 X16.8658 Y53.1914
G01 X16.8603 Y53.1885
G01 X16.8452 Y53.1815
G01 X16.8256 Y53.1744
G01 X16.8053 Y53.1694
G01 X16.7889 Y53.1668
G01 X16.7806 Y53.1660
G01 X16.7618 Y53.1653
G01 X16.7431 Y53.1663
G01 X16.7225 Y53.1694
G01 X16.7023 Y53.1744
G01 X16.6807 Y53.1823
G01 X16.6638 Y53.1904
G01 X16.6477 Y53.1999
G01 X16.5778 Y53.2466
G01 X16.2209 Y53.3176
G01 X15.8640 Y53.2466
G01 X15.5615 Y53.0445
G01 X15.3593 Y52.7419
G01 X15.3062 Y52.4751
G01 X15.3062 Y51.4840
G01 X15.3052 Y51.4653
G01 X15.3022 Y51.4447
G01 X15.2971 Y51.4245
G01 X15.2909 Y51.4068
G01 X15.2812 Y51.3860
G01 X15.2705 Y51.3682
G01 X15.2580 Y51.3514
G01 X15.2455 Y51.3375
G01 X14.8684 Y50.9605
G01 X14.8560 Y50.9494
G01 X14.8393 Y50.9370
G01 X14.8214 Y50.9263
G01 X14.8064 Y50.9191
G01 X14.7987 Y50.9159
G01 X14.7850 Y50.9110
G01 X14.7789 Y50.9093
G01 X14.7628 Y50.9053
G01 X14.7422 Y50.9023
G01 X14.7213 Y50.9012
G01 X14.7005 Y50.9023
G01 X14.6799 Y50.9053
G01 X14.6597 Y50.9104
G01 X14.6401 Y50.9174
G01 X14.6213 Y50.9263
G01 X14.6034 Y50.9370
G01 X14.5867 Y50.9494
G01 X14.5712 Y50.9634
G01 X14.5572 Y50.9789
G01 X14.5448 Y50.9956
G01 X14.5341 Y51.0135
G01 X14.5252 Y51.0323
G01 X14.5182 Y51.0519
G01 X14.5131 Y51.0721
G01 X14.5101 Y51.0927
G01 X14.5090 Y51.1136
G01 X14.5097 Y51.1302
G01 X14.5106 Y51.1385
G01 X14.5135 Y51.1570
G01 X14.5182 Y51.1752
G01 X14.5252 Y51.1948
G01 X14.5341 Y51.2136
G01 X14.5425 Y51.2278
G01 X14.5956 Y51.4949
G01 X14.5956 Y52.4751
G01 X14.5425 Y52.7419
G01 X14.3404 Y53.0445
G01 X14.0378 Y53.2466
G01 X13.6809 Y53.3176
G01 X13.3240 Y53.2466
G01 X13.0215 Y53.0445
G01 X12.8193 Y52.7419
G01 X12.7662 Y52.4751
G01 X12.7662 Y51.4840
G01 X12.7652 Y51.4653
G01 X12.7622 Y51.4447
G01 X12.7571 Y51.4245
G01 X12.7501 Y51.4049
G01 X12.7412 Y51.3860
G01 X12.7305 Y51.3682
G01 X12.7180 Y51.3514
G01 X12.7055 Y51.3375
G01 X12.3315 Y50.9634
G01 X12.3144 Y50.9481
G01 X12.3010 Y50.9382
G01 X12.2958 Y50.9348
G01 X12.2814 Y50.9263
G01 X12.2664 Y50.9191
G01 X12.2606 Y50.9166
G01 X12.2430 Y50.9104
G01 X12.2228 Y50.9053
G01 X12.2022 Y50.9023
G01 X12.1834 Y50.9013
G01 X12.1772 Y50.9013
G01 X12.1605 Y50.9023
G01 X12.1440 Y50.9046
G01 X12.1379 Y50.9058
G01 X12.1197 Y50.9104
G01 X12.1001 Y50.9174
G01 X12.0850 Y50.9244
G01 X12.0794 Y50.9273
G01 X12.0669 Y50.9348
G01 X12.0600 Y50.9394
G01 X12.0467 Y50.9494
G01 X12.0312 Y50.9634
G01 X12.0172 Y50.9789
G01 X12.0048 Y50.9956
G01 X11.9941 Y51.0135
G01 X11.9852 Y51.0323
G01 X11.9782 Y51.0519
G01 X11.9740 Y51.0681
G01 X11.9727 Y51.0742
G01 X11.9703 Y51.0907
G01 X11.9691 Y51.1094
G01 X11.9691 Y51.1177
G01 X11.9699 Y51.1323
G01 X11.9706 Y51.1385
G01 X11.9735 Y51.1570
G01 X11.9788 Y51.1772
G01 X11.9844 Y51.1929
G01 X11.9869 Y51.1986
G01 X11.9941 Y51.2136
G01 X12.0025 Y51.2278
G01 X12.0061 Y51.2457
G01 X12.0113 Y51.2659
G01 X12.0177 Y51.2835
G01 X12.0266 Y51.3023
G01 X12.0373 Y51.3202
G01 X12.1909 Y51.5501
G01 X12.2774 Y51.9850
G01 X12.1909 Y52.4199
G01 X12.0373 Y52.6498
G01 X12.0287 Y52.6640
G01 X12.0257 Y52.6695
G01 X12.0185 Y52.6846
G01 X12.0113 Y52.7041
G01 X12.0061 Y52.7243
G01 X12.0025 Y52.7419
G01 X11.7873 Y53.0640
G01 X11.7745 Y53.0812
G01 X11.7638 Y53.0990
G01 X11.7541 Y53.1198
G01 X11.7479 Y53.1375
G01 X11.7428 Y53.1577
G01 X11.7396 Y53.1804
G01 X11.7388 Y53.1970
G01 X11.7390 Y53.2057
G01 X11.6509 Y53.6484
G01 X11.4046 Y54.0171
G01 X11.3272 Y54.0688
G01 X11.3122 Y54.0801
G01 X11.2967 Y54.0940
G01 X10.2955 Y55.0953
G01 X10.2830 Y55.1092
G01 X10.2718 Y55.1242
G01 X10.2200 Y55.2016
G01 X9.8513 Y55.4480
G01 X9.4164 Y55.5345
G01 X9.2597 Y55.5034
G01 X9.2412 Y55.5007
G01 X9.2204 Y55.4997
G01 X7.2689 Y55.4997
G01 X7.2481 Y55.5007
G01 X7.2295 Y55.5034
G01 X7.1382 Y55.5215
G01 X6.7032 Y55.4350
G01 X6.3345 Y55.1887
G01 X6.2828 Y55.1112
G01 X6.2715 Y55.0962
G01 X6.2576 Y55.0808
G01 X1.5401 Y50.3634
G01 X1.5247 Y50.3494
G01 X1.5097 Y50.3381
G01 X1.4323 Y50.2864
G01 X1.1859 Y49.9177
G01 X1.0994 Y49.4828
G01 X1.1175 Y49.3914
G01 X1.1202 Y49.3729
G01 X1.1212 Y49.3521
G01 X1.1212 Y28.0007
G01 X1.1202 Y27.9799
G01 X1.1175 Y27.9613
G01 X1.0994 Y27.8700
G01 X1.1859 Y27.4351
G01 X1.4323 Y27.0664
G01 X1.5097 Y27.0146
G01 X1.5247 Y27.0034
G01 X1.5401 Y26.9894
G01 X3.6994 Y24.8301
G01 X3.7134 Y24.8147
G01 X3.7258 Y24.7980
G01 X3.7365 Y24.7801
G01 X3.7454 Y24.7612
G01 X3.7524 Y24.7416
G01 X3.7575 Y24.7214
G01 X3.7606 Y24.7008
G01 X3.7616 Y24.6800
G01 X3.7606 Y24.6592
G01 X3.7575 Y24.6386
G01 X3.7524 Y24.6184
G01 X3.7454 Y24.5988
G01 X3.7365 Y24.5799
G01 X3.7258 Y24.5620
G01 X3.7134 Y24.5453
G01 X3.6994 Y24.5299
G01 X1.2251 Y22.0556
G01 X1.2097 Y22.0416
G01 X1.1947 Y22.0304
G01 X1.1173 Y21.9786
G01 X0.8709 Y21.6099
G01 X0.7844 Y21.1750
G01 X0.8025 Y21.0837
G01 X0.8052 Y21.0651
G01 X0.8062 Y21.0443
G01 X0.8062 Y11.9589
G01 X0.8052 Y11.9381
G01 X0.8025 Y11.9196
G01 X0.7844 Y11.8283
G01 X0.8022 Y11.7389
G00 X0.8022 Y11.7389
G01 F60.00
G01 Z-0.1999
G01 F100.00
G01 X0.8709 Y11.3933
G01 X1.1173 Y11.0246
G01 X1.1706 Y10.9889
G01 X1.1872 Y10.9764
G01 X1.2011 Y10.9637
G01 X1.2123 Y10.9515
G01 X1.2163 Y10.9467
G01 X1.2275 Y10.9315
G01 X1.2372 Y10.9155
G01 X1.2400 Y10.9099
G01 X1.2471 Y10.8948
G01 X1.2541 Y10.8752
G01 X1.2587 Y10.8571
G01 X1.2599 Y10.8509
G01 X1.2622 Y10.8344
G01 X1.2631 Y10.8178
G01 X1.2632 Y2.3317
G01 X1.2622 Y2.3109
G01 X1.2595 Y2.2923
G01 X1.2414 Y2.2010
G01 X1.3279 Y1.7661
G01 X1.5743 Y1.3974
G01 X1.9430 Y1.1510
G01 X2.3779 Y1.0645
G01 X2.4693 Y1.0826
G01 X2.4878 Y1.0853
G01 X2.5086 Y1.0863
G01 X6.9462 Y1.0863
G01 X6.9670 Y1.0853
G01 X6.9856 Y1.0826
G01 X7.0769 Y1.0645
G01 X7.5119 Y1.1510
G01 X7.8806 Y1.3974
G01 X7.9323 Y1.4748
G01 X7.9435 Y1.4898
G01 X7.9575 Y1.5052
G01 X11.6675 Y5.2151
G01 X11.6813 Y5.2278
G01 X11.6862 Y5.2317
G01 X11.6996 Y5.2415
G01 X11.7175 Y5.2522
G01 X11.7344 Y5.2603
G01 X11.7402 Y5.2627
G01 X11.7560 Y5.2682
G01 X11.7762 Y5.2732
G01 X11.7968 Y5.2763
G01 X11.8176 Y5.2773
G01 X22.9250 Y5.2773
G01 X22.9458 Y5.2763
G01 X22.9643 Y5.2736
G01 X23.0557 Y5.2555
G01 X23.4069 Y5.3253
G01 X23.4275 Y5.3284
G01 X23.4483 Y5.3294
G01 X23.4691 Y5.3284
G01 X23.4897 Y5.3253
G01 X23.8409 Y5.2555
G01 X24.2759 Y5.3420
G01 X24.6446 Y5.5884
G01 X24.6963 Y5.6658
G01 X24.7075 Y5.6808
G01 X24.7215 Y5.6962
G01 X34.2735 Y15.2481
G01 X34.2889 Y15.2621
G01 X34.3074 Y15.2757
G01 X34.3235 Y15.2852
G01 X34.3385 Y15.2925
G01 X34.3443 Y15.2949
G01 X34.3620 Y15.3012
G01 X34.3801 Y15.3058
G01 X34.3863 Y15.3069
G01 X34.4028 Y15.3093
G01 X34.4236 Y15.3103
G01 X43.1412 Y15.3103
G01 X43.1620 Y15.3093
G01 X43.1806 Y15.3066
G01 X43.2719 Y15.2885
G01 X43.7069 Y15.3750
G01 X44.0756 Y15.6214
G01 X44.1273 Y15.6988
G01 X44.1385 Y15.7138
G01 X44.1525 Y15.7292
G01 X56.1617 Y27.7384
G01 X56.1771 Y27.7524
G01 X56.1922 Y27.7636
G01 X56.2696 Y27.8154
G01 X56.3368 Y27.9160
G01 X56.3466 Y27.9294
G01 X56.3505 Y27.9343
G01 X56.3632 Y27.9481
G01 X56.3770 Y27.9608
G01 X56.3819 Y27.9647
G01 X56.3954 Y27.9745
G01 X56.4114 Y27.9842
G01 X56.4340 Y27.9949
G01 X56.4517 Y28.0012
G01 X56.4698 Y28.0058
G01 X56.4884 Y28.0088
G01 X56.4967 Y28.0096
G01 X56.5133 Y28.0103
G01 X57.1379 Y28.0103
G01 X57.1587 Y28.0093
G01 X57.1814 Y28.0058
G01 X57.1995 Y28.0012
G01 X57.2191 Y27.9942
G01 X57.2380 Y27.9852
G01 X57.2523 Y27.9768
G01 X57.2576 Y27.9733
G01 X57.2693 Y27.9647
G01 X57.2757 Y27.9594
G01 X57.2895 Y27.9466
G01 X57.3033 Y27.9311
G01 X57.3144 Y27.9160
G01 X57.3241 Y27.8999
G01 X57.3323 Y27.8831
G01 X57.3355 Y27.8753
G01 X57.3411 Y27.8596
G01 X57.3457 Y27.8415
G01 X57.3579 Y27.7803
G01 X57.3832 Y27.7423
G01 X57.4212 Y27.7170
G01 X57.4868 Y27.7039
G01 X60.0450 Y27.7039
G01 X60.1107 Y27.7170
G01 X60.1486 Y27.7423
G01 X60.1740 Y27.7803
G01 X60.1870 Y27.8459
G01 X60.1870 Y30.4041
G01 X60.1740 Y30.4697
G01 X60.1486 Y30.5077
G01 X60.1107 Y30.5330
G01 X60.0450 Y30.5461
G01 X57.4868 Y30.5461
G01 X57.4212 Y30.5330
G01 X57.3832 Y30.5077
G01 X57.3579 Y30.4697
G01 X57.3457 Y30.4085
G01 X57.3411 Y30.3904
G01 X57.3355 Y30.3747
G01 X57.3323 Y30.3669
G01 X57.3241 Y30.3501
G01 X57.3144 Y30.3340
G01 X57.3033 Y30.3189
G01 X57.2880 Y30.3019
G01 X57.2742 Y30.2892
G01 X57.2576 Y30.2767
G01 X57.2416 Y30.2668
G01 X57.2342 Y30.2629
G01 X57.2211 Y30.2567
G01 X57.2152 Y30.2543
G01 X57.1975 Y30.2482
G01 X57.1814 Y30.2442
G01 X57.1752 Y30.2431
G01 X57.1587 Y30.2407
G01 X57.1379 Y30.2397
G01 X55.5966 Y30.2397
G01 X55.5758 Y30.2407
G01 X55.5573 Y30.2434
G01 X55.4659 Y30.2615
G01 X55.0310 Y30.1750
G01 X54.6623 Y29.9286
G01 X54.4159 Y29.5599
G01 X54.3246 Y29.1015
G01 X54.3205 Y29.0854
G01 X54.3150 Y29.0697
G01 X54.3126 Y29.0639
G01 X54.3055 Y29.0488
G01 X54.2938 Y29.0291
G01 X54.2801 Y29.0108
G01 X54.2674 Y28.9969
G01 X53.0659 Y27.7954
G01 X53.0520 Y27.7829
G01 X53.0386 Y27.7729
G01 X53.0317 Y27.7682
G01 X53.0155 Y27.7588
G01 X52.9985 Y27.7508
G01 X52.9809 Y27.7445
G01 X52.9628 Y27.7397
G01 X52.9546 Y27.7381
G01 X52.9381 Y27.7357
G01 X52.9173 Y27.7347
G01 X45.0256 Y27.7347
G01 X45.0069 Y27.7357
G01 X44.9884 Y27.7384
G01 X44.9701 Y27.7427
G01 X44.9621 Y27.7451
G01 X44.9465 Y27.7508
G01 X44.9277 Y27.7598
G01 X44.9098 Y27.7705
G01 X44.8963 Y27.7803
G01 X44.8914 Y27.7842
G01 X44.8776 Y27.7969
G01 X44.6790 Y27.9954
G01 X44.3429 Y28.1347
G01 X43.9790 Y28.1347
G01 X43.6428 Y27.9954
G01 X43.3855 Y27.7381
G01 X43.2462 Y27.4019
G01 X43.2462 Y27.0381
G01 X43.3855 Y26.7019
G01 X43.6428 Y26.4446
G01 X43.9790 Y26.3053
G01 X44.3429 Y26.3053
G01 X44.6790 Y26.4446
G01 X44.8776 Y26.6431
G01 X44.8914 Y26.6558
G01 X44.8963 Y26.6597
G01 X44.9098 Y26.6695
G01 X44.9277 Y26.6802
G01 X44.9465 Y26.6892
G01 X44.9621 Y26.6949
G01 X44.9701 Y26.6973
G01 X44.9884 Y26.7016
G01 X45.0069 Y26.7043
G01 X45.0256 Y26.7053
G01 X51.4674 Y26.7052
G01 X51.4862 Y26.7041
G01 X51.5026 Y26.7016
G01 X51.5088 Y26.7003
G01 X51.5229 Y26.6968
G01 X51.5289 Y26.6949
G01 X51.5445 Y26.6892
G01 X51.5596 Y26.6821
G01 X51.5652 Y26.6792
G01 X51.5812 Y26.6695
G01 X51.5980 Y26.6571
G01 X51.6134 Y26.6431
G01 X51.6274 Y26.6277
G01 X51.6398 Y26.6110
G01 X51.6495 Y26.5949
G01 X51.6524 Y26.5893
G01 X51.6586 Y26.5762
G01 X51.6609 Y26.5703
G01 X51.6664 Y26.5546
G01 X51.6706 Y26.5385
G01 X51.6719 Y26.5324
G01 X51.6746 Y26.5138
G01 X51.6756 Y26.4930
G01 X51.6746 Y26.4722
G01 X51.6715 Y26.4516
G01 X51.6670 Y26.4334
G01 X51.6651 Y26.4274
G01 X51.6594 Y26.4118
G01 X51.6505 Y26.3929
G01 X51.6398 Y26.3750
G01 X51.6300 Y26.3616
G01 X51.6260 Y26.3567
G01 X51.6134 Y26.3429
G01 X42.8724 Y17.6019
G01 X42.8570 Y17.5879
G01 X42.8402 Y17.5755
G01 X42.8223 Y17.5648
G01 X42.8073 Y17.5575
G01 X42.8016 Y17.5551
G01 X42.7839 Y17.5488
G01 X42.7657 Y17.5442
G01 X42.7596 Y17.5431
G01 X42.7431 Y17.5407
G01 X42.7223 Y17.5397
G01 X34.0046 Y17.5397
G01 X33.9838 Y17.5407
G01 X33.9653 Y17.5434
G01 X33.8739 Y17.5615
G01 X33.4390 Y17.4750
G01 X33.0703 Y17.2286
G01 X33.0185 Y17.1512
G01 X33.0073 Y17.1362
G01 X32.9933 Y17.1208
G01 X23.7160 Y7.8435
G01 X23.7004 Y7.8297
G01 X23.6870 Y7.8198
G01 X23.6818 Y7.8163
G01 X23.6675 Y7.8079
G01 X23.6524 Y7.8006
G01 X23.6467 Y7.7982
G01 X23.6310 Y7.7926
G01 X23.6088 Y7.7869
G01 X23.4956 Y7.7644
G01 X23.4770 Y7.7617
G01 X23.4583 Y7.7607
G01 X23.4383 Y7.7607
G01 X23.4216 Y7.7615
G01 X23.4154 Y7.7622
G01 X23.4010 Y7.7644
G01 X23.3670 Y7.7711
G01 X23.3448 Y7.7768
G01 X23.3291 Y7.7824
G01 X23.3233 Y7.7849
G01 X23.3083 Y7.7921
G01 X23.2940 Y7.8006
G01 X23.2887 Y7.8040
G01 X23.2737 Y7.8152
G01 X23.2583 Y7.8292
G01 X23.2443 Y7.8447
G01 X23.2319 Y7.8614
G01 X23.2212 Y7.8793
G01 X23.2123 Y7.8981
G01 X23.2052 Y7.9177
G01 X23.2002 Y7.9379
G01 X23.1971 Y7.9585
G01 X23.1961 Y7.9794
G01 X23.1971 Y8.0002
G01 X23.2002 Y8.0208
G01 X23.2052 Y8.0410
G01 X23.2123 Y8.0606
G01 X23.2212 Y8.0794
G01 X23.2319 Y8.0973
G01 X23.2443 Y8.1140
G01 X23.2568 Y8.1280
G01 X31.1392 Y16.0104
G01 X31.1531 Y16.0231
G01 X31.1580 Y16.0270
G01 X31.1697 Y16.0357
G01 X31.1970 Y16.0539
G01 X31.3107 Y16.2242
G01 X31.3507 Y16.4250
G01 X31.3443 Y16.4572
G01 X31.3421 Y16.4716
G01 X31.3415 Y16.4779
G01 X31.3406 Y16.4966
G01 X31.3406 Y30.8239
G01 X31.3416 Y30.8447
G01 X31.3451 Y30.8673
G01 X31.3497 Y30.8855
G01 X31.3553 Y30.9012
G01 X31.3576 Y30.9070
G01 X31.3657 Y30.9239
G01 X31.3752 Y30.9401
G01 X31.3788 Y30.9452
G01 X31.3888 Y30.9586
G01 X31.3999 Y30.9710
G01 X31.5169 Y31.0881
G01 X31.5308 Y31.1008
G01 X31.5457 Y31.1121
G01 X31.5526 Y31.1168
G01 X31.5688 Y31.1262
G01 X31.5877 Y31.1349
G01 X31.6054 Y31.1412
G01 X31.6256 Y31.1462
G01 X31.6462 Y31.1493
G01 X31.6650 Y31.1503
G01 X32.0983 Y31.1503
G01 X32.1171 Y31.1493
G01 X32.1336 Y31.1469
G01 X32.1397 Y31.1458
G01 X32.1579 Y31.1412
G01 X32.1756 Y31.1349
G01 X32.1813 Y31.1325
G01 X32.1963 Y31.1252
G01 X32.2142 Y31.1145
G01 X32.2293 Y31.1034
G01 X32.2341 Y31.0994
G01 X32.2464 Y31.0881
G01 X32.2590 Y31.0743
G01 X32.2716 Y31.0577
G01 X32.3065 Y31.0055
G01 X32.6090 Y30.8034
G01 X32.8758 Y30.7503
G01 X33.8560 Y30.7503
G01 X34.1228 Y30.8034
G01 X34.4254 Y31.0055
G01 X34.6275 Y31.3081
G01 X34.6985 Y31.6650
G01 X34.6275 Y32.0219
G01 X34.4254 Y32.3245
G01 X34.1228 Y32.5266
G01 X33.8560 Y32.5797
G01 X32.8758 Y32.5797
G01 X32.6090 Y32.5266
G01 X32.3065 Y32.3245
G01 X32.2728 Y32.2740
G01 X32.2617 Y32.2589
G01 X32.2478 Y32.2434
G01 X32.2341 Y32.2306
G01 X32.2293 Y32.2266
G01 X32.2142 Y32.2155
G01 X32.1963 Y32.2048
G01 X32.1775 Y32.1958
G01 X32.1599 Y32.1895
G01 X32.1539 Y32.1877
G01 X32.1377 Y32.1838
G01 X32.1212 Y32.1812
G01 X32.1150 Y32.1805
G01 X32.0963 Y32.1797
G01 X31.4375 Y32.1797
G01 X31.4188 Y32.1805
G01 X31.4126 Y32.1812
G01 X31.3982 Y32.1834
G01 X31.3659 Y32.1898
G01 X31.1651 Y32.1498
G01 X30.9949 Y32.0361
G01 X30.9766 Y32.0088
G01 X30.9679 Y31.9970
G01 X30.9640 Y31.9921
G01 X30.9514 Y31.9783
G01 X30.5111 Y31.5381
G01 X30.4988 Y31.5269
G01 X30.4939 Y31.5230
G01 X30.4822 Y31.5143
G01 X30.4549 Y31.4961
G01 X30.3411 Y31.3258
G01 X30.3012 Y31.1250
G01 X30.3075 Y31.0928
G01 X30.3097 Y31.0784
G01 X30.3104 Y31.0721
G01 X30.3112 Y31.0534
G01 X30.3112 Y16.7240
G01 X30.3102 Y16.7053
G01 X30.3079 Y16.6888
G01 X30.3067 Y16.6827
G01 X30.3021 Y16.6645
G01 X30.2951 Y16.6449
G01 X30.2880 Y16.6298
G01 X30.2852 Y16.6242
G01 X30.2755 Y16.6082
G01 X30.2630 Y16.5914
G01 X30.2505 Y16.5775
G01 X30.1436 Y16.4706
G01 X30.1282 Y16.4566
G01 X30.1132 Y16.4454
G01 X30.1079 Y16.4419
G01 X30.0936 Y16.4335
G01 X30.0786 Y16.4263
G01 X30.0728 Y16.4238
G01 X30.0551 Y16.4175
G01 X30.0349 Y16.4125
G01 X30.0143 Y16.4094
G01 X29.9956 Y16.4084
G01 X29.9893 Y16.4085
G01 X29.9727 Y16.4094
G01 X29.9562 Y16.4118
G01 X29.9500 Y16.4129
G01 X29.9319 Y16.4175
G01 X29.9142 Y16.4238
G01 X29.9084 Y16.4263
G01 X29.8934 Y16.4335
G01 X29.8755 Y16.4442
G01 X29.8588 Y16.4566
G01 X29.8464 Y16.4677
G01 X29.8419 Y16.4721
G01 X29.8321 Y16.4828
G01 X29.8268 Y16.4893
G01 X29.8170 Y16.5028
G01 X29.8063 Y16.5206
G01 X29.7973 Y16.5395
G01 X29.7916 Y16.5551
G01 X29.7892 Y16.5631
G01 X29.7857 Y16.5772
G01 X29.7845 Y16.5834
G01 X29.7822 Y16.5999
G01 X29.7812 Y16.6207
G01 X29.7822 Y16.6415
G01 X29.7849 Y16.6601
G01 X29.8107 Y16.7900
G01 X29.8043 Y16.8222
G01 X29.8022 Y16.8366
G01 X29.8015 Y16.8429
G01 X29.8006 Y16.8616
G01 X29.8006 Y37.2838
G01 X29.8016 Y37.3046
G01 X29.8043 Y37.3232
G01 X29.8086 Y37.3414
G01 X29.8111 Y37.3494
G01 X29.8168 Y37.3650
G01 X29.8257 Y37.3839
G01 X29.8364 Y37.4017
G01 X29.8462 Y37.4152
G01 X29.8502 Y37.4201
G01 X29.8628 Y37.4339
G01 X31.6994 Y39.2706
G01 X31.7149 Y39.2846
G01 X31.7299 Y39.2958
G01 X31.7352 Y39.2992
G01 X31.7495 Y39.3077
G01 X31.7645 Y39.3149
G01 X31.7703 Y39.3174
G01 X31.7860 Y39.3230
G01 X31.8041 Y39.3278
G01 X31.8123 Y39.3294
G01 X31.8288 Y39.3317
G01 X31.8496 Y39.3327
G01 X31.8683 Y39.3319
G01 X31.8745 Y39.3312
G01 X31.8910 Y39.3287
G01 X31.9112 Y39.3236
G01 X31.9308 Y39.3166
G01 X31.9459 Y39.3096
G01 X31.9515 Y39.3067
G01 X31.9675 Y39.2970
G01 X31.9843 Y39.2846
G01 X31.9967 Y39.2734
G01 X32.0012 Y39.2691
G01 X32.0110 Y39.2583
G01 X32.0163 Y39.2518
G01 X32.0273 Y39.2366
G01 X32.0378 Y39.2187
G01 X32.0457 Y39.2017
G01 X32.0533 Y39.1801
G01 X32.0578 Y39.1619
G01 X32.1043 Y38.9281
G01 X32.3065 Y38.6255
G01 X32.6090 Y38.4234
G01 X32.8758 Y38.3703
G01 X33.8560 Y38.3703
G01 X34.1228 Y38.4234
G01 X34.4254 Y38.6255
G01 X34.6275 Y38.9281
G01 X34.6985 Y39.2850
G01 X34.6275 Y39.6419
G01 X34.4254 Y39.9445
G01 X34.1228 Y40.1466
G01 X33.8560 Y40.1997
G01 X33.1390 Y40.1997
G01 X33.1203 Y40.2007
G01 X33.1038 Y40.2031
G01 X33.0956 Y40.2047
G01 X33.0775 Y40.2095
G01 X33.0599 Y40.2158
G01 X33.0411 Y40.2248
G01 X33.0232 Y40.2355
G01 X33.0065 Y40.2479
G01 X32.9910 Y40.2619
G01 X32.9770 Y40.2773
G01 X32.9646 Y40.2940
G01 X32.9549 Y40.3101
G01 X32.9450 Y40.3308
G01 X32.9386 Y40.3484
G01 X32.9333 Y40.3685
G01 X32.9304 Y40.3870
G01 X32.9297 Y40.3933
G01 X32.9289 Y40.4078
G01 X32.9289 Y40.4162
G01 X32.9301 Y40.4349
G01 X32.9325 Y40.4514
G01 X32.9338 Y40.4575
G01 X32.9380 Y40.4736
G01 X32.9435 Y40.4893
G01 X32.9458 Y40.4952
G01 X32.9539 Y40.5121
G01 X32.9635 Y40.5282
G01 X32.9670 Y40.5334
G01 X32.9770 Y40.5467
G01 X32.9910 Y40.5621
G01 X33.2706 Y40.8417
G01 X33.2829 Y40.8530
G01 X33.2877 Y40.8570
G01 X33.3028 Y40.8681
G01 X33.3207 Y40.8788
G01 X33.3395 Y40.8877
G01 X33.3611 Y40.8953
G01 X33.3793 Y40.8998
G01 X33.3958 Y40.9024
G01 X33.4020 Y40.9031
G01 X33.4207 Y40.9039
G01 X34.5450 Y40.9039
G01 X34.6107 Y40.9170
G01 X34.6486 Y40.9423
G01 X34.6740 Y40.9803
G01 X34.6870 Y41.0459
G01 X34.6870 Y42.5124
G01 X34.6880 Y42.5311
G01 X34.6904 Y42.5476
G01 X34.6915 Y42.5538
G01 X34.6962 Y42.5719
G01 X34.7024 Y42.5896
G01 X34.7049 Y42.5954
G01 X34.7121 Y42.6104
G01 X34.7217 Y42.6265
G01 X34.7352 Y42.6450
G01 X34.7477 Y42.6589
G01 X34.7522 Y42.6633
G01 X34.7646 Y42.6744
G01 X34.7780 Y42.6844
G01 X34.7831 Y42.6880
G01 X34.7992 Y42.6975
G01 X34.8181 Y42.7064
G01 X34.8357 Y42.7128
G01 X34.8417 Y42.7146
G01 X34.8579 Y42.7185
G01 X34.9667 Y42.7402
G01 X35.1370 Y42.8539
G01 X35.1553 Y42.8812
G01 X35.1639 Y42.8930
G01 X35.1678 Y42.8979
G01 X35.1805 Y42.9117
G01 X36.8542 Y44.5854
G01 X36.8681 Y44.5981
G01 X36.8730 Y44.6020
G01 X36.8847 Y44.6107
G01 X36.9120 Y44.6289
G01 X37.0257 Y44.7992
G01 X37.0657 Y45.0000
G01 X37.0593 Y45.0322
G01 X37.0571 Y45.0466
G01 X37.0565 Y45.0529
G01 X37.0556 Y45.0716
G01 X37.0556 Y48.9512
G01 X37.0566 Y48.9699
G01 X37.0593 Y48.9885
G01 X37.0636 Y49.0067
G01 X37.0661 Y49.0147
G01 X37.0718 Y49.0303
G01 X37.0807 Y49.0492
G01 X37.0914 Y49.0670
G01 X37.1025 Y49.0821
G01 X37.1193 Y49.1007
G01 X37.1332 Y49.1132
G01 X37.1465 Y49.1232
G01 X37.1517 Y49.1268
G01 X37.1678 Y49.1363
G01 X37.1847 Y49.1444
G01 X37.1906 Y49.1468
G01 X37.2063 Y49.1523
G01 X37.2245 Y49.1569
G01 X37.2492 Y49.1606
G01 X37.2679 Y49.1614
G01 X37.2846 Y49.1607
G01 X37.2929 Y49.1599
G01 X37.3114 Y49.1569
G01 X37.3295 Y49.1523
G01 X37.3492 Y49.1452
G01 X37.3680 Y49.1363
G01 X37.3859 Y49.1256
G01 X37.4026 Y49.1132
G01 X37.4165 Y49.1007
G01 X37.4307 Y49.0854
G01 X37.4391 Y49.0744
G01 X37.6101 Y48.9602
G01 X37.8109 Y48.9202
G01 X37.8432 Y48.9266
G01 X37.8576 Y48.9288
G01 X37.8638 Y48.9295
G01 X37.8825 Y48.9303
G01 X40.0498 Y48.9303
G01 X40.0685 Y48.9295
G01 X40.0748 Y48.9288
G01 X40.0912 Y48.9262
G01 X40.1114 Y48.9212
G01 X40.1310 Y48.9142
G01 X40.1480 Y48.9062
G01 X40.1535 Y48.9032
G01 X40.1677 Y48.8945
G01 X40.1812 Y48.8847
G01 X40.1861 Y48.8808
G01 X40.1984 Y48.8696
G01 X41.0455 Y48.0225
G01 X41.0580 Y48.0086
G01 X41.0693 Y47.9935
G01 X41.0791 Y47.9776
G01 X41.0830 Y47.9702
G01 X41.0901 Y47.9551
G01 X41.0971 Y47.9355
G01 X41.1022 Y47.9153
G01 X41.1047 Y47.8988
G01 X41.1054 Y47.8926
G01 X41.1062 Y47.8739
G01 X41.1062 Y45.5361
G01 X41.1052 Y45.5153
G01 X41.1025 Y45.4968
G01 X41.0982 Y45.4785
G01 X41.0958 Y45.4705
G01 X41.0901 Y45.4549
G01 X41.0821 Y45.4379
G01 X41.0693 Y45.4165
G01 X41.0580 Y45.4014
G01 X41.0469 Y45.3890
G01 X40.6700 Y45.0120
G01 X40.6576 Y45.0008
G01 X40.6527 Y44.9969
G01 X40.6393 Y44.9870
G01 X40.6233 Y44.9773
G01 X40.6026 Y44.9674
G01 X40.5830 Y44.9604
G01 X40.5628 Y44.9553
G01 X40.5422 Y44.9523
G01 X40.5213 Y44.9512
G01 X40.5005 Y44.9523
G01 X40.4799 Y44.9553
G01 X40.4597 Y44.9604
G01 X40.4401 Y44.9674
G01 X40.4213 Y44.9763
G01 X40.4034 Y44.9870
G01 X40.3867 Y44.9994
G01 X40.3712 Y45.0134
G01 X40.3572 Y45.0289
G01 X40.3448 Y45.0456
G01 X40.3331 Y45.0653
G01 X40.3252 Y45.0823
G01 X40.3195 Y45.0979
G01 X40.3171 Y45.1060
G01 X40.3127 Y45.1242
G01 X40.3101 Y45.1427
G01 X40.3091 Y45.1615
G01 X40.3097 Y45.1802
G01 X40.3106 Y45.1885
G01 X40.3135 Y45.2070
G01 X40.3176 Y45.2232
G01 X40.3195 Y45.2292
G01 X40.3244 Y45.2429
G01 X40.3269 Y45.2486
G01 X40.3341 Y45.2636
G01 X40.3425 Y45.2778
G01 X40.4135 Y45.6350
G01 X40.3425 Y45.9919
G01 X40.1404 Y46.2945
G01 X39.8378 Y46.4966
G01 X39.5710 Y46.5497
G01 X38.5908 Y46.5497
G01 X38.3240 Y46.4966
G01 X38.0215 Y46.2945
G01 X37.8193 Y45.9919
G01 X37.7483 Y45.6350
G01 X37.8193 Y45.2781
G01 X38.0215 Y44.9755
G01 X38.3240 Y44.7734
G01 X38.5908 Y44.7203
G01 X39.5710 Y44.7203
G01 X39.8381 Y44.7734
G01 X39.8523 Y44.7818
G01 X39.8711 Y44.7907
G01 X39.8907 Y44.7978
G01 X39.9089 Y44.8024
G01 X39.9274 Y44.8054
G01 X39.9357 Y44.8062
G01 X39.9524 Y44.8069
G01 X39.9732 Y44.8059
G01 X39.9938 Y44.8028
G01 X40.0140 Y44.7978
G01 X40.0336 Y44.7907
G01 X40.0487 Y44.7837
G01 X40.0543 Y44.7808
G01 X40.0668 Y44.7734
G01 X40.0737 Y44.7687
G01 X40.0871 Y44.7587
G01 X40.1025 Y44.7447
G01 X40.1165 Y44.7293
G01 X40.1289 Y44.7125
G01 X40.1396 Y44.6947
G01 X40.1468 Y44.6797
G01 X40.1493 Y44.6739
G01 X40.1549 Y44.6582
G01 X40.1597 Y44.6401
G01 X40.1610 Y44.6339
G01 X40.1631 Y44.6195
G01 X40.1640 Y44.6112
G01 X40.1647 Y44.5925
G01 X40.1634 Y44.5717
G01 X40.1606 Y44.5532
G01 X40.1549 Y44.5310
G01 X40.1485 Y44.5133
G01 X40.1396 Y44.4945
G01 X40.1289 Y44.4766
G01 X40.1151 Y44.4583
G01 X40.1025 Y44.4445
G01 X39.7284 Y44.0704
G01 X39.7145 Y44.0579
G01 X39.6977 Y44.0455
G01 X39.6799 Y44.0348
G01 X39.6591 Y44.0251
G01 X39.6414 Y44.0188
G01 X39.6212 Y44.0138
G01 X39.6006 Y44.0107
G01 X39.5819 Y44.0097
G01 X38.5908 Y44.0097
G01 X38.3240 Y43.9566
G01 X38.0215 Y43.7545
G01 X37.8193 Y43.4519
G01 X37.7483 Y43.0950
G01 X37.8193 Y42.7381
G01 X38.0215 Y42.4355
G01 X38.3240 Y42.2334
G01 X38.5908 Y42.1803
G01 X39.5710 Y42.1803
G01 X39.8378 Y42.2334
G01 X40.1404 Y42.4355
G01 X40.3425 Y42.7381
G01 X40.4135 Y43.0950
G01 X40.4013 Y43.1565
G01 X40.3986 Y43.1751
G01 X40.3976 Y43.1938
G01 X40.3977 Y43.2001
G01 X40.3986 Y43.2167
G01 X40.4013 Y43.2352
G01 X40.4068 Y43.2575
G01 X40.4130 Y43.2752
G01 X40.4155 Y43.2810
G01 X40.4227 Y43.2960
G01 X40.4312 Y43.3103
G01 X40.4346 Y43.3156
G01 X40.4458 Y43.3306
G01 X40.4598 Y43.3460
G01 X41.9342 Y44.8204
G01 X41.9481 Y44.8331
G01 X41.9530 Y44.8370
G01 X41.9647 Y44.8457
G01 X41.9927 Y44.8644
G01 X41.9998 Y44.8738
G01 X42.0123 Y44.8877
G01 X42.0292 Y44.9032
G01 X42.0460 Y44.9156
G01 X42.0657 Y44.9273
G01 X42.0827 Y44.9352
G01 X42.0983 Y44.9410
G01 X42.1063 Y44.9434
G01 X42.1246 Y44.9477
G01 X42.1431 Y44.9504
G01 X42.1618 Y44.9514
G01 X42.1806 Y44.9507
G01 X42.1889 Y44.9499
G01 X42.2053 Y44.9473
G01 X42.2256 Y44.9423
G01 X42.2452 Y44.9352
G01 X42.2621 Y44.9273
G01 X42.2783 Y44.9179
G01 X42.2853 Y44.9132
G01 X42.3002 Y44.9019
G01 X42.3155 Y44.8877
G01 X42.3280 Y44.8738
G01 X42.3405 Y44.8570
G01 X42.3512 Y44.8392
G01 X42.3584 Y44.8242
G01 X42.3609 Y44.8184
G01 X42.3658 Y44.8047
G01 X42.3682 Y44.7967
G01 X42.3725 Y44.7785
G01 X42.3754 Y44.7578
G01 X42.3762 Y44.7391
G01 X42.3762 Y41.2799
G01 X42.3752 Y41.2612
G01 X42.3722 Y41.2406
G01 X42.3671 Y41.2204
G01 X42.3592 Y41.1988
G01 X42.3512 Y41.1819
G01 X42.3393 Y41.1623
G01 X42.3267 Y41.1457
G01 X42.3155 Y41.1334
G01 X42.3110 Y41.1290
G01 X42.2986 Y41.1179
G01 X42.2819 Y41.1055
G01 X42.2640 Y41.0948
G01 X42.2452 Y41.0858
G01 X42.2256 Y41.0788
G01 X42.2053 Y41.0738
G01 X42.1847 Y41.0707
G01 X42.1660 Y41.0697
G01 X40.3506 Y41.0697
G01 X40.3298 Y41.0707
G01 X40.3112 Y41.0734
G01 X40.3051 Y41.0747
G01 X40.2890 Y41.0788
G01 X40.2732 Y41.0843
G01 X40.2674 Y41.0867
G01 X40.2505 Y41.0948
G01 X40.2309 Y41.1067
G01 X40.2159 Y41.1179
G01 X40.2035 Y41.1290
G01 X40.1990 Y41.1334
G01 X40.1865 Y41.1473
G01 X40.1752 Y41.1623
G01 X40.1404 Y41.2145
G01 X39.8378 Y41.4166
G01 X39.5710 Y41.4697
G01 X38.5908 Y41.4697
G01 X38.3240 Y41.4166
G01 X38.0215 Y41.2145
G01 X37.8193 Y40.9119
G01 X37.7483 Y40.5550
G01 X37.8193 Y40.1981
G01 X38.0215 Y39.8955
G01 X38.3240 Y39.6934
G01 X38.5908 Y39.6403
G01 X39.5710 Y39.6403
G01 X39.8378 Y39.6934
G01 X40.1404 Y39.8955
G01 X40.1752 Y39.9477
G01 X40.1865 Y39.9627
G01 X40.1990 Y39.9766
G01 X40.2035 Y39.9810
G01 X40.2159 Y39.9921
G01 X40.2309 Y40.0033
G01 X40.2505 Y40.0152
G01 X40.2674 Y40.0233
G01 X40.2732 Y40.0257
G01 X40.2890 Y40.0312
G01 X40.3051 Y40.0353
G01 X40.3112 Y40.0366
G01 X40.3298 Y40.0393
G01 X40.3506 Y40.0403
G01 X42.1660 Y40.0403
G01 X42.1847 Y40.0393
G01 X42.2012 Y40.0369
G01 X42.2074 Y40.0358
G01 X42.2256 Y40.0312
G01 X42.2452 Y40.0242
G01 X42.2603 Y40.0171
G01 X42.2658 Y40.0142
G01 X42.2819 Y40.0045
G01 X42.2986 Y39.9921
G01 X42.3126 Y39.9796
G01 X42.3169 Y39.9751
G01 X42.3280 Y39.9627
G01 X42.3380 Y39.9494
G01 X42.3416 Y39.9442
G01 X42.3512 Y39.9281
G01 X42.3601 Y39.9092
G01 X42.3665 Y39.8916
G01 X42.3682 Y39.8856
G01 X42.3722 Y39.8694
G01 X42.3747 Y39.8530
G01 X42.3754 Y39.8467
G01 X42.3762 Y39.8301
G01 X42.3762 Y37.5840
G01 X42.3752 Y37.5653
G01 X42.3725 Y37.5468
G01 X42.3682 Y37.5285
G01 X42.3658 Y37.5205
G01 X42.3601 Y37.5049
G01 X42.3512 Y37.4860
G01 X42.3405 Y37.4682
G01 X42.3293 Y37.4531
G01 X42.3140 Y37.4360
G01 X40.9299 Y36.0519
G01 X40.9145 Y36.0379
G01 X40.8995 Y36.0267
G01 X40.8942 Y36.0232
G01 X40.8799 Y36.0148
G01 X40.8649 Y36.0075
G01 X40.8591 Y36.0051
G01 X40.8434 Y35.9995
G01 X40.8253 Y35.9947
G01 X40.8171 Y35.9931
G01 X40.8006 Y35.9907
G01 X40.7798 Y35.9897
G01 X40.3485 Y35.9897
G01 X40.3298 Y35.9907
G01 X40.3133 Y35.9931
G01 X40.3071 Y35.9942
G01 X40.2890 Y35.9988
G01 X40.2693 Y36.0058
G01 X40.2524 Y36.0138
G01 X40.2469 Y36.0168
G01 X40.2344 Y36.0243
G01 X40.2292 Y36.0279
G01 X40.2159 Y36.0379
G01 X40.2035 Y36.0490
G01 X40.1990 Y36.0534
G01 X40.1878 Y36.0657
G01 X40.1765 Y36.0806
G01 X40.1404 Y36.1345
G01 X39.8378 Y36.3366
G01 X39.5710 Y36.3897
G01 X38.5908 Y36.3897
G01 X38.3240 Y36.3366
G01 X38.0215 Y36.1345
G01 X37.9845 Y36.0791
G01 X37.9720 Y36.0623
G01 X37.9595 Y36.0484
G01 X37.9550 Y36.0440
G01 X37.9426 Y36.0329
G01 X37.9259 Y36.0205
G01 X37.9098 Y36.0108
G01 X37.9043 Y36.0079
G01 X37.8892 Y36.0009
G01 X37.8696 Y35.9938
G01 X37.8493 Y35.9888
G01 X37.8329 Y35.9862
G01 X37.8266 Y35.9855
G01 X37.8079 Y35.9847
G01 X37.7871 Y35.9857
G01 X37.7665 Y35.9888
G01 X37.7463 Y35.9938
G01 X37.7306 Y35.9994
G01 X37.7248 Y36.0017
G01 X37.7097 Y36.0088
G01 X37.6935 Y36.0182
G01 X37.6865 Y36.0229
G01 X37.6749 Y36.0316
G01 X37.6701 Y36.0356
G01 X37.6578 Y36.0469
G01 X37.6438 Y36.0623
G01 X37.6314 Y36.0791
G01 X37.6207 Y36.0969
G01 X37.6118 Y36.1158
G01 X37.6048 Y36.1354
G01 X37.5997 Y36.1556
G01 X37.5971 Y36.1720
G01 X37.5965 Y36.1783
G01 X37.5956 Y36.1970
G01 X37.5956 Y36.9839
G01 X37.5963 Y37.0005
G01 X37.5969 Y37.0068
G01 X37.5990 Y37.0212
G01 X37.6006 Y37.0294
G01 X37.6048 Y37.0455
G01 X37.6118 Y37.0651
G01 X37.6207 Y37.0840
G01 X37.6292 Y37.0983
G01 X37.6338 Y37.1052
G01 X37.6451 Y37.1202
G01 X37.6578 Y37.1340
G01 X37.8131 Y37.2893
G01 X37.8285 Y37.3033
G01 X37.8418 Y37.3133
G01 X37.8488 Y37.3179
G01 X37.8650 Y37.3273
G01 X37.8819 Y37.3353
G01 X37.8996 Y37.3417
G01 X37.9177 Y37.3465
G01 X37.9259 Y37.3481
G01 X37.9424 Y37.3504
G01 X37.9611 Y37.3514
G01 X37.9840 Y37.3504
G01 X38.0026 Y37.3478
G01 X38.0087 Y37.3465
G01 X38.0248 Y37.3423
G01 X38.0405 Y37.3368
G01 X38.0464 Y37.3345
G01 X38.0633 Y37.3264
G01 X38.0811 Y37.3157
G01 X38.3240 Y37.1534
G01 X38.5908 Y37.1003
G01 X39.5710 Y37.1003
G01 X39.8378 Y37.1534
G01 X40.1404 Y37.3555
G01 X40.3425 Y37.6581
G01 X40.4135 Y38.0150
G01 X40.3425 Y38.3719
G01 X40.1404 Y38.6745
G01 X39.8378 Y38.8766
G01 X39.5710 Y38.9297
G01 X38.5908 Y38.9297
G01 X38.3240 Y38.8766
G01 X38.0215 Y38.6745
G01 X37.9937 Y38.6331
G01 X37.9837 Y38.6198
G01 X37.9712 Y38.6059
G01 X37.9575 Y38.5931
G01 X37.9510 Y38.5878
G01 X37.9376 Y38.5780
G01 X37.9215 Y38.5683
G01 X37.9047 Y38.5601
G01 X37.8970 Y38.5569
G01 X37.8813 Y38.5513
G01 X37.8631 Y38.5467
G01 X37.8425 Y38.5435
G01 X37.8236 Y38.5423
G01 X37.6101 Y38.4998
G01 X37.4399 Y38.3861
G01 X37.4216 Y38.3588
G01 X37.4129 Y38.3470
G01 X37.4090 Y38.3421
G01 X37.3964 Y38.3283
G01 X36.7676 Y37.6996
G01 X36.7538 Y37.6869
G01 X36.7489 Y37.6830
G01 X36.7372 Y37.6743
G01 X36.7099 Y37.6561
G01 X36.5961 Y37.4858
G01 X36.5562 Y37.2850
G01 X36.5625 Y37.2528
G01 X36.5647 Y37.2384
G01 X36.5654 Y37.2321
G01 X36.5662 Y37.2134
G01 X36.5662 Y34.6066
G01 X36.5654 Y34.5879
G01 X36.5647 Y34.5816
G01 X36.5625 Y34.5672
G01 X36.5562 Y34.5350
G01 X36.5961 Y34.3342
G01 X36.7099 Y34.1639
G01 X36.7372 Y34.1457
G01 X36.7489 Y34.1370
G01 X36.7538 Y34.1331
G01 X36.7676 Y34.1204
G01 X37.7020 Y33.1860
G01 X37.7173 Y33.1689
G01 X37.7273 Y33.1556
G01 X37.7307 Y33.1503
G01 X37.7392 Y33.1360
G01 X37.7464 Y33.1210
G01 X37.7488 Y33.1152
G01 X37.7551 Y33.0975
G01 X37.7605 Y33.0752
G01 X37.7632 Y33.0567
G01 X37.7641 Y33.0401
G01 X37.7642 Y33.0338
G01 X37.7632 Y33.0151
G01 X37.7605 Y32.9965
G01 X37.7483 Y32.9350
G01 X37.8193 Y32.5781
G01 X38.0215 Y32.2755
G01 X38.3240 Y32.0734
G01 X38.5908 Y32.0203
G01 X39.5710 Y32.0203
G01 X39.8378 Y32.0734
G01 X40.1404 Y32.2755
G01 X40.3425 Y32.5781
G01 X40.4135 Y32.9350
G01 X40.3425 Y33.2919
G01 X40.1404 Y33.5945
G01 X39.8378 Y33.7966
G01 X39.5710 Y33.8497
G01 X38.5800 Y33.8497
G01 X38.5592 Y33.8509
G01 X38.5427 Y33.8534
G01 X38.5366 Y33.8547
G01 X38.5204 Y33.8588
G01 X38.5047 Y33.8643
G01 X38.4989 Y33.8667
G01 X38.4857 Y33.8729
G01 X38.4801 Y33.8758
G01 X38.4676 Y33.8832
G01 X38.4607 Y33.8879
G01 X38.4474 Y33.8979
G01 X38.4319 Y33.9119
G01 X38.0579 Y34.2859
G01 X38.0467 Y34.2983
G01 X38.0428 Y34.3032
G01 X38.0329 Y34.3166
G01 X38.0243 Y34.3309
G01 X38.0213 Y34.3364
G01 X38.0150 Y34.3495
G01 X38.0118 Y34.3572
G01 X38.0063 Y34.3729
G01 X38.0012 Y34.3932
G01 X37.9982 Y34.4138
G01 X37.9973 Y34.4304
G01 X37.9973 Y34.4388
G01 X37.9980 Y34.4533
G01 X37.9987 Y34.4595
G01 X38.0012 Y34.4760
G01 X38.0063 Y34.4962
G01 X38.0133 Y34.5158
G01 X38.0203 Y34.5309
G01 X38.0243 Y34.5383
G01 X38.0318 Y34.5508
G01 X38.0354 Y34.5560
G01 X38.0454 Y34.5693
G01 X38.0593 Y34.5847
G01 X38.0748 Y34.5987
G01 X38.0915 Y34.6111
G01 X38.1094 Y34.6218
G01 X38.1282 Y34.6307
G01 X38.1478 Y34.6377
G01 X38.1681 Y34.6428
G01 X38.1887 Y34.6459
G01 X38.2116 Y34.6469
G01 X38.2303 Y34.6459
G01 X38.2468 Y34.6435
G01 X38.2529 Y34.6424
G01 X38.2711 Y34.6378
G01 X38.2888 Y34.6315
G01 X38.2945 Y34.6290
G01 X38.3096 Y34.6218
G01 X38.3237 Y34.6134
G01 X38.5908 Y34.5603
G01 X39.5710 Y34.5603
G01 X39.8378 Y34.6134
G01 X40.1404 Y34.8155
G01 X40.1741 Y34.8660
G01 X40.1852 Y34.8811
G01 X40.1990 Y34.8966
G01 X40.2127 Y34.9094
G01 X40.2175 Y34.9134
G01 X40.2326 Y34.9245
G01 X40.2505 Y34.9352
G01 X40.2693 Y34.9442
G01 X40.2870 Y34.9505
G01 X40.2930 Y34.9523
G01 X40.3092 Y34.9562
G01 X40.3256 Y34.9588
G01 X40.3319 Y34.9595
G01 X40.3506 Y34.9603
G01 X41.0093 Y34.9603
G01 X41.0281 Y34.9595
G01 X41.0343 Y34.9588
G01 X41.0487 Y34.9566
G01 X41.0809 Y34.9502
G01 X41.2817 Y34.9902
G01 X41.4520 Y35.1039
G01 X41.4703 Y35.1312
G01 X41.4789 Y35.1430
G01 X41.4828 Y35.1479
G01 X41.4955 Y35.1617
G01 X43.2042 Y36.8704
G01 X43.2181 Y36.8831
G01 X43.2230 Y36.8870
G01 X43.2347 Y36.8957
G01 X43.2620 Y36.9139
G01 X43.3757 Y37.0842
G01 X43.4157 Y37.2850
G01 X43.4093 Y37.3172
G01 X43.4071 Y37.3316
G01 X43.4065 Y37.3379
G01 X43.4056 Y37.3566
G01 X43.4056 Y40.4834
G01 X43.4065 Y40.5021
G01 X43.4071 Y40.5084
G01 X43.4093 Y40.5228
G01 X43.4157 Y40.5550
G01 X43.4093 Y40.5872
G01 X43.4071 Y40.6016
G01 X43.4065 Y40.6079
G01 X43.4056 Y40.6266
G01 X43.4056 Y48.2635
G01 X43.4065 Y48.2822
G01 X43.4071 Y48.2885
G01 X43.4093 Y48.3029
G01 X43.4157 Y48.3351
G01 X43.3713 Y48.5585
G01 X43.3686 Y48.5771
G01 X43.3676 Y48.5979
G01 X43.3686 Y48.6187
G01 X43.3713 Y48.6373
G01 X43.3726 Y48.6434
G01 X43.3767 Y48.6595
G01 X43.3822 Y48.6752
G01 X43.3846 Y48.6811
G01 X43.3908 Y48.6943
G01 X43.3937 Y48.6998
G01 X43.4034 Y48.7159
G01 X43.4158 Y48.7326
G01 X43.4298 Y48.7480
G01 X43.4468 Y48.7633
G01 X43.4619 Y48.7744
G01 X43.4798 Y48.7851
G01 X43.4986 Y48.7941
G01 X43.5143 Y48.7998
G01 X43.5203 Y48.8017
G01 X43.5344 Y48.8052
G01 X43.5426 Y48.8069
G01 X43.5591 Y48.8092
G01 X43.5799 Y48.8102
G01 X43.6007 Y48.8092
G01 X43.6172 Y48.8069
G01 X43.6254 Y48.8052
G01 X43.6395 Y48.8017
G01 X43.6455 Y48.7998
G01 X43.6611 Y48.7941
G01 X43.6800 Y48.7851
G01 X43.6978 Y48.7744
G01 X43.7113 Y48.7646
G01 X43.7162 Y48.7607
G01 X43.7300 Y48.7480
G01 X44.2191 Y48.2590
G01 X44.2303 Y48.2467
G01 X44.2356 Y48.2403
G01 X44.2466 Y48.2251
G01 X44.2562 Y48.2090
G01 X44.2642 Y48.1920
G01 X44.2727 Y48.1685
G01 X44.2772 Y48.1503
G01 X44.2797 Y48.1338
G01 X44.2804 Y48.1276
G01 X44.2812 Y48.1089
G01 X44.2812 Y42.1316
G01 X44.2804 Y42.1129
G01 X44.2797 Y42.1066
G01 X44.2775 Y42.0922
G01 X44.2712 Y42.0600
G01 X44.3111 Y41.8592
G01 X44.4249 Y41.6889
G01 X44.4522 Y41.6707
G01 X44.4639 Y41.6620
G01 X44.4688 Y41.6581
G01 X44.4826 Y41.6454
G01 X45.3220 Y40.8060
G01 X45.3360 Y40.7906
G01 X45.3484 Y40.7738
G01 X45.3592 Y40.7560
G01 X45.3681 Y40.7371
G01 X45.3751 Y40.7175
G01 X45.3797 Y40.6993
G01 X45.3809 Y40.6932
G01 X45.3832 Y40.6767
G01 X45.3841 Y40.6601
G01 X45.3842 Y40.6538
G01 X45.3832 Y40.6351
G01 X45.3805 Y40.6165
G01 X45.3683 Y40.5550
G01 X45.4393 Y40.1981
G01 X45.6415 Y39.8955
G01 X45.9440 Y39.6934
G01 X46.2108 Y39.6403
G01 X47.1910 Y39.6403
G01 X47.4578 Y39.6934
G01 X47.7604 Y39.8955
G01 X47.9625 Y40.1981
G01 X48.0335 Y40.5550
G01 X47.9625 Y40.9119
G01 X47.7604 Y41.2145
G01 X47.4578 Y41.4166
G01 X47.1910 Y41.4697
G01 X46.2000 Y41.4697
G01 X46.1812 Y41.4707
G01 X46.1648 Y41.4731
G01 X46.1566 Y41.4747
G01 X46.1384 Y41.4795
G01 X46.1208 Y41.4858
G01 X46.1038 Y41.4938
G01 X46.0876 Y41.5032
G01 X46.0807 Y41.5079
G01 X46.0674 Y41.5179
G01 X46.0519 Y41.5319
G01 X45.6793 Y41.9045
G01 X45.6654 Y41.9199
G01 X45.6554 Y41.9332
G01 X45.6507 Y41.9402
G01 X45.6432 Y41.9527
G01 X45.6403 Y41.9582
G01 X45.6325 Y41.9753
G01 X45.6257 Y41.9950
G01 X45.6212 Y42.0132
G01 X45.6180 Y42.0359
G01 X45.6172 Y42.0546
G01 X45.6182 Y42.0754
G01 X45.6212 Y42.0960
G01 X45.6269 Y42.1182
G01 X45.6333 Y42.1358
G01 X45.6422 Y42.1547
G01 X45.6529 Y42.1725
G01 X45.6654 Y42.1893
G01 X45.6793 Y42.2047
G01 X45.6948 Y42.2187
G01 X45.7115 Y42.2311
G01 X45.7312 Y42.2428
G01 X45.7482 Y42.2507
G01 X45.7639 Y42.2564
G01 X45.7699 Y42.2583
G01 X45.7881 Y42.2628
G01 X45.8087 Y42.2659
G01 X45.8253 Y42.2668
G01 X45.8337 Y42.2668
G01 X45.8524 Y42.2656
G01 X45.8729 Y42.2624
G01 X45.8891 Y42.2583
G01 X45.8951 Y42.2564
G01 X45.9088 Y42.2515
G01 X45.9145 Y42.2490
G01 X45.9296 Y42.2418
G01 X45.9437 Y42.2334
G01 X46.2108 Y42.1803
G01 X47.1910 Y42.1803
G01 X47.3584 Y42.2136
G01 X47.3770 Y42.2163
G01 X47.3957 Y42.2173
G01 X47.4186 Y42.2163
G01 X47.4392 Y42.2132
G01 X47.4594 Y42.2081
G01 X47.4810 Y42.2003
G01 X47.4979 Y42.1922
G01 X47.5158 Y42.1815
G01 X47.5325 Y42.1691
G01 X47.5479 Y42.1551
G01 X48.6640 Y41.0390
G01 X48.6767 Y41.0252
G01 X48.6806 Y41.0203
G01 X48.6905 Y41.0068
G01 X48.7012 Y40.9890
G01 X48.7101 Y40.9701
G01 X48.7158 Y40.9545
G01 X48.7177 Y40.9485
G01 X48.7222 Y40.9303
G01 X48.7252 Y40.9097
G01 X48.7262 Y40.8889
G01 X48.7262 Y38.8540
G01 X48.7252 Y38.8353
G01 X48.7222 Y38.8147
G01 X48.7171 Y38.7945
G01 X48.7116 Y38.7788
G01 X48.7092 Y38.7730
G01 X48.7030 Y38.7598
G01 X48.6991 Y38.7524
G01 X48.6893 Y38.7365
G01 X48.6767 Y38.7198
G01 X48.6640 Y38.7060
G01 X48.5499 Y38.5919
G01 X48.5345 Y38.5779
G01 X48.5177 Y38.5655
G01 X48.4999 Y38.5548
G01 X48.4810 Y38.5458
G01 X48.4634 Y38.5395
G01 X48.4574 Y38.5377
G01 X48.4412 Y38.5338
G01 X48.4248 Y38.5312
G01 X48.4185 Y38.5305
G01 X48.4019 Y38.5297
G01 X47.9706 Y38.5297
G01 X47.9540 Y38.5304
G01 X47.9477 Y38.5309
G01 X47.9292 Y38.5338
G01 X47.9110 Y38.5382
G01 X47.9050 Y38.5401
G01 X47.8893 Y38.5458
G01 X47.8724 Y38.5538
G01 X47.8509 Y38.5667
G01 X47.8359 Y38.5779
G01 X47.8235 Y38.5890
G01 X47.8190 Y38.5934
G01 X47.8065 Y38.6073
G01 X47.7952 Y38.6223
G01 X47.7604 Y38.6745
G01 X47.4578 Y38.8766
G01 X47.1910 Y38.9297
G01 X46.2108 Y38.9297
G01 X45.9440 Y38.8766
G01 X45.6415 Y38.6745
G01 X45.4393 Y38.3719
G01 X45.3683 Y38.0150
G01 X45.4393 Y37.6581
G01 X45.6415 Y37.3555
G01 X45.9440 Y37.1534
G01 X46.2108 Y37.1003
G01 X47.1910 Y37.1003
G01 X47.4578 Y37.1534
G01 X47.7604 Y37.3555
G01 X47.7941 Y37.4060
G01 X47.8052 Y37.4211
G01 X47.8190 Y37.4366
G01 X47.8327 Y37.4494
G01 X47.8375 Y37.4534
G01 X47.8526 Y37.4645
G01 X47.8705 Y37.4752
G01 X47.8893 Y37.4842
G01 X47.9110 Y37.4918
G01 X47.9292 Y37.4962
G01 X47.9456 Y37.4988
G01 X47.9519 Y37.4995
G01 X47.9706 Y37.5003
G01 X48.6293 Y37.5003
G01 X48.6481 Y37.4995
G01 X48.6543 Y37.4988
G01 X48.6687 Y37.4966
G01 X48.7009 Y37.4902
G01 X48.9017 Y37.5302
G01 X49.0720 Y37.6439
G01 X49.0903 Y37.6712
G01 X49.0989 Y37.6830
G01 X49.1028 Y37.6879
G01 X49.1140 Y37.7002
G01 X49.5542 Y38.1404
G01 X49.5681 Y38.1531
G01 X49.5730 Y38.1570
G01 X49.5847 Y38.1657
G01 X49.6120 Y38.1839
G01 X49.7257 Y38.3542
G01 X49.7657 Y38.5550
G01 X49.7593 Y38.5872
G01 X49.7571 Y38.6016
G01 X49.7565 Y38.6079
G01 X49.7556 Y38.6266
G01 X49.7556 Y41.1184
G01 X49.7565 Y41.1371
G01 X49.7571 Y41.1434
G01 X49.7593 Y41.1578
G01 X49.7657 Y41.1900
G01 X49.7257 Y41.3908
G01 X49.6120 Y41.5611
G01 X49.5847 Y41.5793
G01 X49.5730 Y41.5880
G01 X49.5681 Y41.5919
G01 X49.5542 Y41.6046
G01 X48.0716 Y43.0872
G01 X48.0603 Y43.0995
G01 X48.0563 Y43.1043
G01 X48.0451 Y43.1194
G01 X48.0344 Y43.1373
G01 X48.0255 Y43.1561
G01 X48.0179 Y43.1778
G01 X48.0134 Y43.1960
G01 X47.9625 Y43.4519
G01 X47.7604 Y43.7545
G01 X47.4578 Y43.9566
G01 X47.1910 Y44.0097
G01 X46.2108 Y44.0097
G01 X45.9440 Y43.9566
G01 X45.6409 Y43.7541
G01 X45.6266 Y43.7454
G01 X45.6211 Y43.7424
G01 X45.6042 Y43.7344
G01 X45.5846 Y43.7274
G01 X45.5643 Y43.7224
G01 X45.5458 Y43.7195
G01 X45.5396 Y43.7190
G01 X45.5229 Y43.7183
G01 X45.5042 Y43.7191
