(G-CODE GENERATED BY FLATCAM v8.994 - www.flatcam.org - Version Date: 2020/11/7)

(Name: back_drill_cnc)
(Type: G-code from Geometry)
(Units: MM)

(Created on Monday, 15 February 2021 at 22:08)

(This preprocessor is the default preprocessor used by FlatCAM.)
(It is made to work with MACH3 compatible motion controllers.)


(TOOLS DIAMETER: )
(Tool: 1 -> Dia: 0.8)
(Tool: 2 -> Dia: 1.0)
(Tool: 3 -> Dia: 1.016)
(Tool: 4 -> Dia: 1.2)
(Tool: 5 -> Dia: 1.3)
(Tool: 6 -> Dia: 2.8)

(FEEDRATE Z: )
(Tool: 1 -> Feedrate: 60.0)
(Tool: 2 -> Feedrate: 60.0)
(Tool: 3 -> Feedrate: 60.0)
(Tool: 4 -> Feedrate: 60.0)
(Tool: 5 -> Feedrate: 60.0)
(Tool: 6 -> Feedrate: 60.0)

(FEEDRATE RAPIDS: )
(Tool: 1 -> Feedrate Rapids: 150.0)
(Tool: 2 -> Feedrate Rapids: 150.0)
(Tool: 3 -> Feedrate Rapids: 150.0)
(Tool: 4 -> Feedrate Rapids: 150.0)
(Tool: 5 -> Feedrate Rapids: 150.0)
(Tool: 6 -> Feedrate Rapids: 150.0)

(Z_CUT: )
(Tool: 1 -> Z_Cut: -2.0)
(Tool: 2 -> Z_Cut: -2.0)
(Tool: 3 -> Z_Cut: -2.0)
(Tool: 4 -> Z_Cut: -2.0)
(Tool: 5 -> Z_Cut: -2.0)
(Tool: 6 -> Z_Cut: -2.0)

(Tools Offset: )
(Tool: 4 -> Offset Z: 0.0)
(Tool: 5 -> Offset Z: 0.0)

(Z_MOVE: )
(Tool: 1 -> Z_Move: 2)
(Tool: 2 -> Z_Move: 2)
(Tool: 3 -> Z_Move: 2)
(Tool: 4 -> Z_Move: 2)
(Tool: 5 -> Z_Move: 2)
(Tool: 6 -> Z_Move: 2)

(Z Toolchange: 20.0 mm)
(X,Y Toolchange: 0.0000, 0.0000 mm)
(Z Start: None mm)
(Z End: 20.0 mm)
(X,Y End: None mm)
(Steps per circle: 64)
(Preprocessor Excellon: default)

(X range:    3.8359 ...   77.3759  mm)
(Y range:    1.6000 ...   78.4000  mm)

(Spindle Speed: 12000 RPM)
G21
G90
G94

G01 F60.00

M5
G00 Z20.0000
T4
G00 X0.0000 Y0.0000                
M6
(MSG, Change to Tool Dia = 1.2000 ||| Total drills for tool T4 = 18)
M0
G00 Z20.0000

G01 F60.00
M03 S12000
G00 X5.4259 Y39.9200
G01 Z-2.0000
G01 Z0
G00 Z2.0000
G00 X5.4259 Y36.1100
G01 Z-2.0000
G01 Z0
G00 Z2.0000
G00 X5.4259 Y32.3000
G01 Z-2.0000
G01 Z0
G00 Z2.0000
G00 X5.4259 Y28.4900
G01 Z-2.0000
G01 Z0
G00 Z2.0000
G00 X5.4259 Y24.6800
G01 Z-2.0000
G01 Z0
G00 Z2.0000
G00 X13.5079 Y22.6360
G01 Z-2.0000
G01 Z0
G00 Z2.0000
G00 X5.4259 Y20.8700
G01 Z-2.0000
G01 Z0
G00 Z2.0000
G00 X5.4259 Y17.0600
G01 Z-2.0000
G01 Z0
G00 Z2.0000
G00 X5.4259 Y13.2500
G01 Z-2.0000
G01 Z0
G00 Z2.0000
G00 X5.4259 Y9.4400
G01 Z-2.0000
G01 Z0
G00 Z2.0000
G00 X5.4259 Y5.6300
G01 Z-2.0000
G01 Z0
G00 Z2.0000
G00 X13.5079 Y2.6360
G01 Z-2.0000
G01 Z0
G00 Z2.0000
G00 X63.5079 Y2.6360
G01 Z-2.0000
G01 Z0
G00 Z2.0000
G00 X63.5079 Y22.6360
G01 Z-2.0000
G01 Z0
G00 Z2.0000
G00 X58.7659 Y29.1250
G01 Z-2.0000
G01 Z0
G00 Z2.0000
G00 X58.7659 Y34.2050
G01 Z-2.0000
G01 Z0
G00 Z2.0000
G00 X58.7659 Y39.2850
G01 Z-2.0000
G01 Z0
G00 Z2.0000
G00 X58.7659 Y44.3650
G01 Z-2.0000
G01 Z0
G00 Z2.0000
M05
G00 Z20.00


