(G-CODE GENERATED BY FLATCAM v8.994 - www.flatcam.org - Version Date: 2020/11/7)

(Name: back_drill_cnc)
(Type: G-code from Geometry)
(Units: MM)

(Created on Monday, 15 February 2021 at 22:07)

(This preprocessor is the default preprocessor used by FlatCAM.)
(It is made to work with MACH3 compatible motion controllers.)


(TOOLS DIAMETER: )
(Tool: 1 -> Dia: 0.8)
(Tool: 2 -> Dia: 1.0)
(Tool: 3 -> Dia: 1.016)
(Tool: 4 -> Dia: 1.2)
(Tool: 5 -> Dia: 1.3)
(Tool: 6 -> Dia: 2.8)

(FEEDRATE Z: )
(Tool: 1 -> Feedrate: 60.0)
(Tool: 2 -> Feedrate: 60.0)
(Tool: 3 -> Feedrate: 60.0)
(Tool: 4 -> Feedrate: 60.0)
(Tool: 5 -> Feedrate: 60.0)
(Tool: 6 -> Feedrate: 60.0)

(FEEDRATE RAPIDS: )
(Tool: 1 -> Feedrate Rapids: 150.0)
(Tool: 2 -> Feedrate Rapids: 150.0)
(Tool: 3 -> Feedrate Rapids: 150.0)
(Tool: 4 -> Feedrate Rapids: 150.0)
(Tool: 5 -> Feedrate Rapids: 150.0)
(Tool: 6 -> Feedrate Rapids: 150.0)

(Z_CUT: )
(Tool: 1 -> Z_Cut: -2.0)
(Tool: 2 -> Z_Cut: -2.0)
(Tool: 3 -> Z_Cut: -2.0)
(Tool: 4 -> Z_Cut: -2.0)
(Tool: 5 -> Z_Cut: -2.0)
(Tool: 6 -> Z_Cut: -2.0)

(Tools Offset: )
(Tool: 1 -> Offset Z: 0.0)
(Tool: 2 -> Offset Z: 0.0)
(Tool: 3 -> Offset Z: 0.0)

(Z_MOVE: )
(Tool: 1 -> Z_Move: 2)
(Tool: 2 -> Z_Move: 2)
(Tool: 3 -> Z_Move: 2)
(Tool: 4 -> Z_Move: 2)
(Tool: 5 -> Z_Move: 2)
(Tool: 6 -> Z_Move: 2)

(Z Toolchange: 20.0 mm)
(X,Y Toolchange: 0.0000, 0.0000 mm)
(Z Start: None mm)
(Z End: 20.0 mm)
(X,Y End: None mm)
(Steps per circle: 64)
(Preprocessor Excellon: default)

(X range:    3.8359 ...   77.3759  mm)
(Y range:    1.6000 ...   78.4000  mm)

(Spindle Speed: 12000 RPM)
G21
G90
G94

G01 F60.00

M5
G00 Z20.0000
T1
G00 X0.0000 Y0.0000                
M6
(MSG, Change to Tool Dia = 0.8000 ||| Total drills for tool T1 = 101)
M0
G00 Z20.0000

G01 F60.00
M03 S12000
G00 X9.2359 Y46.9050
G01 Z-2.0000
G01 Z0
G00 Z2.0000
G00 X13.0459 Y46.9050
G01 Z-2.0000
G01 Z0
G00 Z2.0000
G00 X13.0459 Y44.3650
G01 Z-2.0000
G01 Z0
G00 Z2.0000
G00 X13.0459 Y41.8250
G01 Z-2.0000
G01 Z0
G00 Z2.0000
G00 X13.0459 Y39.2850
G01 Z-2.0000
G01 Z0
G00 Z2.0000
G00 X13.0459 Y36.7450
G01 Z-2.0000
G01 Z0
G00 Z2.0000
G00 X13.0459 Y34.2050
G01 Z-2.0000
G01 Z0
G00 Z2.0000
G00 X13.0459 Y31.6650
G01 Z-2.0000
G01 Z0
G00 Z2.0000
G00 X13.5079 Y27.2200
G01 Z-2.0000
G01 Z0
G00 Z2.0000
G00 X18.5879 Y27.2300
G01 Z-2.0000
G01 Z0
G00 Z2.0000
G00 X20.6659 Y31.6650
G01 Z-2.0000
G01 Z0
G00 Z2.0000
G00 X20.6659 Y34.2050
G01 Z-2.0000
G01 Z0
G00 Z2.0000
G00 X20.6659 Y36.7450
G01 Z-2.0000
G01 Z0
G00 Z2.0000
G00 X20.6659 Y39.2850
G01 Z-2.0000
G01 Z0
G00 Z2.0000
G00 X20.6659 Y41.8250
G01 Z-2.0000
G01 Z0
G00 Z2.0000
G00 X20.6659 Y44.3650
G01 Z-2.0000
G01 Z0
G00 Z2.0000
G00 X20.6659 Y46.9050
G01 Z-2.0000
G01 Z0
G00 Z2.0000
G00 X18.7609 Y51.9850
G01 Z-2.0000
G01 Z0
G00 Z2.0000
G00 X21.3009 Y51.9850
G01 Z-2.0000
G01 Z0
G00 Z2.0000
G00 X23.8409 Y51.9850
G01 Z-2.0000
G01 Z0
G00 Z2.0000
G00 X26.3809 Y51.9850
G01 Z-2.0000
G01 Z0
G00 Z2.0000
G00 X28.9209 Y51.9850
G01 Z-2.0000
G01 Z0
G00 Z2.0000
G00 X31.4609 Y51.9850
G01 Z-2.0000
G01 Z0
G00 Z2.0000
G00 X34.0009 Y51.9850
G01 Z-2.0000
G01 Z0
G00 Z2.0000
G00 X36.5409 Y51.9850
G01 Z-2.0000
G01 Z0
G00 Z2.0000
G00 X32.5579 Y47.0860
G01 Z-2.0000
G01 Z0
G00 Z2.0000
G00 X30.0179 Y47.0860
G01 Z-2.0000
G01 Z0
G00 Z2.0000
G00 X27.4779 Y47.0860
G01 Z-2.0000
G01 Z0
G00 Z2.0000
G00 X25.7459 Y41.8250
G01 Z-2.0000
G01 Z0
G00 Z2.0000
G00 X25.7459 Y39.2850
G01 Z-2.0000
G01 Z0
G00 Z2.0000
G00 X25.7459 Y36.7450
G01 Z-2.0000
G01 Z0
G00 Z2.0000
G00 X25.7459 Y34.2050
G01 Z-2.0000
G01 Z0
G00 Z2.0000
G00 X25.7459 Y31.6650
G01 Z-2.0000
G01 Z0
G00 Z2.0000
G00 X25.7459 Y29.1250
G01 Z-2.0000
G01 Z0
G00 Z2.0000
G00 X25.7459 Y26.5850
G01 Z-2.0000
G01 Z0
G00 Z2.0000
G00 X33.3659 Y26.5850
G01 Z-2.0000
G01 Z0
G00 Z2.0000
G00 X33.3659 Y29.1250
G01 Z-2.0000
G01 Z0
G00 Z2.0000
G00 X33.3659 Y31.6650
G01 Z-2.0000
G01 Z0
G00 Z2.0000
G00 X33.3659 Y34.2050
G01 Z-2.0000
G01 Z0
G00 Z2.0000
G00 X33.3659 Y36.7450
G01 Z-2.0000
G01 Z0
G00 Z2.0000
G00 X33.3659 Y39.2850
G01 Z-2.0000
G01 Z0
G00 Z2.0000
G00 X33.3659 Y41.8250
G01 Z-2.0000
G01 Z0
G00 Z2.0000
G00 X39.0809 Y45.6350
G01 Z-2.0000
G01 Z0
G00 Z2.0000
G00 X39.0809 Y43.0950
G01 Z-2.0000
G01 Z0
G00 Z2.0000
G00 X39.0809 Y40.5550
G01 Z-2.0000
G01 Z0
G00 Z2.0000
G00 X39.0809 Y38.0150
G01 Z-2.0000
G01 Z0
G00 Z2.0000
G00 X39.0809 Y35.4750
G01 Z-2.0000
G01 Z0
G00 Z2.0000
G00 X39.0809 Y32.9350
G01 Z-2.0000
G01 Z0
G00 Z2.0000
G00 X39.0809 Y30.3950
G01 Z-2.0000
G01 Z0
G00 Z2.0000
G00 X39.1609 Y27.2200
G01 Z-2.0000
G01 Z0
G00 Z2.0000
G00 X44.1609 Y27.2200
G01 Z-2.0000
G01 Z0
G00 Z2.0000
G00 X46.7009 Y30.3950
G01 Z-2.0000
G01 Z0
G00 Z2.0000
G00 X46.7009 Y32.9350
G01 Z-2.0000
G01 Z0
G00 Z2.0000
G00 X46.7009 Y35.4750
G01 Z-2.0000
G01 Z0
G00 Z2.0000
G00 X46.7009 Y38.0150
G01 Z-2.0000
G01 Z0
G00 Z2.0000
G00 X46.7009 Y40.5550
G01 Z-2.0000
G01 Z0
G00 Z2.0000
G00 X46.7009 Y43.0950
G01 Z-2.0000
G01 Z0
G00 Z2.0000
G00 X46.7009 Y45.6350
G01 Z-2.0000
G01 Z0
G00 Z2.0000
G00 X39.0809 Y51.9850
G01 Z-2.0000
G01 Z0
G00 Z2.0000
G00 X41.6209 Y51.9850
G01 Z-2.0000
G01 Z0
G00 Z2.0000
G00 X44.1609 Y51.9850
G01 Z-2.0000
G01 Z0
G00 Z2.0000
G00 X46.7009 Y51.9850
G01 Z-2.0000
G01 Z0
G00 Z2.0000
G00 X50.9729 Y52.0860
G01 Z-2.0000
G01 Z0
G00 Z2.0000
G00 X50.9729 Y47.0860
G01 Z-2.0000
G01 Z0
G00 Z2.0000
G00 X59.2279 Y53.8900
G01 Z-2.0000
G01 Z0
G00 Z2.0000
G00 X61.7679 Y53.8900
G01 Z-2.0000
G01 Z0
G00 Z2.0000
G00 X61.7679 Y56.4300
G01 Z-2.0000
G01 Z0
G00 Z2.0000
G00 X59.2279 Y56.4300
G01 Z-2.0000
G01 Z0
G00 Z2.0000
G00 X59.2279 Y58.9700
G01 Z-2.0000
G01 Z0
G00 Z2.0000
G00 X59.2279 Y61.5100
G01 Z-2.0000
G01 Z0
G00 Z2.0000
G00 X61.7679 Y58.9700
G01 Z-2.0000
G01 Z0
G00 Z2.0000
G00 X61.7679 Y61.5100
G01 Z-2.0000
G01 Z0
G00 Z2.0000
G00 X61.7679 Y64.0500
G01 Z-2.0000
G01 Z0
G00 Z2.0000
G00 X59.2279 Y64.0500
G01 Z-2.0000
G01 Z0
G00 Z2.0000
G00 X59.2279 Y66.5900
G01 Z-2.0000
G01 Z0
G00 Z2.0000
G00 X61.7679 Y66.5900
G01 Z-2.0000
G01 Z0
G00 Z2.0000
G00 X61.7679 Y69.1300
G01 Z-2.0000
G01 Z0
G00 Z2.0000
G00 X61.7679 Y71.6700
G01 Z-2.0000
G01 Z0
G00 Z2.0000
G00 X59.2279 Y71.6700
G01 Z-2.0000
G01 Z0
G00 Z2.0000
G00 X59.2279 Y69.1300
G01 Z-2.0000
G01 Z0
G00 Z2.0000
G00 X46.7009 Y74.8450
G01 Z-2.0000
G01 Z0
G00 Z2.0000
G00 X44.1609 Y74.8450
G01 Z-2.0000
G01 Z0
G00 Z2.0000
G00 X41.6209 Y74.8450
G01 Z-2.0000
G01 Z0
G00 Z2.0000
G00 X39.0809 Y74.8450
G01 Z-2.0000
G01 Z0
G00 Z2.0000
G00 X36.5409 Y74.8450
G01 Z-2.0000
G01 Z0
G00 Z2.0000
G00 X34.0009 Y74.8450
G01 Z-2.0000
G01 Z0
G00 Z2.0000
G00 X31.4609 Y74.8450
G01 Z-2.0000
G01 Z0
G00 Z2.0000
G00 X28.9209 Y74.8450
G01 Z-2.0000
G01 Z0
G00 Z2.0000
G00 X26.3809 Y74.8450
G01 Z-2.0000
G01 Z0
G00 Z2.0000
G00 X23.8409 Y74.8450
G01 Z-2.0000
G01 Z0
G00 Z2.0000
G00 X21.3009 Y74.8450
G01 Z-2.0000
G01 Z0
G00 Z2.0000
G00 X18.7609 Y74.8450
G01 Z-2.0000
G01 Z0
G00 Z2.0000
G00 X16.2209 Y74.8450
G01 Z-2.0000
G01 Z0
G00 Z2.0000
G00 X13.6809 Y74.8450
G01 Z-2.0000
G01 Z0
G00 Z2.0000
G00 X11.1409 Y74.8450
G01 Z-2.0000
G01 Z0
G00 Z2.0000
G00 X8.6009 Y74.8450
G01 Z-2.0000
G01 Z0
G00 Z2.0000
G00 X16.2209 Y51.9850
G01 Z-2.0000
G01 Z0
G00 Z2.0000
G00 X13.6809 Y51.9850
G01 Z-2.0000
G01 Z0
G00 Z2.0000
G00 X11.1409 Y51.9850
G01 Z-2.0000
G01 Z0
G00 Z2.0000
G00 X8.6009 Y51.9850
G01 Z-2.0000
G01 Z0
G00 Z2.0000
G00 X4.2359 Y46.9050
G01 Z-2.0000
G01 Z0
G00 Z2.0000
M05
G00 Z20.00


