(G-CODE GENERATED BY FLATCAM v8.994 - www.flatcam.org - Version Date: 2020/11/7)

(Name: cut_front_cnc)
(Type: G-code from Geometry)
(Units: MM)

(Created on Monday, 15 February 2021 at 22:20)

(This preprocessor is the default preprocessor used by FlatCAM.)
(It is made to work with MACH3 compatible motion controllers.)

(TOOL DIAMETER: 1.0 mm)
(Feedrate_XY: 100.0 mm/min)
(Feedrate_Z: 60.0 mm/min)
(Feedrate rapids 1500.0 mm/min)

(Z_Cut: -1.8 mm)
(DepthPerCut: 0.6 mm <=>3 passes)
(Z_Move: 2.0 mm)
(Z Start: None mm)
(Z End: 20.0 mm)
(X,Y End: None mm)
(Steps per circle: 64)
(Preprocessor Geometry: default)

(X range:   -0.5990 ...   79.5750  mm)
(Y range:   -0.5958 ...   80.7371  mm)

(Spindle Speed: 12000.0 RPM)
G21
G90
G94

G01 F100.00

M5
G00 Z20.0000
G00 X0.0000 Y0.0000
T1
M6    
(MSG, Change to Tool Dia = 1.0000)
M0
G00 Z20.0000

M03 S12000.0
G01 F100.00
G00 X38.4880 Y-0.5750
G01 F60.00
G01 Z-0.6000
G01 F100.00
G01 X3.0101 Y-0.5750
G01 X2.9939 Y-0.5794
G01 X2.9459 Y-0.5890
G01 X2.9361 Y-0.5905
G01 X2.8873 Y-0.5953
G01 X2.8775 Y-0.5958
G01 X2.8285 Y-0.5958
G01 X2.7942 Y-0.5936
G01 X2.5058 Y-0.5654
G01 X2.4722 Y-0.5610
G01 X2.4484 Y-0.5570
G01 X2.1641 Y-0.5011
G01 X2.1311 Y-0.4935
G01 X2.1078 Y-0.4871
G01 X1.8302 Y-0.4041
G01 X1.7981 Y-0.3934
G01 X1.7755 Y-0.3848
G01 X1.5072 Y-0.2753
G01 X1.4763 Y-0.2616
G01 X1.4546 Y-0.2508
G01 X1.1981 Y-0.1160
G01 X1.1770 Y-0.1042
G01 X1.1482 Y-0.0866
G01 X0.9059 Y0.0724
G01 X0.8782 Y0.0918
G01 X0.8590 Y0.1065
G01 X0.6332 Y0.2881
G01 X0.6075 Y0.3101
G01 X0.5898 Y0.3266
G01 X0.3825 Y0.5292
G01 X0.3591 Y0.5535
G01 X0.3431 Y0.5716
G01 X0.1563 Y0.7933
G01 X0.1354 Y0.8198
G01 X0.1212 Y0.8393
G01 X-0.0433 Y1.0779
G01 X-0.0616 Y1.1064
G01 X-0.0739 Y1.1272
G01 X-0.2146 Y1.3805
G01 X-0.2301 Y1.4106
G01 X-0.2402 Y1.4325
G01 X-0.3558 Y1.6983
G01 X-0.3684 Y1.7297
G01 X-0.3764 Y1.7525
G01 X-0.4658 Y2.0281
G01 X-0.4752 Y2.0606
G01 X-0.4810 Y2.0841
G01 X-0.5434 Y2.3671
G01 X-0.5480 Y2.3908
G01 X-0.5531 Y2.4242
G01 X-0.5879 Y2.7119
G01 X-0.5909 Y2.7456
G01 X-0.5921 Y2.7697
G01 X-0.5990 Y3.0595
G01 X-0.5987 Y3.0933
G01 X-0.5976 Y3.1174
G01 X-0.5764 Y3.4065
G01 X-0.5729 Y3.4401
G01 X-0.5694 Y3.4640
G01 X-0.5205 Y3.7496
G01 X-0.5138 Y3.7828
G01 X-0.5080 Y3.8062
G01 X-0.4318 Y4.0858
G01 X-0.4249 Y4.1090
G01 X-0.4138 Y4.1410
G01 X-0.3110 Y4.4119
G01 X-0.2980 Y4.4431
G01 X-0.2878 Y4.4650
G01 X-0.1593 Y4.7248
G01 X-0.1434 Y4.7546
G01 X-0.1311 Y4.7754
G01 X0.0218 Y5.0216
G01 X0.0406 Y5.0497
G01 X0.0548 Y5.0693
G01 X0.2308 Y5.2995
G01 X0.2459 Y5.3183
G01 X0.2682 Y5.3438
G01 X0.4656 Y5.5560
G01 X0.4894 Y5.5800
G01 X0.5071 Y5.5964
G01 X0.7240 Y5.7886
G01 X0.7500 Y5.8102
G01 X0.7692 Y5.8249
G01 X1.0037 Y5.9952
G01 X1.0317 Y6.0142
G01 X1.0522 Y6.0269
G01 X1.3020 Y6.1738
G01 X1.3317 Y6.1900
G01 X1.3534 Y6.2007
G01 X1.6162 Y6.3228
G01 X1.6473 Y6.3361
G01 X1.6699 Y6.3447
G01 X1.9433 Y6.4409
G01 X1.9662 Y6.4483
G01 X1.9988 Y6.4574
G01 X2.2802 Y6.5268
G01 X2.3133 Y6.5338
G01 X2.3371 Y6.5379
G01 X2.6239 Y6.5798
G01 X2.6575 Y6.5836
G01 X2.6816 Y6.5854
G01 X2.9710 Y6.5993
G01 X3.0054 Y6.5999
G01 X3.0544 Y6.5975
G01 X3.0685 Y6.5959
G01 X4.2638 Y7.1403
G01 X5.5312 Y7.8682
G01 X6.7249 Y8.7116
G01 X7.8342 Y9.6631
G01 X8.8496 Y10.7144
G01 X9.7619 Y11.8562
G01 X10.5632 Y13.0784
G01 X11.2465 Y14.3704
G01 X11.8057 Y15.7208
G01 X12.2359 Y17.1175
G01 X12.4250 Y18.0272
G01 X12.4250 Y39.0706
G00 X12.4250 Y39.0706
G01 F60.00
G01 Z-1.2000
G01 F100.00
G01 X12.4250 Y18.0272
G01 X12.2359 Y17.1175
G01 X11.8057 Y15.7208
G01 X11.2465 Y14.3704
G01 X10.5632 Y13.0784
G01 X9.7619 Y11.8562
G01 X8.8496 Y10.7144
G01 X7.8342 Y9.6631
G01 X6.7249 Y8.7116
G01 X5.5312 Y7.8682
G01 X4.2638 Y7.1403
G01 X3.0685 Y6.5959
G01 X3.0544 Y6.5975
G01 X3.0054 Y6.5999
G01 X2.9710 Y6.5993
G01 X2.6816 Y6.5854
G01 X2.6575 Y6.5836
G01 X2.6239 Y6.5798
G01 X2.3371 Y6.5379
G01 X2.3133 Y6.5338
G01 X2.2802 Y6.5268
G01 X1.9988 Y6.4574
G01 X1.9662 Y6.4483
G01 X1.9433 Y6.4409
G01 X1.6699 Y6.3447
G01 X1.6473 Y6.3361
G01 X1.6162 Y6.3228
G01 X1.3534 Y6.2007
G01 X1.3317 Y6.1900
G01 X1.3020 Y6.1738
G01 X1.0522 Y6.0269
G01 X1.0317 Y6.0142
G01 X1.0037 Y5.9952
G01 X0.7692 Y5.8249
G01 X0.7500 Y5.8102
G01 X0.7240 Y5.7886
G01 X0.5071 Y5.5964
G01 X0.4894 Y5.5800
G01 X0.4656 Y5.5560
G01 X0.2682 Y5.3438
G01 X0.2459 Y5.3183
G01 X0.2308 Y5.2995
G01 X0.0548 Y5.0693
G01 X0.0406 Y5.0497
G01 X0.0218 Y5.0216
G01 X-0.1311 Y4.7754
G01 X-0.1434 Y4.7546
G01 X-0.1593 Y4.7248
G01 X-0.2878 Y4.4650
G01 X-0.2980 Y4.4431
G01 X-0.3110 Y4.4119
G01 X-0.4138 Y4.1410
G01 X-0.4249 Y4.1090
G01 X-0.4318 Y4.0858
G01 X-0.5080 Y3.8062
G01 X-0.5138 Y3.7828
G01 X-0.5205 Y3.7496
G01 X-0.5694 Y3.4640
G01 X-0.5729 Y3.4401
G01 X-0.5764 Y3.4065
G01 X-0.5976 Y3.1174
G01 X-0.5987 Y3.0933
G01 X-0.5990 Y3.0595
G01 X-0.5921 Y2.7697
G01 X-0.5909 Y2.7456
G01 X-0.5879 Y2.7119
G01 X-0.5531 Y2.4242
G01 X-0.5480 Y2.3908
G01 X-0.5434 Y2.3671
G01 X-0.4810 Y2.0841
G01 X-0.4752 Y2.0606
G01 X-0.4658 Y2.0281
G01 X-0.3764 Y1.7525
G01 X-0.3684 Y1.7297
G01 X-0.3558 Y1.6983
G01 X-0.2402 Y1.4325
G01 X-0.2301 Y1.4106
G01 X-0.2146 Y1.3805
G01 X-0.0739 Y1.1272
G01 X-0.0616 Y1.1064
G01 X-0.0433 Y1.0779
G01 X0.1212 Y0.8393
G01 X0.1354 Y0.8198
G01 X0.1563 Y0.7933
G01 X0.3431 Y0.5716
G01 X0.3591 Y0.5535
G01 X0.3825 Y0.5292
G01 X0.5898 Y0.3266
G01 X0.6075 Y0.3101
G01 X0.6332 Y0.2881
G01 X0.8590 Y0.1065
G01 X0.8782 Y0.0918
G01 X0.9059 Y0.0724
G01 X1.1482 Y-0.0866
G01 X1.1770 Y-0.1042
G01 X1.1981 Y-0.1160
G01 X1.4546 Y-0.2508
G01 X1.4763 Y-0.2616
G01 X1.5072 Y-0.2753
G01 X1.7755 Y-0.3848
G01 X1.7981 Y-0.3934
G01 X1.8302 Y-0.4041
G01 X2.1078 Y-0.4871
G01 X2.1311 Y-0.4935
G01 X2.1641 Y-0.5011
G01 X2.4484 Y-0.5570
G01 X2.4722 Y-0.5610
G01 X2.5058 Y-0.5654
G01 X2.7942 Y-0.5936
G01 X2.8285 Y-0.5958
G01 X2.8775 Y-0.5958
G01 X2.8873 Y-0.5953
G01 X2.9361 Y-0.5905
G01 X2.9459 Y-0.5890
G01 X2.9939 Y-0.5794
G01 X3.0101 Y-0.5750
G01 X38.4880 Y-0.5750
G00 X38.4880 Y-0.5750
G01 F60.00
G01 Z-1.8000
G01 F100.00
G01 X3.0101 Y-0.5750
G01 X2.9939 Y-0.5794
G01 X2.9459 Y-0.5890
G01 X2.9361 Y-0.5905
G01 X2.8873 Y-0.5953
G01 X2.8775 Y-0.5958
G01 X2.8285 Y-0.5958
G01 X2.7942 Y-0.5936
G01 X2.5058 Y-0.5654
G01 X2.4722 Y-0.5610
G01 X2.4484 Y-0.5570
G01 X2.1641 Y-0.5011
G01 X2.1311 Y-0.4935
G01 X2.1078 Y-0.4871
G01 X1.8302 Y-0.4041
G01 X1.7981 Y-0.3934
G01 X1.7755 Y-0.3848
G01 X1.5072 Y-0.2753
G01 X1.4763 Y-0.2616
G01 X1.4546 Y-0.2508
G01 X1.1981 Y-0.1160
G01 X1.1770 Y-0.1042
G01 X1.1482 Y-0.0866
G01 X0.9059 Y0.0724
G01 X0.8782 Y0.0918
G01 X0.8590 Y0.1065
G01 X0.6332 Y0.2881
G01 X0.6075 Y0.3101
G01 X0.5898 Y0.3266
G01 X0.3825 Y0.5292
G01 X0.3591 Y0.5535
G01 X0.3431 Y0.5716
G01 X0.1563 Y0.7933
G01 X0.1354 Y0.8198
G01 X0.1212 Y0.8393
G01 X-0.0433 Y1.0779
G01 X-0.0616 Y1.1064
G01 X-0.0739 Y1.1272
G01 X-0.2146 Y1.3805
G01 X-0.2301 Y1.4106
G01 X-0.2402 Y1.4325
G01 X-0.3558 Y1.6983
G01 X-0.3684 Y1.7297
G01 X-0.3764 Y1.7525
G01 X-0.4658 Y2.0281
G01 X-0.4752 Y2.0606
G01 X-0.4810 Y2.0841
G01 X-0.5434 Y2.3671
G01 X-0.5480 Y2.3908
G01 X-0.5531 Y2.4242
G01 X-0.5879 Y2.7119
G01 X-0.5909 Y2.7456
G01 X-0.5921 Y2.7697
G01 X-0.5990 Y3.0595
G01 X-0.5987 Y3.0933
G01 X-0.5976 Y3.1174
G01 X-0.5764 Y3.4065
G01 X-0.5729 Y3.4401
G01 X-0.5694 Y3.4640
G01 X-0.5205 Y3.7496
G01 X-0.5138 Y3.7828
G01 X-0.5080 Y3.8062
G01 X-0.4318 Y4.0858
G01 X-0.4249 Y4.1090
G01 X-0.4138 Y4.1410
G01 X-0.3110 Y4.4119
G01 X-0.2980 Y4.4431
G01 X-0.2878 Y4.4650
G01 X-0.1593 Y4.7248
G01 X-0.1434 Y4.7546
G01 X-0.1311 Y4.7754
G01 X0.0218 Y5.0216
G01 X0.0406 Y5.0497
G01 X0.0548 Y5.0693
G01 X0.2308 Y5.2995
G01 X0.2459 Y5.3183
G01 X0.2682 Y5.3438
G01 X0.4656 Y5.5560
G01 X0.4894 Y5.5800
G01 X0.5071 Y5.5964
G01 X0.7240 Y5.7886
G01 X0.7500 Y5.8102
G01 X0.7692 Y5.8249
G01 X1.0037 Y5.9952
G01 X1.0317 Y6.0142
G01 X1.0522 Y6.0269
G01 X1.3020 Y6.1738
G01 X1.3317 Y6.1900
G01 X1.3534 Y6.2007
G01 X1.6162 Y6.3228
G01 X1.6473 Y6.3361
G01 X1.6699 Y6.3447
G01 X1.9433 Y6.4409
G01 X1.9662 Y6.4483
G01 X1.9988 Y6.4574
G01 X2.2802 Y6.5268
G01 X2.3133 Y6.5338
G01 X2.3371 Y6.5379
G01 X2.6239 Y6.5798
G01 X2.6575 Y6.5836
G01 X2.6816 Y6.5854
G01 X2.9710 Y6.5993
G01 X3.0054 Y6.5999
G01 X3.0544 Y6.5975
G01 X3.0685 Y6.5959
G01 X4.2638 Y7.1403
G01 X5.5312 Y7.8682
G01 X6.7249 Y8.7116
G01 X7.8342 Y9.6631
G01 X8.8496 Y10.7144
G01 X9.7619 Y11.8562
G01 X10.5632 Y13.0784
G01 X11.2465 Y14.3704
G01 X11.8057 Y15.7208
G01 X12.2359 Y17.1175
G01 X12.4250 Y18.0272
G01 X12.4250 Y39.0706
G00 Z2.0000
G00 X12.4250 Y41.0706
G01 F60.00
G01 Z-0.6000
G01 F100.00
G01 X12.4250 Y78.0000
G01 X12.4256 Y78.0259
G01 X12.4256 Y78.0763
G01 X12.4259 Y78.0836
G01 X12.4307 Y78.1325
G01 X12.4318 Y78.1397
G01 X12.4414 Y78.1879
G01 X12.4432 Y78.1950
G01 X12.4574 Y78.2420
G01 X12.4599 Y78.2489
G01 X12.4787 Y78.2942
G01 X12.4818 Y78.3009
G01 X12.5050 Y78.3442
G01 X12.5087 Y78.3505
G01 X12.5360 Y78.3913
G01 X12.5404 Y78.3972
G01 X12.5715 Y78.4351
G01 X12.5765 Y78.4406
G01 X12.6112 Y78.4753
G01 X12.6166 Y78.4802
G01 X12.6545 Y78.5113
G01 X12.6605 Y78.5157
G01 X12.7013 Y78.5430
G01 X12.7076 Y78.5468
G01 X12.7509 Y78.5699
G01 X12.7575 Y78.5731
G01 X12.8028 Y78.5918
G01 X12.8098 Y78.5943
G01 X12.8567 Y78.6086
G01 X12.8639 Y78.6104
G01 X12.9120 Y78.6199
G01 X12.9193 Y78.6210
G01 X12.9681 Y78.6258
G01 X13.0000 Y78.6268
G01 X23.6394 Y78.6268
G01 X23.7066 Y78.7654
G01 X23.7211 Y78.7933
G01 X23.7332 Y78.8142
G01 X23.8924 Y79.0751
G01 X23.9096 Y79.1014
G01 X23.9236 Y79.1211
G01 X24.1072 Y79.3654
G01 X24.1268 Y79.3899
G01 X24.1427 Y79.4082
G01 X24.3491 Y79.6336
G01 X24.3658 Y79.6510
G01 X24.3885 Y79.6727
G01 X24.6157 Y79.8772
G01 X24.6396 Y79.8975
G01 X24.6587 Y79.9123
G01 X24.9045 Y80.0939
G01 X24.9303 Y80.1118
G01 X24.9508 Y80.1247
G01 X25.2130 Y80.2817
G01 X25.2340 Y80.2936
G01 X25.2620 Y80.3080
G01 X25.5381 Y80.4389
G01 X25.5669 Y80.4515
G01 X25.5894 Y80.4603
G01 X25.8769 Y80.5640
G01 X25.9067 Y80.5737
G01 X25.9300 Y80.5803
G01 X26.2262 Y80.6557
G01 X26.2497 Y80.6611
G01 X26.2806 Y80.6668
G01 X26.5827 Y80.7134
G01 X26.6138 Y80.7172
G01 X26.6379 Y80.7192
G01 X26.9431 Y80.7363
G01 X26.9745 Y80.7371
G01 X26.9986 Y80.7367
G01 X27.3040 Y80.7244
G01 X27.3281 Y80.7228
G01 X27.3594 Y80.7194
G01 X27.6621 Y80.6776
G01 X27.6931 Y80.6724
G01 X27.7167 Y80.6674
G01 X28.0140 Y80.5965
G01 X28.0443 Y80.5883
G01 X28.0674 Y80.5811
G01 X28.3564 Y80.4819
G01 X28.3858 Y80.4708
G01 X28.4081 Y80.4613
G01 X28.6862 Y80.3347
G01 X28.7144 Y80.3208
G01 X28.7356 Y80.3092
G01 X29.0002 Y80.1563
G01 X29.0209 Y80.1437
G01 X29.0469 Y80.1262
G01 X29.2956 Y79.9485
G01 X29.3206 Y79.9295
G01 X29.3392 Y79.9140
G01 X29.5695 Y79.7131
G01 X29.5925 Y79.6918
G01 X29.6095 Y79.6746
G01 X29.8194 Y79.4524
G01 X29.8355 Y79.4345
G01 X29.8555 Y79.4102
G01 X30.0429 Y79.1688
G01 X30.0615 Y79.1435
G01 X30.0748 Y79.1233
G01 X30.2381 Y78.8650
G01 X30.2505 Y78.8442
G01 X30.2655 Y78.8166
G01 X30.3872 Y78.5750
G01 X38.4880 Y78.5750
G00 X38.4880 Y78.5750
G01 F60.00
G01 Z-1.2000
G01 F100.00
G01 X30.3872 Y78.5750
G01 X30.2655 Y78.8166
G01 X30.2505 Y78.8442
G01 X30.2381 Y78.8650
G01 X30.0748 Y79.1233
G01 X30.0615 Y79.1435
G01 X30.0429 Y79.1688
G01 X29.8555 Y79.4102
G01 X29.8355 Y79.4345
G01 X29.8194 Y79.4524
G01 X29.6095 Y79.6746
G01 X29.5925 Y79.6918
G01 X29.5695 Y79.7131
G01 X29.3392 Y79.9140
G01 X29.3206 Y79.9295
G01 X29.2956 Y79.9485
G01 X29.0469 Y80.1262
G01 X29.0209 Y80.1437
G01 X29.0002 Y80.1563
G01 X28.7356 Y80.3092
G01 X28.7144 Y80.3208
G01 X28.6862 Y80.3347
G01 X28.4081 Y80.4613
G01 X28.3858 Y80.4708
G01 X28.3564 Y80.4819
G01 X28.0674 Y80.5811
G01 X28.0443 Y80.5883
G01 X28.0140 Y80.5965
G01 X27.7167 Y80.6674
G01 X27.6931 Y80.6724
G01 X27.6621 Y80.6776
G01 X27.3594 Y80.7194
G01 X27.3281 Y80.7228
G01 X27.3040 Y80.7244
G01 X26.9986 Y80.7367
G01 X26.9745 Y80.7371
G01 X26.9431 Y80.7363
G01 X26.6379 Y80.7192
G01 X26.6138 Y80.7172
G01 X26.5827 Y80.7134
G01 X26.2806 Y80.6668
G01 X26.2497 Y80.6611
G01 X26.2262 Y80.6557
G01 X25.9300 Y80.5803
G01 X25.9067 Y80.5737
G01 X25.8769 Y80.5640
G01 X25.5894 Y80.4603
G01 X25.5669 Y80.4515
G01 X25.5381 Y80.4389
G01 X25.2620 Y80.3080
G01 X25.2340 Y80.2936
G01 X25.2130 Y80.2817
G01 X24.9508 Y80.1247
G01 X24.9303 Y80.1118
G01 X24.9045 Y80.0939
G01 X24.6587 Y79.9123
G01 X24.6396 Y79.8975
G01 X24.6157 Y79.8772
G01 X24.3885 Y79.6727
G01 X24.3658 Y79.6510
G01 X24.3491 Y79.6336
G01 X24.1427 Y79.4082
G01 X24.1268 Y79.3899
G01 X24.1072 Y79.3654
G01 X23.9236 Y79.1211
G01 X23.9096 Y79.1014
G01 X23.8924 Y79.0751
G01 X23.7332 Y78.8142
G01 X23.7211 Y78.7933
G01 X23.7066 Y78.7654
G01 X23.6394 Y78.6268
G01 X13.0000 Y78.6268
G01 X12.9681 Y78.6258
G01 X12.9193 Y78.6210
G01 X12.9120 Y78.6199
G01 X12.8639 Y78.6104
G01 X12.8567 Y78.6086
G01 X12.8098 Y78.5943
G01 X12.8028 Y78.5918
G01 X12.7575 Y78.5731
G01 X12.7509 Y78.5699
G01 X12.7076 Y78.5468
G01 X12.7013 Y78.5430
G01 X12.6605 Y78.5157
G01 X12.6545 Y78.5113
G01 X12.6166 Y78.4802
G01 X12.6112 Y78.4753
G01 X12.5765 Y78.4406
G01 X12.5715 Y78.4351
G01 X12.5404 Y78.3972
G01 X12.5360 Y78.3913
G01 X12.5087 Y78.3505
G01 X12.5050 Y78.3442
G01 X12.4818 Y78.3009
G01 X12.4787 Y78.2942
G01 X12.4599 Y78.2489
G01 X12.4574 Y78.2420
G01 X12.4432 Y78.1950
G01 X12.4414 Y78.1879
G01 X12.4318 Y78.1397
G01 X12.4307 Y78.1325
G01 X12.4259 Y78.0836
G01 X12.4256 Y78.0763
G01 X12.4256 Y78.0259
G01 X12.4250 Y78.0000
G01 X12.4250 Y41.0706
G00 X12.4250 Y41.0706
G01 F60.00
G01 Z-1.8000
G01 F100.00
G01 X12.4250 Y78.0000
G01 X12.4256 Y78.0259
G01 X12.4256 Y78.0763
G01 X12.4259 Y78.0836
G01 X12.4307 Y78.1325
G01 X12.4318 Y78.1397
G01 X12.4414 Y78.1879
G01 X12.4432 Y78.1950
G01 X12.4574 Y78.2420
G01 X12.4599 Y78.2489
G01 X12.4787 Y78.2942
G01 X12.4818 Y78.3009
G01 X12.5050 Y78.3442
G01 X12.5087 Y78.3505
G01 X12.5360 Y78.3913
G01 X12.5404 Y78.3972
G01 X12.5715 Y78.4351
G01 X12.5765 Y78.4406
G01 X12.6112 Y78.4753
G01 X12.6166 Y78.4802
G01 X12.6545 Y78.5113
G01 X12.6605 Y78.5157
G01 X12.7013 Y78.5430
G01 X12.7076 Y78.5468
G01 X12.7509 Y78.5699
G01 X12.7575 Y78.5731
G01 X12.8028 Y78.5918
G01 X12.8098 Y78.5943
G01 X12.8567 Y78.6086
G01 X12.8639 Y78.6104
G01 X12.9120 Y78.6199
G01 X12.9193 Y78.6210
G01 X12.9681 Y78.6258
G01 X13.0000 Y78.6268
G01 X23.6394 Y78.6268
G01 X23.7066 Y78.7654
G01 X23.7211 Y78.7933
G01 X23.7332 Y78.8142
G01 X23.8924 Y79.0751
G01 X23.9096 Y79.1014
G01 X23.9236 Y79.1211
G01 X24.1072 Y79.3654
G01 X24.1268 Y79.3899
G01 X24.1427 Y79.4082
G01 X24.3491 Y79.6336
G01 X24.3658 Y79.6510
G01 X24.3885 Y79.6727
G01 X24.6157 Y79.8772
G01 X24.6396 Y79.8975
G01 X24.6587 Y79.9123
G01 X24.9045 Y80.0939
G01 X24.9303 Y80.1118
G01 X24.9508 Y80.1247
G01 X25.2130 Y80.2817
G01 X25.2340 Y80.2936
G01 X25.2620 Y80.3080
G01 X25.5381 Y80.4389
G01 X25.5669 Y80.4515
G01 X25.5894 Y80.4603
G01 X25.8769 Y80.5640
G01 X25.9067 Y80.5737
G01 X25.9300 Y80.5803
G01 X26.2262 Y80.6557
G01 X26.2497 Y80.6611
G01 X26.2806 Y80.6668
G01 X26.5827 Y80.7134
G01 X26.6138 Y80.7172
G01 X26.6379 Y80.7192
G01 X26.9431 Y80.7363
G01 X26.9745 Y80.7371
G01 X26.9986 Y80.7367
G01 X27.3040 Y80.7244
G01 X27.3281 Y80.7228
G01 X27.3594 Y80.7194
G01 X27.6621 Y80.6776
G01 X27.6931 Y80.6724
G01 X27.7167 Y80.6674
G01 X28.0140 Y80.5965
G01 X28.0443 Y80.5883
G01 X28.0674 Y80.5811
G01 X28.3564 Y80.4819
G01 X28.3858 Y80.4708
G01 X28.4081 Y80.4613
G01 X28.6862 Y80.3347
G01 X28.7144 Y80.3208
G01 X28.7356 Y80.3092
G01 X29.0002 Y80.1563
G01 X29.0209 Y80.1437
G01 X29.0469 Y80.1262
G01 X29.2956 Y79.9485
G01 X29.3206 Y79.9295
G01 X29.3392 Y79.9140
G01 X29.5695 Y79.7131
G01 X29.5925 Y79.6918
G01 X29.6095 Y79.6746
G01 X29.8194 Y79.4524
G01 X29.8355 Y79.4345
G01 X29.8555 Y79.4102
G01 X30.0429 Y79.1688
G01 X30.0615 Y79.1435
G01 X30.0748 Y79.1233
G01 X30.2381 Y78.8650
G01 X30.2505 Y78.8442
G01 X30.2655 Y78.8166
G01 X30.3872 Y78.5750
G01 X38.4880 Y78.5750
G00 Z2.0000
G00 X40.4880 Y78.5750
G01 F60.00
G01 Z-0.6000
G01 F100.00
G01 X79.0000 Y78.5750
G01 X79.0319 Y78.5741
G01 X79.0807 Y78.5693
G01 X79.0880 Y78.5682
G01 X79.1361 Y78.5586
G01 X79.1433 Y78.5568
G01 X79.1902 Y78.5426
G01 X79.1972 Y78.5401
G01 X79.2425 Y78.5213
G01 X79.2491 Y78.5182
G01 X79.2924 Y78.4950
G01 X79.2987 Y78.4913
G01 X79.3395 Y78.4640
G01 X79.3455 Y78.4596
G01 X79.3834 Y78.4285
G01 X79.3888 Y78.4235
G01 X79.4235 Y78.3888
G01 X79.4285 Y78.3834
G01 X79.4596 Y78.3455
G01 X79.4640 Y78.3395
G01 X79.4913 Y78.2987
G01 X79.4950 Y78.2924
G01 X79.5182 Y78.2491
G01 X79.5213 Y78.2425
G01 X79.5401 Y78.1972
G01 X79.5426 Y78.1902
G01 X79.5568 Y78.1433
G01 X79.5586 Y78.1361
G01 X79.5682 Y78.0880
G01 X79.5693 Y78.0807
G01 X79.5741 Y78.0319
G01 X79.5750 Y78.0000
G01 X79.5750 Y41.0706
G00 X79.5750 Y41.0706
G01 F60.00
G01 Z-1.2000
G01 F100.00
G01 X79.5750 Y78.0000
G01 X79.5741 Y78.0319
G01 X79.5693 Y78.0807
G01 X79.5682 Y78.0880
G01 X79.5586 Y78.1361
G01 X79.5568 Y78.1433
G01 X79.5426 Y78.1902
G01 X79.5401 Y78.1972
G01 X79.5213 Y78.2425
G01 X79.5182 Y78.2491
G01 X79.4950 Y78.2924
G01 X79.4913 Y78.2987
G01 X79.4640 Y78.3395
G01 X79.4596 Y78.3455
G01 X79.4285 Y78.3834
G01 X79.4235 Y78.3888
G01 X79.3888 Y78.4235
G01 X79.3834 Y78.4285
G01 X79.3455 Y78.4596
G01 X79.3395 Y78.4640
G01 X79.2987 Y78.4913
G01 X79.2924 Y78.4950
G01 X79.2491 Y78.5182
G01 X79.2425 Y78.5213
G01 X79.1972 Y78.5401
G01 X79.1902 Y78.5426
G01 X79.1433 Y78.5568
G01 X79.1361 Y78.5586
G01 X79.0880 Y78.5682
G01 X79.0807 Y78.5693
G01 X79.0319 Y78.5741
G01 X79.0000 Y78.5750
G01 X40.4880 Y78.5750
G00 X40.4880 Y78.5750
G01 F60.00
G01 Z-1.8000
G01 F100.00
G01 X79.0000 Y78.5750
G01 X79.0319 Y78.5741
G01 X79.0807 Y78.5693
G01 X79.0880 Y78.5682
G01 X79.1361 Y78.5586
G01 X79.1433 Y78.5568
G01 X79.1902 Y78.5426
G01 X79.1972 Y78.5401
G01 X79.2425 Y78.5213
G01 X79.2491 Y78.5182
G01 X79.2924 Y78.4950
G01 X79.2987 Y78.4913
G01 X79.3395 Y78.4640
G01 X79.3455 Y78.4596
G01 X79.3834 Y78.4285
G01 X79.3888 Y78.4235
G01 X79.4235 Y78.3888
G01 X79.4285 Y78.3834
G01 X79.4596 Y78.3455
G01 X79.4640 Y78.3395
G01 X79.4913 Y78.2987
G01 X79.4950 Y78.2924
G01 X79.5182 Y78.2491
G01 X79.5213 Y78.2425
G01 X79.5401 Y78.1972
G01 X79.5426 Y78.1902
G01 X79.5568 Y78.1433
G01 X79.5586 Y78.1361
G01 X79.5682 Y78.0880
G01 X79.5693 Y78.0807
G01 X79.5741 Y78.0319
G01 X79.5750 Y78.0000
G01 X79.5750 Y41.0706
G00 Z2.0000
G00 X79.5750 Y39.0706
G01 F60.00
G01 Z-0.6000
G01 F100.00
G01 X79.5750 Y0.0000
G01 X79.5741 Y-0.0319
G01 X79.5693 Y-0.0807
G01 X79.5682 Y-0.0880
G01 X79.5586 Y-0.1361
G01 X79.5568 Y-0.1433
G01 X79.5426 Y-0.1902
G01 X79.5401 Y-0.1972
G01 X79.5213 Y-0.2425
G01 X79.5182 Y-0.2491
G01 X79.4950 Y-0.2924
G01 X79.4913 Y-0.2987
G01 X79.4640 Y-0.3395
G01 X79.4596 Y-0.3455
G01 X79.4285 Y-0.3834
G01 X79.4235 Y-0.3888
G01 X79.3888 Y-0.4235
G01 X79.3834 Y-0.4285
G01 X79.3455 Y-0.4596
G01 X79.3395 Y-0.4640
G01 X79.2987 Y-0.4913
G01 X79.2924 Y-0.4950
G01 X79.2491 Y-0.5182
G01 X79.2425 Y-0.5213
G01 X79.1972 Y-0.5401
G01 X79.1902 Y-0.5426
G01 X79.1433 Y-0.5568
G01 X79.1361 Y-0.5586
G01 X79.0880 Y-0.5682
G01 X79.0807 Y-0.5693
G01 X79.0319 Y-0.5741
G01 X79.0000 Y-0.5750
G01 X40.4880 Y-0.5750
G00 X40.4880 Y-0.5750
G01 F60.00
G01 Z-1.2000
G01 F100.00
G01 X79.0000 Y-0.5750
G01 X79.0319 Y-0.5741
G01 X79.0807 Y-0.5693
G01 X79.0880 Y-0.5682
G01 X79.1361 Y-0.5586
G01 X79.1433 Y-0.5568
G01 X79.1902 Y-0.5426
G01 X79.1972 Y-0.5401
G01 X79.2425 Y-0.5213
G01 X79.2491 Y-0.5182
G01 X79.2924 Y-0.4950
G01 X79.2987 Y-0.4913
G01 X79.3395 Y-0.4640
G01 X79.3455 Y-0.4596
G01 X79.3834 Y-0.4285
G01 X79.3888 Y-0.4235
G01 X79.4235 Y-0.3888
G01 X79.4285 Y-0.3834
G01 X79.4596 Y-0.3455
G01 X79.4640 Y-0.3395
G01 X79.4913 Y-0.2987
G01 X79.4950 Y-0.2924
G01 X79.5182 Y-0.2491
G01 X79.5213 Y-0.2425
G01 X79.5401 Y-0.1972
G01 X79.5426 Y-0.1902
G01 X79.5568 Y-0.1433
G01 X79.5586 Y-0.1361
G01 X79.5682 Y-0.0880
G01 X79.5693 Y-0.0807
G01 X79.5741 Y-0.0319
G01 X79.5750 Y0.0000
G01 X79.5750 Y39.0706
G00 X79.5750 Y39.0706
G01 F60.00
G01 Z-1.8000
G01 F100.00
G01 X79.5750 Y0.0000
G01 X79.5741 Y-0.0319
G01 X79.5693 Y-0.0807
G01 X79.5682 Y-0.0880
G01 X79.5586 Y-0.1361
G01 X79.5568 Y-0.1433
G01 X79.5426 Y-0.1902
G01 X79.5401 Y-0.1972
G01 X79.5213 Y-0.2425
G01 X79.5182 Y-0.2491
G01 X79.4950 Y-0.2924
G01 X79.4913 Y-0.2987
G01 X79.4640 Y-0.3395
G01 X79.4596 Y-0.3455
G01 X79.4285 Y-0.3834
G01 X79.4235 Y-0.3888
G01 X79.3888 Y-0.4235
G01 X79.3834 Y-0.4285
G01 X79.3455 Y-0.4596
G01 X79.3395 Y-0.4640
G01 X79.2987 Y-0.4913
G01 X79.2924 Y-0.4950
G01 X79.2491 Y-0.5182
G01 X79.2425 Y-0.5213
G01 X79.1972 Y-0.5401
G01 X79.1902 Y-0.5426
G01 X79.1433 Y-0.5568
G01 X79.1361 Y-0.5586
G01 X79.0880 Y-0.5682
G01 X79.0807 Y-0.5693
G01 X79.0319 Y-0.5741
G01 X79.0000 Y-0.5750
G01 X40.4880 Y-0.5750
G00 Z2.0000
M05
G00 Z2.0000
G00 Z20.00


