(G-CODE GENERATED BY FLATCAM v8.994 - www.flatcam.org - Version Date: 2020/11/7)

(Name: cut_front_cnc)
(Type: G-code from Geometry)
(Units: MM)

(Created on Tuesday, 16 February 2021 at 18:32)

(This preprocessor is the default preprocessor used by FlatCAM.)
(It is made to work with MACH3 compatible motion controllers.)

(TOOL DIAMETER: 1.0 mm)
(Feedrate_XY: 100.0 mm/min)
(Feedrate_Z: 60.0 mm/min)
(Feedrate rapids 1500.0 mm/min)

(Z_Cut: -1.8 mm)
(DepthPerCut: 0.6 mm <=>3 passes)
(Z_Move: 2.0 mm)
(Z Start: None mm)
(Z End: 20.0 mm)
(X,Y End: None mm)
(Steps per circle: 64)
(Preprocessor Geometry: default)

(X range:   -0.5991 ...   79.5749  mm)
(Y range:   -0.5958 ...   80.7371  mm)

(Spindle Speed: 12000.0 RPM)
G21
G90
G94

G01 F100.00

M5
G00 Z20.0000
G00 X0.0000 Y0.0000
T1
M6    
(MSG, Change to Tool Dia = 1.0000)
M0
G00 Z20.0000

M03 S12000.0
G01 F100.00
G00 X38.4879 Y-0.5750
G01 F60.00
G01 Z-0.6000
G01 F100.00
G01 X-0.0241 Y-0.5750
G01 X-0.0560 Y-0.5741
G01 X-0.1048 Y-0.5693
G01 X-0.1121 Y-0.5682
G01 X-0.1602 Y-0.5586
G01 X-0.1674 Y-0.5568
G01 X-0.2143 Y-0.5426
G01 X-0.2212 Y-0.5401
G01 X-0.2666 Y-0.5213
G01 X-0.2732 Y-0.5182
G01 X-0.3165 Y-0.4950
G01 X-0.3228 Y-0.4913
G01 X-0.3636 Y-0.4640
G01 X-0.3695 Y-0.4596
G01 X-0.4075 Y-0.4285
G01 X-0.4129 Y-0.4235
G01 X-0.4476 Y-0.3888
G01 X-0.4526 Y-0.3834
G01 X-0.4837 Y-0.3455
G01 X-0.4881 Y-0.3395
G01 X-0.5153 Y-0.2987
G01 X-0.5191 Y-0.2924
G01 X-0.5422 Y-0.2491
G01 X-0.5454 Y-0.2425
G01 X-0.5642 Y-0.1972
G01 X-0.5667 Y-0.1902
G01 X-0.5809 Y-0.1433
G01 X-0.5827 Y-0.1361
G01 X-0.5923 Y-0.0880
G01 X-0.5933 Y-0.0807
G01 X-0.5982 Y-0.0319
G01 X-0.5991 Y0.0000
G01 X-0.5991 Y39.0706
G00 X-0.5991 Y39.0706
G01 F60.00
G01 Z-1.2000
G01 F100.00
G01 X-0.5991 Y0.0000
G01 X-0.5982 Y-0.0319
G01 X-0.5933 Y-0.0807
G01 X-0.5923 Y-0.0880
G01 X-0.5827 Y-0.1361
G01 X-0.5809 Y-0.1433
G01 X-0.5667 Y-0.1902
G01 X-0.5642 Y-0.1972
G01 X-0.5454 Y-0.2425
G01 X-0.5422 Y-0.2491
G01 X-0.5191 Y-0.2924
G01 X-0.5153 Y-0.2987
G01 X-0.4881 Y-0.3395
G01 X-0.4837 Y-0.3455
G01 X-0.4526 Y-0.3834
G01 X-0.4476 Y-0.3888
G01 X-0.4129 Y-0.4235
G01 X-0.4075 Y-0.4285
G01 X-0.3695 Y-0.4596
G01 X-0.3636 Y-0.4640
G01 X-0.3228 Y-0.4913
G01 X-0.3165 Y-0.4950
G01 X-0.2732 Y-0.5182
G01 X-0.2666 Y-0.5213
G01 X-0.2212 Y-0.5401
G01 X-0.2143 Y-0.5426
G01 X-0.1674 Y-0.5568
G01 X-0.1602 Y-0.5586
G01 X-0.1121 Y-0.5682
G01 X-0.1048 Y-0.5693
G01 X-0.0560 Y-0.5741
G01 X-0.0241 Y-0.5750
G01 X38.4879 Y-0.5750
G00 X38.4879 Y-0.5750
G01 F60.00
G01 Z-1.8000
G01 F100.00
G01 X-0.0241 Y-0.5750
G01 X-0.0560 Y-0.5741
G01 X-0.1048 Y-0.5693
G01 X-0.1121 Y-0.5682
G01 X-0.1602 Y-0.5586
G01 X-0.1674 Y-0.5568
G01 X-0.2143 Y-0.5426
G01 X-0.2212 Y-0.5401
G01 X-0.2666 Y-0.5213
G01 X-0.2732 Y-0.5182
G01 X-0.3165 Y-0.4950
G01 X-0.3228 Y-0.4913
G01 X-0.3636 Y-0.4640
G01 X-0.3695 Y-0.4596
G01 X-0.4075 Y-0.4285
G01 X-0.4129 Y-0.4235
G01 X-0.4476 Y-0.3888
G01 X-0.4526 Y-0.3834
G01 X-0.4837 Y-0.3455
G01 X-0.4881 Y-0.3395
G01 X-0.5153 Y-0.2987
G01 X-0.5191 Y-0.2924
G01 X-0.5422 Y-0.2491
G01 X-0.5454 Y-0.2425
G01 X-0.5642 Y-0.1972
G01 X-0.5667 Y-0.1902
G01 X-0.5809 Y-0.1433
G01 X-0.5827 Y-0.1361
G01 X-0.5923 Y-0.0880
G01 X-0.5933 Y-0.0807
G01 X-0.5982 Y-0.0319
G01 X-0.5991 Y0.0000
G01 X-0.5991 Y39.0706
G00 Z2.0000
G00 X40.4879 Y-0.5750
G01 F60.00
G01 Z-0.6000
G01 F100.00
G01 X75.9658 Y-0.5750
G01 X75.9820 Y-0.5794
G01 X76.0301 Y-0.5890
G01 X76.0398 Y-0.5905
G01 X76.0886 Y-0.5953
G01 X76.0984 Y-0.5958
G01 X76.1474 Y-0.5958
G01 X76.1817 Y-0.5936
G01 X76.4701 Y-0.5654
G01 X76.5037 Y-0.5610
G01 X76.5275 Y-0.5570
G01 X76.8118 Y-0.5011
G01 X76.8448 Y-0.4935
G01 X76.8681 Y-0.4871
G01 X77.1458 Y-0.4041
G01 X77.1778 Y-0.3934
G01 X77.2004 Y-0.3848
G01 X77.4687 Y-0.2753
G01 X77.4997 Y-0.2616
G01 X77.5213 Y-0.2508
G01 X77.7778 Y-0.1160
G01 X77.7989 Y-0.1042
G01 X77.8278 Y-0.0866
G01 X78.0701 Y0.0724
G01 X78.0977 Y0.0918
G01 X78.1169 Y0.1065
G01 X78.3428 Y0.2881
G01 X78.3685 Y0.3101
G01 X78.3861 Y0.3266
G01 X78.5934 Y0.5292
G01 X78.6168 Y0.5535
G01 X78.6328 Y0.5716
G01 X78.8196 Y0.7933
G01 X78.8406 Y0.8198
G01 X78.8548 Y0.8393
G01 X79.0192 Y1.0779
G01 X79.0376 Y1.1064
G01 X79.0498 Y1.1272
G01 X79.1905 Y1.3805
G01 X79.2060 Y1.4106
G01 X79.2162 Y1.4325
G01 X79.3318 Y1.6983
G01 X79.3443 Y1.7297
G01 X79.3523 Y1.7525
G01 X79.4417 Y2.0281
G01 X79.4511 Y2.0606
G01 X79.4569 Y2.0841
G01 X79.5193 Y2.3671
G01 X79.5239 Y2.3908
G01 X79.5290 Y2.4242
G01 X79.5638 Y2.7119
G01 X79.5669 Y2.7456
G01 X79.5680 Y2.7697
G01 X79.5749 Y3.0595
G01 X79.5746 Y3.0933
G01 X79.5735 Y3.1174
G01 X79.5524 Y3.4065
G01 X79.5489 Y3.4401
G01 X79.5454 Y3.4640
G01 X79.4965 Y3.7496
G01 X79.4897 Y3.7828
G01 X79.4839 Y3.8062
G01 X79.4077 Y4.0858
G01 X79.4008 Y4.1090
G01 X79.3898 Y4.1410
G01 X79.2869 Y4.4119
G01 X79.2739 Y4.4431
G01 X79.2638 Y4.4650
G01 X79.1352 Y4.7248
G01 X79.1193 Y4.7546
G01 X79.1071 Y4.7754
G01 X78.9541 Y5.0216
G01 X78.9353 Y5.0497
G01 X78.9211 Y5.0693
G01 X78.7451 Y5.2995
G01 X78.7300 Y5.3183
G01 X78.7077 Y5.3438
G01 X78.5103 Y5.5560
G01 X78.4865 Y5.5800
G01 X78.4688 Y5.5964
G01 X78.2519 Y5.7886
G01 X78.2259 Y5.8102
G01 X78.2067 Y5.8249
G01 X77.9722 Y5.9952
G01 X77.9442 Y6.0142
G01 X77.9237 Y6.0269
G01 X77.6739 Y6.1738
G01 X77.6442 Y6.1900
G01 X77.6226 Y6.2007
G01 X77.3597 Y6.3228
G01 X77.3286 Y6.3361
G01 X77.3060 Y6.3447
G01 X77.0326 Y6.4409
G01 X77.0097 Y6.4483
G01 X76.9771 Y6.4574
G01 X76.6957 Y6.5268
G01 X76.6626 Y6.5338
G01 X76.6388 Y6.5379
G01 X76.3521 Y6.5798
G01 X76.3185 Y6.5836
G01 X76.2944 Y6.5854
G01 X76.0049 Y6.5993
G01 X75.9706 Y6.5999
G01 X75.9215 Y6.5975
G01 X75.9074 Y6.5959
G01 X74.7121 Y7.1403
G01 X73.4447 Y7.8682
G01 X72.2510 Y8.7116
G01 X71.1417 Y9.6631
G01 X70.1264 Y10.7144
G01 X69.2140 Y11.8562
G01 X68.4127 Y13.0784
G01 X67.7294 Y14.3704
G01 X67.1702 Y15.7208
G01 X66.7400 Y17.1175
G01 X66.5510 Y18.0272
G01 X66.5510 Y39.0706
G00 X66.5510 Y39.0706
G01 F60.00
G01 Z-1.2000
G01 F100.00
G01 X66.5510 Y18.0272
G01 X66.7400 Y17.1175
G01 X67.1702 Y15.7208
G01 X67.7294 Y14.3704
G01 X68.4127 Y13.0784
G01 X69.2140 Y11.8562
G01 X70.1264 Y10.7144
G01 X71.1417 Y9.6631
G01 X72.2510 Y8.7116
G01 X73.4447 Y7.8682
G01 X74.7121 Y7.1403
G01 X75.9074 Y6.5959
G01 X75.9215 Y6.5975
G01 X75.9706 Y6.5999
G01 X76.0049 Y6.5993
G01 X76.2944 Y6.5854
G01 X76.3185 Y6.5836
G01 X76.3521 Y6.5798
G01 X76.6388 Y6.5379
G01 X76.6626 Y6.5338
G01 X76.6957 Y6.5268
G01 X76.9771 Y6.4574
G01 X77.0097 Y6.4483
G01 X77.0326 Y6.4409
G01 X77.3060 Y6.3447
G01 X77.3286 Y6.3361
G01 X77.3597 Y6.3228
G01 X77.6226 Y6.2007
G01 X77.6442 Y6.1900
G01 X77.6739 Y6.1738
G01 X77.9237 Y6.0269
G01 X77.9442 Y6.0142
G01 X77.9722 Y5.9952
G01 X78.2067 Y5.8249
G01 X78.2259 Y5.8102
G01 X78.2519 Y5.7886
G01 X78.4688 Y5.5964
G01 X78.4865 Y5.5800
G01 X78.5103 Y5.5560
G01 X78.7077 Y5.3438
G01 X78.7300 Y5.3183
G01 X78.7451 Y5.2995
G01 X78.9211 Y5.0693
G01 X78.9353 Y5.0497
G01 X78.9541 Y5.0216
G01 X79.1071 Y4.7754
G01 X79.1193 Y4.7546
G01 X79.1352 Y4.7248
G01 X79.2638 Y4.4650
G01 X79.2739 Y4.4431
G01 X79.2869 Y4.4119
G01 X79.3898 Y4.1410
G01 X79.4008 Y4.1090
G01 X79.4077 Y4.0858
G01 X79.4839 Y3.8062
G01 X79.4897 Y3.7828
G01 X79.4965 Y3.7496
G01 X79.5454 Y3.4640
G01 X79.5489 Y3.4401
G01 X79.5524 Y3.4065
G01 X79.5735 Y3.1174
G01 X79.5746 Y3.0933
G01 X79.5749 Y3.0595
G01 X79.5680 Y2.7697
G01 X79.5669 Y2.7456
G01 X79.5638 Y2.7119
G01 X79.5290 Y2.4242
G01 X79.5239 Y2.3908
G01 X79.5193 Y2.3671
G01 X79.4569 Y2.0841
G01 X79.4511 Y2.0606
G01 X79.4417 Y2.0281
G01 X79.3523 Y1.7525
G01 X79.3443 Y1.7297
G01 X79.3318 Y1.6983
G01 X79.2162 Y1.4325
G01 X79.2060 Y1.4106
G01 X79.1905 Y1.3805
G01 X79.0498 Y1.1272
G01 X79.0376 Y1.1064
G01 X79.0192 Y1.0779
G01 X78.8548 Y0.8393
G01 X78.8406 Y0.8198
G01 X78.8196 Y0.7933
G01 X78.6328 Y0.5716
G01 X78.6168 Y0.5535
G01 X78.5934 Y0.5292
G01 X78.3861 Y0.3266
G01 X78.3685 Y0.3101
G01 X78.3428 Y0.2881
G01 X78.1169 Y0.1065
G01 X78.0977 Y0.0918
G01 X78.0701 Y0.0724
G01 X77.8278 Y-0.0866
G01 X77.7989 Y-0.1042
G01 X77.7778 Y-0.1160
G01 X77.5213 Y-0.2508
G01 X77.4997 Y-0.2616
G01 X77.4687 Y-0.2753
G01 X77.2004 Y-0.3848
G01 X77.1778 Y-0.3934
G01 X77.1458 Y-0.4041
G01 X76.8681 Y-0.4871
G01 X76.8448 Y-0.4935
G01 X76.8118 Y-0.5011
G01 X76.5275 Y-0.5570
G01 X76.5037 Y-0.5610
G01 X76.4701 Y-0.5654
G01 X76.1817 Y-0.5936
G01 X76.1474 Y-0.5958
G01 X76.0984 Y-0.5958
G01 X76.0886 Y-0.5953
G01 X76.0398 Y-0.5905
G01 X76.0301 Y-0.5890
G01 X75.9820 Y-0.5794
G01 X75.9658 Y-0.5750
G01 X40.4879 Y-0.5750
G00 X40.4879 Y-0.5750
G01 F60.00
G01 Z-1.8000
G01 F100.00
G01 X75.9658 Y-0.5750
G01 X75.9820 Y-0.5794
G01 X76.0301 Y-0.5890
G01 X76.0398 Y-0.5905
G01 X76.0886 Y-0.5953
G01 X76.0984 Y-0.5958
G01 X76.1474 Y-0.5958
G01 X76.1817 Y-0.5936
G01 X76.4701 Y-0.5654
G01 X76.5037 Y-0.5610
G01 X76.5275 Y-0.5570
G01 X76.8118 Y-0.5011
G01 X76.8448 Y-0.4935
G01 X76.8681 Y-0.4871
G01 X77.1458 Y-0.4041
G01 X77.1778 Y-0.3934
G01 X77.2004 Y-0.3848
G01 X77.4687 Y-0.2753
G01 X77.4997 Y-0.2616
G01 X77.5213 Y-0.2508
G01 X77.7778 Y-0.1160
G01 X77.7989 Y-0.1042
G01 X77.8278 Y-0.0866
G01 X78.0701 Y0.0724
G01 X78.0977 Y0.0918
G01 X78.1169 Y0.1065
G01 X78.3428 Y0.2881
G01 X78.3685 Y0.3101
G01 X78.3861 Y0.3266
G01 X78.5934 Y0.5292
G01 X78.6168 Y0.5535
G01 X78.6328 Y0.5716
G01 X78.8196 Y0.7933
G01 X78.8406 Y0.8198
G01 X78.8548 Y0.8393
G01 X79.0192 Y1.0779
G01 X79.0376 Y1.1064
G01 X79.0498 Y1.1272
G01 X79.1905 Y1.3805
G01 X79.2060 Y1.4106
G01 X79.2162 Y1.4325
G01 X79.3318 Y1.6983
G01 X79.3443 Y1.7297
G01 X79.3523 Y1.7525
G01 X79.4417 Y2.0281
G01 X79.4511 Y2.0606
G01 X79.4569 Y2.0841
G01 X79.5193 Y2.3671
G01 X79.5239 Y2.3908
G01 X79.5290 Y2.4242
G01 X79.5638 Y2.7119
G01 X79.5669 Y2.7456
G01 X79.5680 Y2.7697
G01 X79.5749 Y3.0595
G01 X79.5746 Y3.0933
G01 X79.5735 Y3.1174
G01 X79.5524 Y3.4065
G01 X79.5489 Y3.4401
G01 X79.5454 Y3.4640
G01 X79.4965 Y3.7496
G01 X79.4897 Y3.7828
G01 X79.4839 Y3.8062
G01 X79.4077 Y4.0858
G01 X79.4008 Y4.1090
G01 X79.3898 Y4.1410
G01 X79.2869 Y4.4119
G01 X79.2739 Y4.4431
G01 X79.2638 Y4.4650
G01 X79.1352 Y4.7248
G01 X79.1193 Y4.7546
G01 X79.1071 Y4.7754
G01 X78.9541 Y5.0216
G01 X78.9353 Y5.0497
G01 X78.9211 Y5.0693
G01 X78.7451 Y5.2995
G01 X78.7300 Y5.3183
G01 X78.7077 Y5.3438
G01 X78.5103 Y5.5560
G01 X78.4865 Y5.5800
G01 X78.4688 Y5.5964
G01 X78.2519 Y5.7886
G01 X78.2259 Y5.8102
G01 X78.2067 Y5.8249
G01 X77.9722 Y5.9952
G01 X77.9442 Y6.0142
G01 X77.9237 Y6.0269
G01 X77.6739 Y6.1738
G01 X77.6442 Y6.1900
G01 X77.6226 Y6.2007
G01 X77.3597 Y6.3228
G01 X77.3286 Y6.3361
G01 X77.3060 Y6.3447
G01 X77.0326 Y6.4409
G01 X77.0097 Y6.4483
G01 X76.9771 Y6.4574
G01 X76.6957 Y6.5268
G01 X76.6626 Y6.5338
G01 X76.6388 Y6.5379
G01 X76.3521 Y6.5798
G01 X76.3185 Y6.5836
G01 X76.2944 Y6.5854
G01 X76.0049 Y6.5993
G01 X75.9706 Y6.5999
G01 X75.9215 Y6.5975
G01 X75.9074 Y6.5959
G01 X74.7121 Y7.1403
G01 X73.4447 Y7.8682
G01 X72.2510 Y8.7116
G01 X71.1417 Y9.6631
G01 X70.1264 Y10.7144
G01 X69.2140 Y11.8562
G01 X68.4127 Y13.0784
G01 X67.7294 Y14.3704
G01 X67.1702 Y15.7208
G01 X66.7400 Y17.1175
G01 X66.5510 Y18.0272
G01 X66.5510 Y39.0706
G00 Z2.0000
G00 X66.5510 Y41.0706
G01 F60.00
G01 Z-0.6000
G01 F100.00
G01 X66.5510 Y78.0000
G01 X66.5503 Y78.0259
G01 X66.5504 Y78.0763
G01 X66.5500 Y78.0836
G01 X66.5452 Y78.1325
G01 X66.5441 Y78.1397
G01 X66.5345 Y78.1879
G01 X66.5327 Y78.1950
G01 X66.5185 Y78.2420
G01 X66.5160 Y78.2489
G01 X66.4972 Y78.2942
G01 X66.4941 Y78.3009
G01 X66.4710 Y78.3442
G01 X66.4672 Y78.3505
G01 X66.4399 Y78.3913
G01 X66.4355 Y78.3972
G01 X66.4044 Y78.4351
G01 X66.3995 Y78.4406
G01 X66.3648 Y78.4753
G01 X66.3593 Y78.4802
G01 X66.3214 Y78.5113
G01 X66.3155 Y78.5157
G01 X66.2747 Y78.5430
G01 X66.2683 Y78.5468
G01 X66.2251 Y78.5699
G01 X66.2184 Y78.5731
G01 X66.1731 Y78.5918
G01 X66.1661 Y78.5943
G01 X66.1192 Y78.6086
G01 X66.1121 Y78.6104
G01 X66.0639 Y78.6199
G01 X66.0566 Y78.6210
G01 X66.0078 Y78.6258
G01 X65.9759 Y78.6268
G01 X55.3365 Y78.6268
G01 X55.2693 Y78.7654
G01 X55.2548 Y78.7933
G01 X55.2427 Y78.8142
G01 X55.0835 Y79.0751
G01 X55.0664 Y79.1014
G01 X55.0523 Y79.1211
G01 X54.8687 Y79.3654
G01 X54.8491 Y79.3899
G01 X54.8332 Y79.4082
G01 X54.6269 Y79.6336
G01 X54.6101 Y79.6510
G01 X54.5874 Y79.6727
G01 X54.3603 Y79.8772
G01 X54.3363 Y79.8975
G01 X54.3172 Y79.9123
G01 X54.0714 Y80.0939
G01 X54.0456 Y80.1118
G01 X54.0251 Y80.1247
G01 X53.7629 Y80.2817
G01 X53.7419 Y80.2936
G01 X53.7139 Y80.3080
G01 X53.4378 Y80.4389
G01 X53.4090 Y80.4515
G01 X53.3865 Y80.4603
G01 X53.0990 Y80.5640
G01 X53.0692 Y80.5737
G01 X53.0459 Y80.5803
G01 X52.7498 Y80.6557
G01 X52.7262 Y80.6611
G01 X52.6953 Y80.6668
G01 X52.3933 Y80.7134
G01 X52.3621 Y80.7172
G01 X52.3380 Y80.7192
G01 X52.0329 Y80.7363
G01 X52.0014 Y80.7371
G01 X51.9773 Y80.7367
G01 X51.6719 Y80.7244
G01 X51.6478 Y80.7228
G01 X51.6166 Y80.7194
G01 X51.3138 Y80.6776
G01 X51.2828 Y80.6724
G01 X51.2592 Y80.6674
G01 X50.9619 Y80.5965
G01 X50.9316 Y80.5883
G01 X50.9085 Y80.5811
G01 X50.6195 Y80.4819
G01 X50.5901 Y80.4708
G01 X50.5679 Y80.4613
G01 X50.2897 Y80.3347
G01 X50.2615 Y80.3208
G01 X50.2403 Y80.3092
G01 X49.9757 Y80.1563
G01 X49.9551 Y80.1437
G01 X49.9290 Y80.1262
G01 X49.6804 Y79.9485
G01 X49.6554 Y79.9295
G01 X49.6368 Y79.9140
G01 X49.4065 Y79.7131
G01 X49.3834 Y79.6918
G01 X49.3664 Y79.6746
G01 X49.1566 Y79.4524
G01 X49.1404 Y79.4345
G01 X49.1204 Y79.4102
G01 X48.9330 Y79.1688
G01 X48.9145 Y79.1435
G01 X48.9011 Y79.1233
G01 X48.7378 Y78.8650
G01 X48.7254 Y78.8442
G01 X48.7105 Y78.8166
G01 X48.5887 Y78.5750
G01 X40.4879 Y78.5750
G00 X40.4879 Y78.5750
G01 F60.00
G01 Z-1.2000
G01 F100.00
G01 X48.5887 Y78.5750
G01 X48.7105 Y78.8166
G01 X48.7254 Y78.8442
G01 X48.7378 Y78.8650
G01 X48.9011 Y79.1233
G01 X48.9145 Y79.1435
G01 X48.9330 Y79.1688
G01 X49.1204 Y79.4102
G01 X49.1404 Y79.4345
G01 X49.1566 Y79.4524
G01 X49.3664 Y79.6746
G01 X49.3834 Y79.6918
G01 X49.4065 Y79.7131
G01 X49.6368 Y79.9140
G01 X49.6554 Y79.9295
G01 X49.6804 Y79.9485
G01 X49.9290 Y80.1262
G01 X49.9551 Y80.1437
G01 X49.9757 Y80.1563
G01 X50.2403 Y80.3092
G01 X50.2615 Y80.3208
G01 X50.2897 Y80.3347
G01 X50.5679 Y80.4613
G01 X50.5901 Y80.4708
G01 X50.6195 Y80.4819
G01 X50.9085 Y80.5811
G01 X50.9316 Y80.5883
G01 X50.9619 Y80.5965
G01 X51.2592 Y80.6674
G01 X51.2828 Y80.6724
G01 X51.3138 Y80.6776
G01 X51.6166 Y80.7194
G01 X51.6478 Y80.7228
G01 X51.6719 Y80.7244
G01 X51.9773 Y80.7367
G01 X52.0014 Y80.7371
G01 X52.0329 Y80.7363
G01 X52.3380 Y80.7192
G01 X52.3621 Y80.7172
G01 X52.3933 Y80.7134
G01 X52.6953 Y80.6668
G01 X52.7262 Y80.6611
G01 X52.7498 Y80.6557
G01 X53.0459 Y80.5803
G01 X53.0692 Y80.5737
G01 X53.0990 Y80.5640
G01 X53.3865 Y80.4603
G01 X53.4090 Y80.4515
G01 X53.4378 Y80.4389
G01 X53.7139 Y80.3080
G01 X53.7419 Y80.2936
G01 X53.7629 Y80.2817
G01 X54.0251 Y80.1247
G01 X54.0456 Y80.1118
G01 X54.0714 Y80.0939
G01 X54.3172 Y79.9123
G01 X54.3363 Y79.8975
G01 X54.3603 Y79.8772
G01 X54.5874 Y79.6727
G01 X54.6101 Y79.6510
G01 X54.6269 Y79.6336
G01 X54.8332 Y79.4082
G01 X54.8491 Y79.3899
G01 X54.8687 Y79.3654
G01 X55.0523 Y79.1211
G01 X55.0664 Y79.1014
G01 X55.0835 Y79.0751
G01 X55.2427 Y78.8142
G01 X55.2548 Y78.7933
G01 X55.2693 Y78.7654
G01 X55.3365 Y78.6268
G01 X65.9759 Y78.6268
G01 X66.0078 Y78.6258
G01 X66.0566 Y78.6210
G01 X66.0639 Y78.6199
G01 X66.1121 Y78.6104
G01 X66.1192 Y78.6086
G01 X66.1661 Y78.5943
G01 X66.1731 Y78.5918
G01 X66.2184 Y78.5731
G01 X66.2251 Y78.5699
G01 X66.2683 Y78.5468
G01 X66.2747 Y78.5430
G01 X66.3155 Y78.5157
G01 X66.3214 Y78.5113
G01 X66.3593 Y78.4802
G01 X66.3648 Y78.4753
G01 X66.3995 Y78.4406
G01 X66.4044 Y78.4351
G01 X66.4355 Y78.3972
G01 X66.4399 Y78.3913
G01 X66.4672 Y78.3505
G01 X66.4710 Y78.3442
G01 X66.4941 Y78.3009
G01 X66.4972 Y78.2942
G01 X66.5160 Y78.2489
G01 X66.5185 Y78.2420
G01 X66.5327 Y78.1950
G01 X66.5345 Y78.1879
G01 X66.5441 Y78.1397
G01 X66.5452 Y78.1325
G01 X66.5500 Y78.0836
G01 X66.5504 Y78.0763
G01 X66.5503 Y78.0259
G01 X66.5510 Y78.0000
G01 X66.5510 Y41.0706
G00 X66.5510 Y41.0706
G01 F60.00
G01 Z-1.8000
G01 F100.00
G01 X66.5510 Y78.0000
G01 X66.5503 Y78.0259
G01 X66.5504 Y78.0763
G01 X66.5500 Y78.0836
G01 X66.5452 Y78.1325
G01 X66.5441 Y78.1397
G01 X66.5345 Y78.1879
G01 X66.5327 Y78.1950
G01 X66.5185 Y78.2420
G01 X66.5160 Y78.2489
G01 X66.4972 Y78.2942
G01 X66.4941 Y78.3009
G01 X66.4710 Y78.3442
G01 X66.4672 Y78.3505
G01 X66.4399 Y78.3913
G01 X66.4355 Y78.3972
G01 X66.4044 Y78.4351
G01 X66.3995 Y78.4406
G01 X66.3648 Y78.4753
G01 X66.3593 Y78.4802
G01 X66.3214 Y78.5113
G01 X66.3155 Y78.5157
G01 X66.2747 Y78.5430
G01 X66.2683 Y78.5468
G01 X66.2251 Y78.5699
G01 X66.2184 Y78.5731
G01 X66.1731 Y78.5918
G01 X66.1661 Y78.5943
G01 X66.1192 Y78.6086
G01 X66.1121 Y78.6104
G01 X66.0639 Y78.6199
G01 X66.0566 Y78.6210
G01 X66.0078 Y78.6258
G01 X65.9759 Y78.6268
G01 X55.3365 Y78.6268
G01 X55.2693 Y78.7654
G01 X55.2548 Y78.7933
G01 X55.2427 Y78.8142
G01 X55.0835 Y79.0751
G01 X55.0664 Y79.1014
G01 X55.0523 Y79.1211
G01 X54.8687 Y79.3654
G01 X54.8491 Y79.3899
G01 X54.8332 Y79.4082
G01 X54.6269 Y79.6336
G01 X54.6101 Y79.6510
G01 X54.5874 Y79.6727
G01 X54.3603 Y79.8772
G01 X54.3363 Y79.8975
G01 X54.3172 Y79.9123
G01 X54.0714 Y80.0939
G01 X54.0456 Y80.1118
G01 X54.0251 Y80.1247
G01 X53.7629 Y80.2817
G01 X53.7419 Y80.2936
G01 X53.7139 Y80.3080
G01 X53.4378 Y80.4389
G01 X53.4090 Y80.4515
G01 X53.3865 Y80.4603
G01 X53.0990 Y80.5640
G01 X53.0692 Y80.5737
G01 X53.0459 Y80.5803
G01 X52.7498 Y80.6557
G01 X52.7262 Y80.6611
G01 X52.6953 Y80.6668
G01 X52.3933 Y80.7134
G01 X52.3621 Y80.7172
G01 X52.3380 Y80.7192
G01 X52.0329 Y80.7363
G01 X52.0014 Y80.7371
G01 X51.9773 Y80.7367
G01 X51.6719 Y80.7244
G01 X51.6478 Y80.7228
G01 X51.6166 Y80.7194
G01 X51.3138 Y80.6776
G01 X51.2828 Y80.6724
G01 X51.2592 Y80.6674
G01 X50.9619 Y80.5965
G01 X50.9316 Y80.5883
G01 X50.9085 Y80.5811
G01 X50.6195 Y80.4819
G01 X50.5901 Y80.4708
G01 X50.5679 Y80.4613
G01 X50.2897 Y80.3347
G01 X50.2615 Y80.3208
G01 X50.2403 Y80.3092
G01 X49.9757 Y80.1563
G01 X49.9551 Y80.1437
G01 X49.9290 Y80.1262
G01 X49.6804 Y79.9485
G01 X49.6554 Y79.9295
G01 X49.6368 Y79.9140
G01 X49.4065 Y79.7131
G01 X49.3834 Y79.6918
G01 X49.3664 Y79.6746
G01 X49.1566 Y79.4524
G01 X49.1404 Y79.4345
G01 X49.1204 Y79.4102
G01 X48.9330 Y79.1688
G01 X48.9145 Y79.1435
G01 X48.9011 Y79.1233
G01 X48.7378 Y78.8650
G01 X48.7254 Y78.8442
G01 X48.7105 Y78.8166
G01 X48.5887 Y78.5750
G01 X40.4879 Y78.5750
G00 Z2.0000
G00 X38.4879 Y78.5750
G01 F60.00
G01 Z-0.6000
G01 F100.00
G01 X-0.0241 Y78.5750
G01 X-0.0560 Y78.5741
G01 X-0.1048 Y78.5693
G01 X-0.1121 Y78.5682
G01 X-0.1602 Y78.5586
G01 X-0.1674 Y78.5568
G01 X-0.2143 Y78.5426
G01 X-0.2212 Y78.5401
G01 X-0.2666 Y78.5213
G01 X-0.2732 Y78.5182
G01 X-0.3165 Y78.4950
G01 X-0.3228 Y78.4913
G01 X-0.3636 Y78.4640
G01 X-0.3695 Y78.4596
G01 X-0.4075 Y78.4285
G01 X-0.4129 Y78.4235
G01 X-0.4476 Y78.3888
G01 X-0.4526 Y78.3834
G01 X-0.4837 Y78.3455
G01 X-0.4881 Y78.3395
G01 X-0.5153 Y78.2987
G01 X-0.5191 Y78.2924
G01 X-0.5422 Y78.2491
G01 X-0.5454 Y78.2425
G01 X-0.5642 Y78.1972
G01 X-0.5667 Y78.1902
G01 X-0.5809 Y78.1433
G01 X-0.5827 Y78.1361
G01 X-0.5923 Y78.0880
G01 X-0.5933 Y78.0807
G01 X-0.5982 Y78.0319
G01 X-0.5991 Y78.0000
G01 X-0.5991 Y41.0706
G00 X-0.5991 Y41.0706
G01 F60.00
G01 Z-1.2000
G01 F100.00
G01 X-0.5991 Y78.0000
G01 X-0.5982 Y78.0319
G01 X-0.5933 Y78.0807
G01 X-0.5923 Y78.0880
G01 X-0.5827 Y78.1361
G01 X-0.5809 Y78.1433
G01 X-0.5667 Y78.1902
G01 X-0.5642 Y78.1972
G01 X-0.5454 Y78.2425
G01 X-0.5422 Y78.2491
G01 X-0.5191 Y78.2924
G01 X-0.5153 Y78.2987
G01 X-0.4881 Y78.3395
G01 X-0.4837 Y78.3455
G01 X-0.4526 Y78.3834
G01 X-0.4476 Y78.3888
G01 X-0.4129 Y78.4235
G01 X-0.4075 Y78.4285
G01 X-0.3695 Y78.4596
G01 X-0.3636 Y78.4640
G01 X-0.3228 Y78.4913
G01 X-0.3165 Y78.4950
G01 X-0.2732 Y78.5182
G01 X-0.2666 Y78.5213
G01 X-0.2212 Y78.5401
G01 X-0.2143 Y78.5426
G01 X-0.1674 Y78.5568
G01 X-0.1602 Y78.5586
G01 X-0.1121 Y78.5682
G01 X-0.1048 Y78.5693
G01 X-0.0560 Y78.5741
G01 X-0.0241 Y78.5750
G01 X38.4879 Y78.5750
G00 X38.4879 Y78.5750
G01 F60.00
G01 Z-1.8000
G01 F100.00
G01 X-0.0241 Y78.5750
G01 X-0.0560 Y78.5741
G01 X-0.1048 Y78.5693
G01 X-0.1121 Y78.5682
G01 X-0.1602 Y78.5586
G01 X-0.1674 Y78.5568
G01 X-0.2143 Y78.5426
G01 X-0.2212 Y78.5401
G01 X-0.2666 Y78.5213
G01 X-0.2732 Y78.5182
G01 X-0.3165 Y78.4950
G01 X-0.3228 Y78.4913
G01 X-0.3636 Y78.4640
G01 X-0.3695 Y78.4596
G01 X-0.4075 Y78.4285
G01 X-0.4129 Y78.4235
G01 X-0.4476 Y78.3888
G01 X-0.4526 Y78.3834
G01 X-0.4837 Y78.3455
G01 X-0.4881 Y78.3395
G01 X-0.5153 Y78.2987
G01 X-0.5191 Y78.2924
G01 X-0.5422 Y78.2491
G01 X-0.5454 Y78.2425
G01 X-0.5642 Y78.1972
G01 X-0.5667 Y78.1902
G01 X-0.5809 Y78.1433
G01 X-0.5827 Y78.1361
G01 X-0.5923 Y78.0880
G01 X-0.5933 Y78.0807
G01 X-0.5982 Y78.0319
G01 X-0.5991 Y78.0000
G01 X-0.5991 Y41.0706
G00 Z2.0000
M05
G00 Z2.0000
G00 Z20.00


