(G-CODE GENERATED BY FLATCAM v8.994 - www.flatcam.org - Version Date: 2020/11/7)

(Name: front_copper_cnc)
(Type: G-code from Geometry)
(Units: MM)

(Created on Monday, 15 February 2021 at 21:47)

(This preprocessor is the default preprocessor used by FlatCAM.)
(It is made to work with MACH3 compatible motion controllers.)

(TOOL DIAMETER: 0.1705 mm)
(Feedrate_XY: 100.0 mm/min)
(Feedrate_Z: 60.0 mm/min)
(Feedrate rapids 150.0 mm/min)

(Z_Cut: -0.1999 mm)
(DepthPerCut: 0.1 mm <=>2 passes)
(Z_Move: 2.0 mm)
(Z Start: None mm)
(Z End: 20.0 mm)
(X,Y End: None mm)
(Steps per circle: 64)
(Preprocessor Geometry: default)

(X range:    0.0778 ...   78.9638  mm)
(Y range:    0.0362 ...   80.1155  mm)

(Spindle Speed: 12000.0 RPM)
G21
G90
G94

G01 F100.00

M5
G00 Z20.0000
G00 X0.0000 Y0.0000
T1
M6    
(MSG, Change to Tool Dia = 0.1705)
M0
G00 Z20.0000

M03 S12000.0
G01 F100.00
G00 X0.2583 Y3.4096
G01 F60.00
G01 Z-0.1000
G01 F100.00
G01 X0.2359 Y3.3087
G01 X0.2325 Y3.2878
G01 X0.2313 Y3.2647
G01 X0.2389 Y2.6670
G01 X0.2405 Y2.6434
G01 X0.2447 Y2.6206
G01 X0.3896 Y2.0407
G01 X0.3973 Y2.0163
G01 X0.4069 Y1.9947
G01 X0.6803 Y1.4659
G01 X0.6923 Y1.4456
G01 X0.7078 Y1.4251
G01 X1.0954 Y0.9734
G01 X1.1132 Y0.9550
G01 X1.1315 Y0.9401
G01 X1.6127 Y0.5896
G01 X1.6343 Y0.5758
G01 X1.6555 Y0.5655
G01 X2.2044 Y0.3351
G01 X2.2286 Y0.3267
G01 X2.2517 Y0.3215
G01 X2.8814 Y0.2165
G01 X2.9081 Y0.2103
G01 X2.9181 Y0.2061
G01 X2.9342 Y0.2001
G01 X2.9549 Y0.1945
G01 X2.9762 Y0.1910
G01 X2.9955 Y0.1898
G01 X78.5980 Y0.1897
G01 X78.6188 Y0.1907
G01 X78.6394 Y0.1938
G01 X78.6596 Y0.1988
G01 X78.6792 Y0.2058
G01 X78.6981 Y0.2148
G01 X78.7160 Y0.2255
G01 X78.7327 Y0.2379
G01 X78.7466 Y0.2504
G01 X78.7621 Y0.2673
G01 X78.7745 Y0.2840
G01 X78.7852 Y0.3019
G01 X78.7942 Y0.3208
G01 X78.8012 Y0.3404
G01 X78.8062 Y0.3606
G01 X78.8093 Y0.3812
G01 X78.8103 Y0.4020
G01 X78.8103 Y77.5980
G01 X78.8093 Y77.6188
G01 X78.8062 Y77.6394
G01 X78.8012 Y77.6596
G01 X78.7942 Y77.6792
G01 X78.7852 Y77.6981
G01 X78.7745 Y77.7160
G01 X78.7621 Y77.7327
G01 X78.7496 Y77.7466
G01 X78.7327 Y77.7621
G01 X78.7160 Y77.7745
G01 X78.6981 Y77.7852
G01 X78.6792 Y77.7942
G01 X78.6596 Y77.8012
G01 X78.6394 Y77.8062
G01 X78.6188 Y77.8093
G01 X78.5980 Y77.8103
G01 X29.9813 Y77.8103
G01 X29.9260 Y77.8213
G01 X29.8632 Y77.8632
G01 X29.8213 Y77.9260
G01 X29.8165 Y77.9474
G01 X29.8112 Y77.9640
G01 X29.7698 Y78.0775
G01 X29.7593 Y78.1010
G01 X29.4612 Y78.6603
G01 X29.4484 Y78.6813
G01 X29.4344 Y78.6993
G01 X29.0322 Y79.1643
G01 X29.0164 Y79.1806
G01 X28.9994 Y79.1950
G01 X28.5022 Y79.5607
G01 X28.4832 Y79.5732
G01 X28.4612 Y79.5843
G01 X27.8976 Y79.8299
G01 X27.8903 Y79.8329
G01 X27.8761 Y79.8379
G01 X27.8600 Y79.8422
G01 X27.8524 Y79.8439
G01 X27.2483 Y79.9584
G01 X27.2258 Y79.9615
G01 X27.2035 Y79.9621
G01 X26.5867 Y79.9399
G01 X26.5640 Y79.9379
G01 X26.5399 Y79.9330
G01 X25.9456 Y79.7753
G01 X25.9240 Y79.7683
G01 X25.9015 Y79.7581
G01 X25.3570 Y79.4727
G01 X25.3358 Y79.4601
G01 X25.3178 Y79.4462
G01 X24.8500 Y79.0473
G01 X24.8335 Y79.0316
G01 X24.8191 Y79.0146
G01 X24.4498 Y78.5201
G01 X24.4363 Y78.4995
G01 X24.4259 Y78.4792
G01 X24.1614 Y77.8835
G01 X24.1341 Y77.8383
G01 X24.1050 Y77.8081
G01 X24.0699 Y77.7850
G01 X24.0305 Y77.7704
G01 X23.9889 Y77.7648
G01 X23.9471 Y77.7685
G01 X23.9071 Y77.7815
G01 X23.8710 Y77.8029
G01 X23.8550 Y77.8168
G01 X23.8386 Y77.8285
G01 X23.8211 Y77.8386
G01 X23.8046 Y77.8461
G01 X23.7837 Y77.8535
G01 X23.7641 Y77.8582
G01 X23.7442 Y77.8611
G01 X23.7240 Y77.8621
G01 X13.4020 Y77.8621
G01 X13.3812 Y77.8610
G01 X13.3606 Y77.8580
G01 X13.3404 Y77.8529
G01 X13.3208 Y77.8459
G01 X13.3019 Y77.8370
G01 X13.2840 Y77.8263
G01 X13.2673 Y77.8139
G01 X13.2534 Y77.8013
G01 X13.2379 Y77.7844
G01 X13.2255 Y77.7677
G01 X13.2148 Y77.7498
G01 X13.2058 Y77.7310
G01 X13.1988 Y77.7114
G01 X13.1938 Y77.6912
G01 X13.1907 Y77.6706
G01 X13.1897 Y77.6497
G01 X13.1897 Y23.7299
G01 X13.1905 Y23.7112
G01 X13.1938 Y23.6885
G01 X13.1982 Y23.6703
G01 X13.2001 Y23.6643
G01 X13.2058 Y23.6486
G01 X13.2129 Y23.6336
G01 X13.2158 Y23.6280
G01 X13.2255 Y23.6119
G01 X13.2366 Y23.5968
G01 X13.2406 Y23.5920
G01 X13.2519 Y23.5798
G01 X13.2641 Y23.5685
G01 X13.2689 Y23.5645
G01 X13.2840 Y23.5534
G01 X13.3019 Y23.5427
G01 X13.3188 Y23.5346
G01 X13.3247 Y23.5322
G01 X13.3404 Y23.5267
G01 X13.3565 Y23.5226
G01 X13.3626 Y23.5213
G01 X13.3812 Y23.5186
G01 X13.4020 Y23.5176
G01 X13.4207 Y23.5184
G01 X13.4270 Y23.5191
G01 X13.4434 Y23.5217
G01 X13.4596 Y23.5256
G01 X13.4656 Y23.5274
G01 X13.4832 Y23.5337
G01 X13.5039 Y23.5437
G01 X13.5200 Y23.5534
G01 X13.5334 Y23.5632
G01 X13.5383 Y23.5671
G01 X13.5521 Y23.5798
G01 X13.5648 Y23.5936
G01 X13.5687 Y23.5985
G01 X13.5785 Y23.6119
G01 X13.5872 Y23.6262
G01 X13.5902 Y23.6317
G01 X13.5982 Y23.6486
G01 X13.6748 Y23.8337
G01 X14.2697 Y24.4286
G01 X15.0469 Y24.7506
G01 X15.8882 Y24.7506
G01 X16.6654 Y24.4286
G01 X17.2603 Y23.8337
G01 X17.5823 Y23.0565
G01 X17.5823 Y22.2152
G01 X17.2603 Y21.4380
G01 X16.6654 Y20.8431
G01 X15.8882 Y20.5212
G01 X15.0469 Y20.5212
G01 X14.2697 Y20.8431
G01 X13.6748 Y21.4380
G01 X13.5982 Y21.6231
G01 X13.5902 Y21.6401
G01 X13.5785 Y21.6598
G01 X13.5661 Y21.6765
G01 X13.5521 Y21.6920
G01 X13.5367 Y21.7060
G01 X13.5200 Y21.7184
G01 X13.5021 Y21.7291
G01 X13.4832 Y21.7380
G01 X13.4636 Y21.7450
G01 X13.4434 Y21.7501
G01 X13.4228 Y21.7531
G01 X13.4020 Y21.7542
G01 X13.3854 Y21.7534
G01 X13.3791 Y21.7529
G01 X13.3626 Y21.7505
G01 X13.3424 Y21.7456
G01 X13.3227 Y21.7388
G01 X13.3057 Y21.7310
G01 X13.3001 Y21.7281
G01 X13.2858 Y21.7195
G01 X13.2706 Y21.7085
G01 X13.2641 Y21.7032
G01 X13.2534 Y21.6934
G01 X13.2490 Y21.6889
G01 X13.2379 Y21.6765
G01 X13.2255 Y21.6598
G01 X13.2148 Y21.6419
G01 X13.2058 Y21.6231
G01 X13.1988 Y21.6035
G01 X13.1938 Y21.5833
G01 X13.1907 Y21.5627
G01 X13.1897 Y21.5439
G01 X13.1897 Y18.7226
G01 X13.1908 Y18.7031
G01 X13.1941 Y18.6818
G01 X13.1989 Y18.6629
G01 X13.2040 Y18.6481
G01 X13.2102 Y18.6337
G01 X13.2203 Y18.6147
G01 X13.2301 Y18.6001
G01 X13.2348 Y18.5938
G01 X13.2482 Y18.5781
G01 X13.2594 Y18.5630
G01 X13.2691 Y18.5468
G01 X13.2771 Y18.5298
G01 X13.2833 Y18.5120
G01 X13.2878 Y18.4937
G01 X13.2905 Y18.4751
G01 X13.2912 Y18.4562
G01 X13.2901 Y18.4374
G01 X13.2863 Y18.4136
G01 X12.9567 Y16.8498
G01 X12.9539 Y16.8384
G01 X12.9496 Y16.8235
G01 X12.4663 Y15.3001
G01 X12.4624 Y15.2890
G01 X12.4567 Y15.2747
G01 X11.8245 Y13.8069
G01 X11.8195 Y13.7962
G01 X11.8124 Y13.7825
G01 X11.0375 Y12.3847
G01 X11.0315 Y12.3746
G01 X11.0230 Y12.3617
G01 X10.1131 Y11.0478
G01 X10.1062 Y11.0383
G01 X10.0965 Y11.0263
G01 X9.0606 Y9.8093
G01 X9.0527 Y9.8005
G01 X9.0419 Y9.7895
G01 X7.8902 Y8.6814
G01 X7.8815 Y8.6735
G01 X7.8696 Y8.6636
G01 X6.6136 Y7.6753
G01 X6.6042 Y7.6683
G01 X6.5914 Y7.6597
G01 X5.2434 Y6.8011
G01 X5.2333 Y6.7950
G01 X5.2197 Y6.7877
G01 X3.7932 Y6.0672
G01 X3.7772 Y6.0597
G01 X3.2241 Y5.8264
G01 X3.2132 Y5.8222
G01 X3.1930 Y5.8161
G01 X3.1745 Y5.8125
G01 X3.1557 Y5.8108
G01 X3.1380 Y5.8108
G01 X3.1213 Y5.8101
G01 X3.1007 Y5.8074
G01 X3.0784 Y5.8021
G01 X3.0568 Y5.7945
G01 X2.9957 Y5.7850
G01 X2.8151 Y5.7782
G01 X2.8016 Y5.7772
G01 X2.7876 Y5.7752
G01 X2.1833 Y5.6585
G01 X2.1604 Y5.6527
G01 X2.1410 Y5.6455
G01 X1.5936 Y5.3993
G01 X1.5726 Y5.3884
G01 X1.5514 Y5.3741
G01 X1.0794 Y5.0114
G01 X1.0615 Y4.9960
G01 X1.0441 Y4.9771
G01 X0.6682 Y4.5156
G01 X0.6543 Y4.4965
G01 X0.6429 Y4.4764
G01 X0.3820 Y3.9385
G01 X0.3729 Y3.9167
G01 X0.3659 Y3.8921
G01 X0.2583 Y3.4096
G00 X0.2583 Y3.4096
G01 F60.00
G01 Z-0.1999
G01 F100.00
G01 X0.2359 Y3.3087
G01 X0.2325 Y3.2878
G01 X0.2313 Y3.2647
G01 X0.2389 Y2.6670
G01 X0.2405 Y2.6434
G01 X0.2447 Y2.6206
G01 X0.3896 Y2.0407
G01 X0.3973 Y2.0163
G01 X0.4069 Y1.9947
G01 X0.6803 Y1.4659
G01 X0.6923 Y1.4456
G01 X0.7078 Y1.4251
G01 X1.0954 Y0.9734
G01 X1.1132 Y0.9550
G01 X1.1315 Y0.9401
G01 X1.6127 Y0.5896
G01 X1.6343 Y0.5758
G01 X1.6555 Y0.5655
G01 X2.2044 Y0.3351
G01 X2.2286 Y0.3267
G01 X2.2517 Y0.3215
G01 X2.8814 Y0.2165
G01 X2.9081 Y0.2103
G01 X2.9181 Y0.2061
G01 X2.9342 Y0.2001
G01 X2.9549 Y0.1945
G01 X2.9762 Y0.1910
G01 X2.9955 Y0.1898
G01 X78.5980 Y0.1897
G01 X78.6188 Y0.1907
G01 X78.6394 Y0.1938
G01 X78.6596 Y0.1988
G01 X78.6792 Y0.2058
G01 X78.6981 Y0.2148
G01 X78.7160 Y0.2255
G01 X78.7327 Y0.2379
G01 X78.7466 Y0.2504
G01 X78.7621 Y0.2673
G01 X78.7745 Y0.2840
G01 X78.7852 Y0.3019
G01 X78.7942 Y0.3208
G01 X78.8012 Y0.3404
G01 X78.8062 Y0.3606
G01 X78.8093 Y0.3812
G01 X78.8103 Y0.4020
G01 X78.8103 Y77.5980
G01 X78.8093 Y77.6188
G01 X78.8062 Y77.6394
G01 X78.8012 Y77.6596
G01 X78.7942 Y77.6792
G01 X78.7852 Y77.6981
G01 X78.7745 Y77.7160
G01 X78.7621 Y77.7327
G01 X78.7496 Y77.7466
G01 X78.7327 Y77.7621
G01 X78.7160 Y77.7745
G01 X78.6981 Y77.7852
G01 X78.6792 Y77.7942
G01 X78.6596 Y77.8012
G01 X78.6394 Y77.8062
G01 X78.6188 Y77.8093
G01 X78.5980 Y77.8103
G01 X29.9813 Y77.8103
G01 X29.9260 Y77.8213
G01 X29.8632 Y77.8632
G01 X29.8213 Y77.9260
G01 X29.8165 Y77.9474
G01 X29.8112 Y77.9640
G01 X29.7698 Y78.0775
G01 X29.7593 Y78.1010
G01 X29.4612 Y78.6603
G01 X29.4484 Y78.6813
G01 X29.4344 Y78.6993
G01 X29.0322 Y79.1643
G01 X29.0164 Y79.1806
G01 X28.9994 Y79.1950
G01 X28.5022 Y79.5607
G01 X28.4832 Y79.5732
G01 X28.4612 Y79.5843
G01 X27.8976 Y79.8299
G01 X27.8903 Y79.8329
G01 X27.8761 Y79.8379
G01 X27.8600 Y79.8422
G01 X27.8524 Y79.8439
G01 X27.2483 Y79.9584
G01 X27.2258 Y79.9615
G01 X27.2035 Y79.9621
G01 X26.5867 Y79.9399
G01 X26.5640 Y79.9379
G01 X26.5399 Y79.9330
G01 X25.9456 Y79.7753
G01 X25.9240 Y79.7683
G01 X25.9015 Y79.7581
G01 X25.3570 Y79.4727
G01 X25.3358 Y79.4601
G01 X25.3178 Y79.4462
G01 X24.8500 Y79.0473
G01 X24.8335 Y79.0316
G01 X24.8191 Y79.0146
G01 X24.4498 Y78.5201
G01 X24.4363 Y78.4995
G01 X24.4259 Y78.4792
G01 X24.1614 Y77.8835
G01 X24.1341 Y77.8383
G01 X24.1050 Y77.8081
G01 X24.0699 Y77.7850
G01 X24.0305 Y77.7704
G01 X23.9889 Y77.7648
G01 X23.9471 Y77.7685
G01 X23.9071 Y77.7815
G01 X23.8710 Y77.8029
G01 X23.8550 Y77.8168
G01 X23.8386 Y77.8285
G01 X23.8211 Y77.8386
G01 X23.8046 Y77.8461
G01 X23.7837 Y77.8535
G01 X23.7641 Y77.8582
G01 X23.7442 Y77.8611
G01 X23.7240 Y77.8621
G01 X13.4020 Y77.8621
G01 X13.3812 Y77.8610
G01 X13.3606 Y77.8580
G01 X13.3404 Y77.8529
G01 X13.3208 Y77.8459
G01 X13.3019 Y77.8370
G01 X13.2840 Y77.8263
G01 X13.2673 Y77.8139
G01 X13.2534 Y77.8013
G01 X13.2379 Y77.7844
G01 X13.2255 Y77.7677
G01 X13.2148 Y77.7498
G01 X13.2058 Y77.7310
G01 X13.1988 Y77.7114
G01 X13.1938 Y77.6912
G01 X13.1907 Y77.6706
G01 X13.1897 Y77.6497
G01 X13.1897 Y23.7299
G01 X13.1905 Y23.7112
G01 X13.1938 Y23.6885
G01 X13.1982 Y23.6703
G01 X13.2001 Y23.6643
G01 X13.2058 Y23.6486
G01 X13.2129 Y23.6336
G01 X13.2158 Y23.6280
G01 X13.2255 Y23.6119
G01 X13.2366 Y23.5968
G01 X13.2406 Y23.5920
G01 X13.2519 Y23.5798
G01 X13.2641 Y23.5685
G01 X13.2689 Y23.5645
G01 X13.2840 Y23.5534
G01 X13.3019 Y23.5427
G01 X13.3188 Y23.5346
G01 X13.3247 Y23.5322
G01 X13.3404 Y23.5267
G01 X13.3565 Y23.5226
G01 X13.3626 Y23.5213
G01 X13.3812 Y23.5186
G01 X13.4020 Y23.5176
G01 X13.4207 Y23.5184
G01 X13.4270 Y23.5191
G01 X13.4434 Y23.5217
G01 X13.4596 Y23.5256
G01 X13.4656 Y23.5274
G01 X13.4832 Y23.5337
G01 X13.5039 Y23.5437
G01 X13.5200 Y23.5534
G01 X13.5334 Y23.5632
G01 X13.5383 Y23.5671
G01 X13.5521 Y23.5798
G01 X13.5648 Y23.5936
G01 X13.5687 Y23.5985
G01 X13.5785 Y23.6119
G01 X13.5872 Y23.6262
G01 X13.5902 Y23.6317
G01 X13.5982 Y23.6486
G01 X13.6748 Y23.8337
G01 X14.2697 Y24.4286
G01 X15.0469 Y24.7506
G01 X15.8882 Y24.7506
G01 X16.6654 Y24.4286
G01 X17.2603 Y23.8337
G01 X17.5823 Y23.0565
G01 X17.5823 Y22.2152
G01 X17.2603 Y21.4380
G01 X16.6654 Y20.8431
G01 X15.8882 Y20.5212
G01 X15.0469 Y20.5212
G01 X14.2697 Y20.8431
G01 X13.6748 Y21.4380
G01 X13.5982 Y21.6231
G01 X13.5902 Y21.6401
G01 X13.5785 Y21.6598
G01 X13.5661 Y21.6765
G01 X13.5521 Y21.6920
G01 X13.5367 Y21.7060
G01 X13.5200 Y21.7184
G01 X13.5021 Y21.7291
G01 X13.4832 Y21.7380
G01 X13.4636 Y21.7450
G01 X13.4434 Y21.7501
G01 X13.4228 Y21.7531
G01 X13.4020 Y21.7542
G01 X13.3854 Y21.7534
G01 X13.3791 Y21.7529
G01 X13.3626 Y21.7505
G01 X13.3424 Y21.7456
G01 X13.3227 Y21.7388
G01 X13.3057 Y21.7310
G01 X13.3001 Y21.7281
G01 X13.2858 Y21.7195
G01 X13.2706 Y21.7085
G01 X13.2641 Y21.7032
G01 X13.2534 Y21.6934
G01 X13.2490 Y21.6889
G01 X13.2379 Y21.6765
G01 X13.2255 Y21.6598
G01 X13.2148 Y21.6419
G01 X13.2058 Y21.6231
G01 X13.1988 Y21.6035
G01 X13.1938 Y21.5833
G01 X13.1907 Y21.5627
G01 X13.1897 Y21.5439
G01 X13.1897 Y18.7226
G01 X13.1908 Y18.7031
G01 X13.1941 Y18.6818
G01 X13.1989 Y18.6629
G01 X13.2040 Y18.6481
G01 X13.2102 Y18.6337
G01 X13.2203 Y18.6147
G01 X13.2301 Y18.6001
G01 X13.2348 Y18.5938
G01 X13.2482 Y18.5781
G01 X13.2594 Y18.5630
G01 X13.2691 Y18.5468
G01 X13.2771 Y18.5298
G01 X13.2833 Y18.5120
G01 X13.2878 Y18.4937
G01 X13.2905 Y18.4751
G01 X13.2912 Y18.4562
G01 X13.2901 Y18.4374
G01 X13.2863 Y18.4136
G01 X12.9567 Y16.8498
G01 X12.9539 Y16.8384
G01 X12.9496 Y16.8235
G01 X12.4663 Y15.3001
G01 X12.4624 Y15.2890
G01 X12.4567 Y15.2747
G01 X11.8245 Y13.8069
G01 X11.8195 Y13.7962
G01 X11.8124 Y13.7825
G01 X11.0375 Y12.3847
G01 X11.0315 Y12.3746
G01 X11.0230 Y12.3617
G01 X10.1131 Y11.0478
G01 X10.1062 Y11.0383
G01 X10.0965 Y11.0263
G01 X9.0606 Y9.8093
G01 X9.0527 Y9.8005
G01 X9.0419 Y9.7895
G01 X7.8902 Y8.6814
G01 X7.8815 Y8.6735
G01 X7.8696 Y8.6636
G01 X6.6136 Y7.6753
G01 X6.6042 Y7.6683
G01 X6.5914 Y7.6597
G01 X5.2434 Y6.8011
G01 X5.2333 Y6.7950
G01 X5.2197 Y6.7877
G01 X3.7932 Y6.0672
G01 X3.7772 Y6.0597
G01 X3.2241 Y5.8264
G01 X3.2132 Y5.8222
G01 X3.1930 Y5.8161
G01 X3.1745 Y5.8125
G01 X3.1557 Y5.8108
G01 X3.1380 Y5.8108
G01 X3.1213 Y5.8101
G01 X3.1007 Y5.8074
G01 X3.0784 Y5.8021
G01 X3.0568 Y5.7945
G01 X2.9957 Y5.7850
G01 X2.8151 Y5.7782
G01 X2.8016 Y5.7772
G01 X2.7876 Y5.7752
G01 X2.1833 Y5.6585
G01 X2.1604 Y5.6527
G01 X2.1410 Y5.6455
G01 X1.5936 Y5.3993
G01 X1.5726 Y5.3884
G01 X1.5514 Y5.3741
G01 X1.0794 Y5.0114
G01 X1.0615 Y4.9960
G01 X1.0441 Y4.9771
G01 X0.6682 Y4.5156
G01 X0.6543 Y4.4965
G01 X0.6429 Y4.4764
G01 X0.3820 Y3.9385
G01 X0.3729 Y3.9167
G01 X0.3659 Y3.8921
G01 X0.2583 Y3.4096
G00 Z2.0000
G00 X1.3853 Y3.3212
G01 F60.00
G01 Z-0.1000
G01 F100.00
G01 X1.3853 Y2.6788
G01 X1.6311 Y2.0854
G01 X2.0854 Y1.6311
G01 X2.6788 Y1.3853
G01 X3.3212 Y1.3853
G01 X3.9146 Y1.6311
G01 X4.3689 Y2.0854
G01 X4.6147 Y2.6788
G01 X4.6147 Y3.3212
G01 X4.3689 Y3.9146
G01 X3.9146 Y4.3689
G01 X3.3212 Y4.6147
G01 X2.6788 Y4.6147
G01 X2.0854 Y4.3689
G01 X1.6311 Y3.9146
G01 X1.3853 Y3.3212
G00 X1.3853 Y3.3212
G01 F60.00
G01 Z-0.1999
G01 F100.00
G01 X1.3853 Y2.6788
G01 X1.6311 Y2.0854
G01 X2.0854 Y1.6311
G01 X2.6788 Y1.3853
G01 X3.3212 Y1.3853
G01 X3.9146 Y1.6311
G01 X4.3689 Y2.0854
G01 X4.6147 Y2.6788
G01 X4.6147 Y3.3212
G01 X4.3689 Y3.9146
G01 X3.9146 Y4.3689
G01 X3.3212 Y4.6147
G01 X2.6788 Y4.6147
G01 X2.0854 Y4.3689
G01 X1.6311 Y3.9146
G01 X1.3853 Y3.3212
G00 Z2.0000
G00 X4.5851 Y3.0042
G01 F60.00
G01 Z-0.1000
G01 F100.00
G01 X4.5776 Y3.1554
G01 X4.5548 Y3.3093
G01 X4.5170 Y3.4602
G01 X4.4646 Y3.6066
G01 X4.3981 Y3.7473
G01 X4.3181 Y3.8807
G01 X4.2254 Y4.0057
G01 X4.1209 Y4.1209
G01 X4.0057 Y4.2254
G01 X3.8807 Y4.3181
G01 X3.7473 Y4.3981
G01 X3.6066 Y4.4646
G01 X3.4602 Y4.5170
G01 X3.3093 Y4.5548
G01 X3.1554 Y4.5776
G01 X3.0000 Y4.5852
G01 X2.8446 Y4.5776
G01 X2.6907 Y4.5548
G01 X2.5398 Y4.5170
G01 X2.3934 Y4.4646
G01 X2.2527 Y4.3981
G01 X2.1193 Y4.3181
G01 X1.9943 Y4.2254
G01 X1.8791 Y4.1209
G01 X1.7746 Y4.0057
G01 X1.6819 Y3.8807
G01 X1.6019 Y3.7473
G01 X1.5354 Y3.6066
G01 X1.4830 Y3.4602
G01 X1.4452 Y3.3093
G01 X1.4224 Y3.1554
G01 X1.4148 Y3.0000
G01 X1.4224 Y2.8446
G01 X1.4452 Y2.6907
G01 X1.4830 Y2.5398
G01 X1.5354 Y2.3934
G01 X1.6019 Y2.2527
G01 X1.6819 Y2.1193
G01 X1.7746 Y1.9943
G01 X1.8791 Y1.8791
G01 X1.9943 Y1.7746
G01 X2.1193 Y1.6819
G01 X2.2527 Y1.6019
G01 X2.3934 Y1.5354
G01 X2.5398 Y1.4830
G01 X2.6907 Y1.4452
G01 X2.8446 Y1.4224
G01 X3.0000 Y1.4148
G01 X3.1554 Y1.4224
G01 X3.3093 Y1.4452
G01 X3.4602 Y1.4830
G01 X3.6066 Y1.5354
G01 X3.7473 Y1.6019
G01 X3.8807 Y1.6819
G01 X4.0057 Y1.7746
G01 X4.1209 Y1.8791
G01 X4.2254 Y1.9943
G01 X4.3181 Y2.1193
G01 X4.3981 Y2.2527
G01 X4.4646 Y2.3934
G01 X4.5170 Y2.5398
G01 X4.5548 Y2.6907
G01 X4.5776 Y2.8446
G01 X4.5851 Y2.9958
G01 X4.5851 Y3.0042
G00 X4.5851 Y3.0042
G01 F60.00
G01 Z-0.1999
G01 F100.00
G01 X4.5776 Y3.1554
G01 X4.5548 Y3.3093
G01 X4.5170 Y3.4602
G01 X4.4646 Y3.6066
G01 X4.3981 Y3.7473
G01 X4.3181 Y3.8807
G01 X4.2254 Y4.0057
G01 X4.1209 Y4.1209
G01 X4.0057 Y4.2254
G01 X3.8807 Y4.3181
G01 X3.7473 Y4.3981
G01 X3.6066 Y4.4646
G01 X3.4602 Y4.5170
G01 X3.3093 Y4.5548
G01 X3.1554 Y4.5776
G01 X3.0000 Y4.5852
G01 X2.8446 Y4.5776
G01 X2.6907 Y4.5548
G01 X2.5398 Y4.5170
G01 X2.3934 Y4.4646
G01 X2.2527 Y4.3981
G01 X2.1193 Y4.3181
G01 X1.9943 Y4.2254
G01 X1.8791 Y4.1209
G01 X1.7746 Y4.0057
G01 X1.6819 Y3.8807
G01 X1.6019 Y3.7473
G01 X1.5354 Y3.6066
G01 X1.4830 Y3.4602
G01 X1.4452 Y3.3093
G01 X1.4224 Y3.1554
G01 X1.4148 Y3.0000
G01 X1.4224 Y2.8446
G01 X1.4452 Y2.6907
G01 X1.4830 Y2.5398
G01 X1.5354 Y2.3934
G01 X1.6019 Y2.2527
G01 X1.6819 Y2.1193
G01 X1.7746 Y1.9943
G01 X1.8791 Y1.8791
G01 X1.9943 Y1.7746
G01 X2.1193 Y1.6819
G01 X2.2527 Y1.6019
G01 X2.3934 Y1.5354
G01 X2.5398 Y1.4830
G01 X2.6907 Y1.4452
G01 X2.8446 Y1.4224
G01 X3.0000 Y1.4148
G01 X3.1554 Y1.4224
G01 X3.3093 Y1.4452
G01 X3.4602 Y1.4830
G01 X3.6066 Y1.5354
G01 X3.7473 Y1.6019
G01 X3.8807 Y1.6819
G01 X4.0057 Y1.7746
G01 X4.1209 Y1.8791
G01 X4.2254 Y1.9943
G01 X4.3181 Y2.1193
G01 X4.3981 Y2.2527
G01 X4.4646 Y2.3934
G01 X4.5170 Y2.5398
G01 X4.5548 Y2.6907
G01 X4.5776 Y2.8446
G01 X4.5851 Y2.9958
G01 X4.5851 Y3.0042
G00 Z2.0000
G00 X13.3542 Y21.9044
G01 F60.00
G01 Z-0.1000
G01 F100.00
G01 X13.3364 Y21.9016
G01 X13.3249 Y21.8994
G01 X13.2958 Y21.8919
G01 X13.2847 Y21.8882
G01 X13.2620 Y21.8798
G01 X13.2348 Y21.8671
G01 X13.2244 Y21.8616
G01 X13.2037 Y21.8492
G01 X13.1940 Y21.8426
G01 X13.1792 Y21.8318
G01 X13.1700 Y21.8246
G01 X13.1611 Y21.8169
G01 X13.1476 Y21.8046
G01 X13.1393 Y21.7963
G01 X13.1193 Y21.7739
G01 X13.1046 Y21.7546
G01 X13.0979 Y21.7450
G01 X13.0823 Y21.7194
G01 X13.0767 Y21.7091
G01 X13.0688 Y21.6925
G01 X13.0641 Y21.6818
G01 X13.0599 Y21.6709
G01 X13.0538 Y21.6536
G01 X13.0504 Y21.6424
G01 X13.0433 Y21.6132
G01 X13.0413 Y21.6017
G01 X13.0380 Y21.5777
G01 X13.0365 Y21.5536
G01 X13.0362 Y21.5418
G01 X13.0363 Y18.7191
G01 X13.0378 Y18.6909
G01 X13.0391 Y18.6800
G01 X13.0424 Y18.6575
G01 X13.0474 Y18.6354
G01 X13.0501 Y18.6247
G01 X13.0534 Y18.6142
G01 X13.0608 Y18.5928
G01 X13.0697 Y18.5719
G01 X13.0744 Y18.5619
G01 X13.0795 Y18.5522
G01 X13.0908 Y18.5325
G01 X13.0967 Y18.5232
G01 X13.1098 Y18.5046
G01 X13.1292 Y18.4809
G01 X13.1334 Y18.4747
G01 X13.1361 Y18.4681
G01 X13.1369 Y18.4647
G01 X13.1376 Y18.4576
G01 X13.1374 Y18.4540
G01 X13.1354 Y18.4415
G01 X12.8070 Y16.8836
G01 X12.8023 Y16.8665
G01 X12.3191 Y15.3440
G01 X12.3144 Y15.3322
G01 X11.6823 Y13.8651
G01 X11.6765 Y13.8538
G01 X10.9018 Y12.4568
G01 X10.8949 Y12.4461
G01 X9.9853 Y11.1330
G01 X9.9773 Y11.1231
G01 X8.9451 Y9.9104
G01 X8.9329 Y9.8976
G01 X7.7817 Y8.7902
G01 X7.7720 Y8.7820
G01 X6.5165 Y7.7943
G01 X6.5059 Y7.7872
G01 X5.1586 Y6.9291
G01 X5.1474 Y6.9231
G01 X3.7262 Y6.2053
G01 X3.7149 Y6.2000
G01 X3.1665 Y5.9687
G01 X3.1561 Y5.9653
G01 X3.1491 Y5.9642
G01 X3.1294 Y5.9641
G01 X3.1052 Y5.9628
G01 X3.0755 Y5.9588
G01 X3.0640 Y5.9566
G01 X3.0406 Y5.9509
G01 X3.0293 Y5.9476
G01 X3.0183 Y5.9438
G01 X2.9811 Y5.9380
G01 X2.8064 Y5.9314
G01 X2.7861 Y5.9299
G01 X2.7643 Y5.9268
G01 X2.1542 Y5.8091
G01 X2.1407 Y5.8061
G01 X2.1157 Y5.7995
G01 X2.1000 Y5.7941
G01 X2.0734 Y5.7836
G01 X1.5306 Y5.5392
G01 X1.5182 Y5.5332
G01 X1.5002 Y5.5237
G01 X1.4860 Y5.5152
G01 X1.4692 Y5.5039
G01 X1.4579 Y5.4957
G01 X0.9859 Y5.1331
G01 X0.9640 Y5.1147
G01 X0.9518 Y5.1034
G01 X0.9342 Y5.0845
G01 X0.9251 Y5.0740
G01 X0.5492 Y4.6125
G01 X0.5408 Y4.6015
G01 X0.5259 Y4.5805
G01 X0.5200 Y4.5711
G01 X0.5101 Y4.5534
G01 X0.5037 Y4.5411
G01 X0.2440 Y4.0055
G01 X0.2326 Y3.9792
G01 X0.2268 Y3.9637
G01 X0.2195 Y3.9389
G01 X0.2161 Y3.9255
G01 X0.1085 Y3.4430
G01 X0.0852 Y3.3377
G01 X0.0801 Y3.3054
G01 X0.0787 Y3.2888
G01 X0.0778 Y3.2602
G01 X0.0855 Y2.6650
G01 X0.0861 Y2.6512
G01 X0.0881 Y2.6254
G01 X0.0907 Y2.6090
G01 X0.0964 Y2.5810
G01 X0.2407 Y2.0035
G01 X0.2445 Y1.9902
G01 X0.2524 Y1.9656
G01 X0.2586 Y1.9502
G01 X0.2706 Y1.9243
G01 X0.5440 Y1.3955
G01 X0.5507 Y1.3833
G01 X0.5641 Y1.3613
G01 X0.5737 Y1.3477
G01 X0.5913 Y1.3252
G01 X0.9790 Y0.8735
G01 X0.9985 Y0.8526
G01 X1.0105 Y0.8411
G01 X1.0302 Y0.8245
G01 X1.0412 Y0.8160
G01 X1.5224 Y0.4656
G01 X1.5462 Y0.4498
G01 X1.5605 Y0.4413
G01 X1.5835 Y0.4297
G01 X1.5962 Y0.4240
G01 X2.1450 Y0.1936
G01 X2.1719 Y0.1837
G01 X2.1877 Y0.1788
G01 X2.2128 Y0.1728
G01 X2.2264 Y0.1701
G01 X2.8515 Y0.0659
G01 X2.8605 Y0.0638
G01 X2.8846 Y0.0549
G01 X2.8961 Y0.0513
G01 X2.9203 Y0.0450
G01 X2.9321 Y0.0426
G01 X2.9628 Y0.0381
G01 X2.9877 Y0.0365
G01 X2.9998 Y0.0362
G01 X78.5980 Y0.0362
G01 X78.6097 Y0.0365
G01 X78.6339 Y0.0380
G01 X78.6636 Y0.0422
G01 X78.6751 Y0.0445
G01 X78.6985 Y0.0504
G01 X78.7098 Y0.0538
G01 X78.7270 Y0.0599
G01 X78.7380 Y0.0641
G01 X78.7487 Y0.0688
G01 X78.7652 Y0.0767
G01 X78.7806 Y0.0852
G01 X78.7963 Y0.0947
G01 X78.8060 Y0.1012
G01 X78.8255 Y0.1156
G01 X78.8345 Y0.1230
G01 X78.8524 Y0.1393
G01 X78.8607 Y0.1476
G01 X78.8770 Y0.1655
G01 X78.8879 Y0.1792
G01 X78.9021 Y0.1988
G01 X78.9148 Y0.2194
G01 X78.9233 Y0.2348
G01 X78.9312 Y0.2513
G01 X78.9381 Y0.2675
G01 X78.9462 Y0.2902
G01 X78.9496 Y0.3015
G01 X78.9555 Y0.3249
G01 X78.9587 Y0.3422
G01 X78.9620 Y0.3661
G01 X78.9635 Y0.3903
G01 X78.9638 Y0.4020
G01 X78.9638 Y77.5980
G01 X78.9635 Y77.6097
G01 X78.9620 Y77.6339
G01 X78.9578 Y77.6636
G01 X78.9555 Y77.6751
G01 X78.9496 Y77.6985
G01 X78.9462 Y77.7098
G01 X78.9401 Y77.7270
G01 X78.9359 Y77.7380
G01 X78.9312 Y77.7487
G01 X78.9233 Y77.7652
G01 X78.9148 Y77.7806
G01 X78.9053 Y77.7963
G01 X78.8988 Y77.8060
G01 X78.8844 Y77.8255
G01 X78.8770 Y77.8345
G01 X78.8607 Y77.8524
G01 X78.8524 Y77.8607
G01 X78.8345 Y77.8770
G01 X78.8208 Y77.8879
G01 X78.8060 Y77.8988
G01 X78.7913 Y77.9084
G01 X78.7704 Y77.9206
G01 X78.7487 Y77.9312
G01 X78.7325 Y77.9381
G01 X78.7098 Y77.9462
G01 X78.6985 Y77.9496
G01 X78.6751 Y77.9555
G01 X78.6578 Y77.9587
G01 X78.6339 Y77.9620
G01 X78.6097 Y77.9635
G01 X78.5980 Y77.9638
G01 X29.9964 Y77.9638
G01 X29.9859 Y77.9659
G01 X29.9739 Y77.9739
G01 X29.9645 Y77.9879
G01 X29.9554 Y78.0166
G01 X29.9146 Y78.1283
G01 X29.9084 Y78.1437
G01 X29.8964 Y78.1700
G01 X29.5966 Y78.7324
G01 X29.5900 Y78.7440
G01 X29.5769 Y78.7651
G01 X29.5676 Y78.7781
G01 X29.5505 Y78.7997
G01 X29.1483 Y79.2647
G01 X29.1393 Y79.2745
G01 X29.1218 Y79.2922
G01 X29.1139 Y79.2993
G01 X29.0937 Y79.3160
G01 X28.5932 Y79.6843
G01 X28.5822 Y79.6919
G01 X28.5613 Y79.7053
G01 X28.5472 Y79.7130
G01 X28.5225 Y79.7250
G01 X27.9559 Y79.9719
G01 X27.9317 Y79.9811
G01 X27.9189 Y79.9853
G01 X27.8972 Y79.9911
G01 X27.8810 Y79.9946
G01 X27.2769 Y80.1092
G01 X27.2637 Y80.1113
G01 X27.2391 Y80.1143
G01 X27.2284 Y80.1150
G01 X27.2023 Y80.1155
G01 X26.5812 Y80.0933
G01 X26.5679 Y80.0924
G01 X26.5432 Y80.0899
G01 X26.5274 Y80.0872
G01 X26.5005 Y80.0813
G01 X25.9063 Y79.9236
G01 X25.8935 Y79.9198
G01 X25.8700 Y79.9119
G01 X25.8552 Y79.9058
G01 X25.8303 Y79.8941
G01 X25.2857 Y79.6087
G01 X25.2619 Y79.5949
G01 X25.2485 Y79.5862
G01 X25.2286 Y79.5714
G01 X25.2182 Y79.5630
G01 X24.7504 Y79.1640
G01 X24.7405 Y79.1551
G01 X24.7227 Y79.1378
G01 X24.7120 Y79.1259
G01 X24.6946 Y79.1045
G01 X24.3269 Y78.6119
G01 X24.3192 Y78.6010
G01 X24.3057 Y78.5801
G01 X24.2979 Y78.5661
G01 X24.2857 Y78.5415
G01 X24.0251 Y77.9546
G01 X24.0117 Y77.9324
G01 X24.0064 Y77.9269
G01 X24.0001 Y77.9228
G01 X23.9930 Y77.9202
G01 X23.9855 Y77.9191
G01 X23.9780 Y77.9198
G01 X23.9708 Y77.9222
G01 X23.9618 Y77.9275
G01 X23.9497 Y77.9376
G01 X23.9308 Y77.9513
G01 X23.9214 Y77.9577
G01 X23.9117 Y77.9636
G01 X23.8963 Y77.9724
G01 X23.8862 Y77.9776
G01 X23.8649 Y77.9873
G01 X23.8491 Y77.9934
G01 X23.8323 Y77.9991
G01 X23.8214 Y78.0023
G01 X23.7987 Y78.0078
G01 X23.7875 Y78.0099
G01 X23.7587 Y78.0139
G01 X23.7354 Y78.0152
G01 X23.7240 Y78.0155
G01 X13.4020 Y78.0155
G01 X13.3903 Y78.0152
G01 X13.3661 Y78.0137
G01 X13.3364 Y78.0095
G01 X13.3249 Y78.0073
G01 X13.3015 Y78.0014
G01 X13.2902 Y77.9980
G01 X13.2730 Y77.9919
G01 X13.2566 Y77.9854
G01 X13.2400 Y77.9776
G01 X13.2296 Y77.9723
G01 X13.2194 Y77.9665
G01 X13.2037 Y77.9571
G01 X13.1940 Y77.9505
G01 X13.1745 Y77.9361
G01 X13.1655 Y77.9287
G01 X13.1476 Y77.9125
G01 X13.1393 Y77.9042
G01 X13.1230 Y77.8863
G01 X13.1121 Y77.8725
G01 X13.0979 Y77.8529
G01 X13.0852 Y77.8324
G01 X13.0767 Y77.8170
G01 X13.0688 Y77.8004
G01 X13.0619 Y77.7843
G01 X13.0538 Y77.7615
G01 X13.0504 Y77.7503
G01 X13.0445 Y77.7268
G01 X13.0413 Y77.7096
G01 X13.0380 Y77.6856
G01 X13.0365 Y77.6615
G01 X13.0362 Y77.6497
G01 X13.0362 Y23.7299
G01 X13.0365 Y23.7182
G01 X13.0380 Y23.6940
G01 X13.0422 Y23.6643
G01 X13.0445 Y23.6528
G01 X13.0504 Y23.6293
G01 X13.0538 Y23.6181
G01 X13.0599 Y23.6009
G01 X13.0664 Y23.5845
G01 X13.0742 Y23.5679
G01 X13.0794 Y23.5575
G01 X13.0852 Y23.5473
G01 X13.0947 Y23.5316
G01 X13.1012 Y23.5219
G01 X13.1156 Y23.5024
G01 X13.1230 Y23.4934
G01 X13.1434 Y23.4713
G01 X13.1611 Y23.4548
G01 X13.1700 Y23.4472
G01 X13.1792 Y23.4400
G01 X13.1988 Y23.4258
G01 X13.2194 Y23.4131
G01 X13.2296 Y23.4073
G01 X13.2400 Y23.4021
G01 X13.2620 Y23.3920
G01 X13.2902 Y23.3817
G01 X13.3015 Y23.3783
G01 X13.3249 Y23.3724
G01 X13.3364 Y23.3701
G01 X13.3542 Y23.3674
G01 X13.3289 Y23.2969
G01 X13.3236 Y23.2801
G01 X13.2744 Y23.0840
G01 X13.2708 Y23.0669
G01 X13.2411 Y22.8669
G01 X13.2396 Y22.8553
G01 X13.2388 Y22.8436
G01 X13.2292 Y22.6476
G01 X13.2289 Y22.6359
G01 X13.2292 Y22.6242
G01 X13.2388 Y22.4281
G01 X13.2396 Y22.4164
G01 X13.2411 Y22.4048
G01 X13.2708 Y22.2049
G01 X13.2744 Y22.1877
G01 X13.3236 Y21.9916
G01 X13.3289 Y21.9749
G01 X13.3542 Y21.9044
G00 X13.3542 Y21.9044
G01 F60.00
G01 Z-0.1999
G01 F100.00
G01 X13.3364 Y21.9016
G01 X13.3249 Y21.8994
G01 X13.2958 Y21.8919
G01 X13.2847 Y21.8882
G01 X13.2620 Y21.8798
G01 X13.2348 Y21.8671
G01 X13.2244 Y21.8616
G01 X13.2037 Y21.8492
G01 X13.1940 Y21.8426
G01 X13.1792 Y21.8318
G01 X13.1700 Y21.8246
G01 X13.1611 Y21.8169
G01 X13.1476 Y21.8046
G01 X13.1393 Y21.7963
G01 X13.1193 Y21.7739
G01 X13.1046 Y21.7546
G01 X13.0979 Y21.7450
G01 X13.0823 Y21.7194
G01 X13.0767 Y21.7091
G01 X13.0688 Y21.6925
G01 X13.0641 Y21.6818
G01 X13.0599 Y21.6709
G01 X13.0538 Y21.6536
G01 X13.0504 Y21.6424
G01 X13.0433 Y21.6132
G01 X13.0413 Y21.6017
G01 X13.0380 Y21.5777
G01 X13.0365 Y21.5536
G01 X13.0362 Y21.5418
G01 X13.0363 Y18.7191
G01 X13.0378 Y18.6909
G01 X13.0391 Y18.6800
G01 X13.0424 Y18.6575
G01 X13.0474 Y18.6354
G01 X13.0501 Y18.6247
G01 X13.0534 Y18.6142
G01 X13.0608 Y18.5928
G01 X13.0697 Y18.5719
G01 X13.0744 Y18.5619
G01 X13.0795 Y18.5522
G01 X13.0908 Y18.5325
G01 X13.0967 Y18.5232
G01 X13.1098 Y18.5046
G01 X13.1292 Y18.4809
G01 X13.1334 Y18.4747
G01 X13.1361 Y18.4681
G01 X13.1369 Y18.4647
G01 X13.1376 Y18.4576
G01 X13.1374 Y18.4540
G01 X13.1354 Y18.4415
G01 X12.8070 Y16.8836
G01 X12.8023 Y16.8665
G01 X12.3191 Y15.3440
G01 X12.3144 Y15.3322
G01 X11.6823 Y13.8651
G01 X11.6765 Y13.8538
G01 X10.9018 Y12.4568
G01 X10.8949 Y12.4461
G01 X9.9853 Y11.1330
G01 X9.9773 Y11.1231
G01 X8.9451 Y9.9104
G01 X8.9329 Y9.8976
G01 X7.7817 Y8.7902
G01 X7.7720 Y8.7820
G01 X6.5165 Y7.7943
G01 X6.5059 Y7.7872
G01 X5.1586 Y6.9291
G01 X5.1474 Y6.9231
G01 X3.7262 Y6.2053
G01 X3.7149 Y6.2000
G01 X3.1665 Y5.9687
G01 X3.1561 Y5.9653
G01 X3.1491 Y5.9642
G01 X3.1294 Y5.9641
G01 X3.1052 Y5.9628
G01 X3.0755 Y5.9588
G01 X3.0640 Y5.9566
G01 X3.0406 Y5.9509
G01 X3.0293 Y5.9476
G01 X3.0183 Y5.9438
G01 X2.9811 Y5.9380
G01 X2.8064 Y5.9314
G01 X2.7861 Y5.9299
G01 X2.7643 Y5.9268
G01 X2.1542 Y5.8091
G01 X2.1407 Y5.8061
G01 X2.1157 Y5.7995
G01 X2.1000 Y5.7941
G01 X2.0734 Y5.7836
G01 X1.5306 Y5.5392
G01 X1.5182 Y5.5332
G01 X1.5002 Y5.5237
G01 X1.4860 Y5.5152
G01 X1.4692 Y5.5039
G01 X1.4579 Y5.4957
G01 X0.9859 Y5.1331
G01 X0.9640 Y5.1147
G01 X0.9518 Y5.1034
G01 X0.9342 Y5.0845
G01 X0.9251 Y5.0740
G01 X0.5492 Y4.6125
G01 X0.5408 Y4.6015
G01 X0.5259 Y4.5805
G01 X0.5200 Y4.5711
G01 X0.5101 Y4.5534
G01 X0.5037 Y4.5411
G01 X0.2440 Y4.0055
G01 X0.2326 Y3.9792
G01 X0.2268 Y3.9637
G01 X0.2195 Y3.9389
G01 X0.2161 Y3.9255
G01 X0.1085 Y3.4430
G01 X0.0852 Y3.3377
G01 X0.0801 Y3.3054
G01 X0.0787 Y3.2888
G01 X0.0778 Y3.2602
G01 X0.0855 Y2.6650
G01 X0.0861 Y2.6512
G01 X0.0881 Y2.6254
G01 X0.0907 Y2.6090
G01 X0.0964 Y2.5810
G01 X0.2407 Y2.0035
G01 X0.2445 Y1.9902
G01 X0.2524 Y1.9656
G01 X0.2586 Y1.9502
G01 X0.2706 Y1.9243
G01 X0.5440 Y1.3955
G01 X0.5507 Y1.3833
G01 X0.5641 Y1.3613
G01 X0.5737 Y1.3477
G01 X0.5913 Y1.3252
G01 X0.9790 Y0.8735
G01 X0.9985 Y0.8526
G01 X1.0105 Y0.8411
G01 X1.0302 Y0.8245
G01 X1.0412 Y0.8160
G01 X1.5224 Y0.4656
G01 X1.5462 Y0.4498
G01 X1.5605 Y0.4413
G01 X1.5835 Y0.4297
G01 X1.5962 Y0.4240
G01 X2.1450 Y0.1936
G01 X2.1719 Y0.1837
G01 X2.1877 Y0.1788
G01 X2.2128 Y0.1728
G01 X2.2264 Y0.1701
G01 X2.8515 Y0.0659
G01 X2.8605 Y0.0638
G01 X2.8846 Y0.0549
G01 X2.8961 Y0.0513
G01 X2.9203 Y0.0450
G01 X2.9321 Y0.0426
G01 X2.9628 Y0.0381
G01 X2.9877 Y0.0365
G01 X2.9998 Y0.0362
G01 X78.5980 Y0.0362
G01 X78.6097 Y0.0365
G01 X78.6339 Y0.0380
G01 X78.6636 Y0.0422
G01 X78.6751 Y0.0445
G01 X78.6985 Y0.0504
G01 X78.7098 Y0.0538
G01 X78.7270 Y0.0599
G01 X78.7380 Y0.0641
G01 X78.7487 Y0.0688
G01 X78.7652 Y0.0767
G01 X78.7806 Y0.0852
G01 X78.7963 Y0.0947
G01 X78.8060 Y0.1012
G01 X78.8255 Y0.1156
G01 X78.8345 Y0.1230
G01 X78.8524 Y0.1393
G01 X78.8607 Y0.1476
G01 X78.8770 Y0.1655
G01 X78.8879 Y0.1792
G01 X78.9021 Y0.1988
G01 X78.9148 Y0.2194
G01 X78.9233 Y0.2348
G01 X78.9312 Y0.2513
G01 X78.9381 Y0.2675
G01 X78.9462 Y0.2902
G01 X78.9496 Y0.3015
G01 X78.9555 Y0.3249
G01 X78.9587 Y0.3422
G01 X78.9620 Y0.3661
G01 X78.9635 Y0.3903
G01 X78.9638 Y0.4020
G01 X78.9638 Y77.5980
G01 X78.9635 Y77.6097
G01 X78.9620 Y77.6339
G01 X78.9578 Y77.6636
G01 X78.9555 Y77.6751
G01 X78.9496 Y77.6985
G01 X78.9462 Y77.7098
G01 X78.9401 Y77.7270
G01 X78.9359 Y77.7380
G01 X78.9312 Y77.7487
G01 X78.9233 Y77.7652
G01 X78.9148 Y77.7806
G01 X78.9053 Y77.7963
G01 X78.8988 Y77.8060
G01 X78.8844 Y77.8255
G01 X78.8770 Y77.8345
G01 X78.8607 Y77.8524
G01 X78.8524 Y77.8607
G01 X78.8345 Y77.8770
G01 X78.8208 Y77.8879
G01 X78.8060 Y77.8988
G01 X78.7913 Y77.9084
G01 X78.7704 Y77.9206
G01 X78.7487 Y77.9312
G01 X78.7325 Y77.9381
G01 X78.7098 Y77.9462
G01 X78.6985 Y77.9496
G01 X78.6751 Y77.9555
G01 X78.6578 Y77.9587
G01 X78.6339 Y77.9620
G01 X78.6097 Y77.9635
G01 X78.5980 Y77.9638
G01 X29.9964 Y77.9638
G01 X29.9859 Y77.9659
G01 X29.9739 Y77.9739
G01 X29.9645 Y77.9879
G01 X29.9554 Y78.0166
G01 X29.9146 Y78.1283
G01 X29.9084 Y78.1437
G01 X29.8964 Y78.1700
G01 X29.5966 Y78.7324
G01 X29.5900 Y78.7440
G01 X29.5769 Y78.7651
G01 X29.5676 Y78.7781
G01 X29.5505 Y78.7997
G01 X29.1483 Y79.2647
G01 X29.1393 Y79.2745
G01 X29.1218 Y79.2922
G01 X29.1139 Y79.2993
G01 X29.0937 Y79.3160
G01 X28.5932 Y79.6843
G01 X28.5822 Y79.6919
G01 X28.5613 Y79.7053
G01 X28.5472 Y79.7130
G01 X28.5225 Y79.7250
G01 X27.9559 Y79.9719
G01 X27.9317 Y79.9811
G01 X27.9189 Y79.9853
G01 X27.8972 Y79.9911
G01 X27.8810 Y79.9946
G01 X27.2769 Y80.1092
G01 X27.2637 Y80.1113
G01 X27.2391 Y80.1143
G01 X27.2284 Y80.1150
G01 X27.2023 Y80.1155
G01 X26.5812 Y80.0933
G01 X26.5679 Y80.0924
G01 X26.5432 Y80.0899
G01 X26.5274 Y80.0872
G01 X26.5005 Y80.0813
G01 X25.9063 Y79.9236
G01 X25.8935 Y79.9198
G01 X25.8700 Y79.9119
G01 X25.8552 Y79.9058
G01 X25.8303 Y79.8941
G01 X25.2857 Y79.6087
G01 X25.2619 Y79.5949
G01 X25.2485 Y79.5862
G01 X25.2286 Y79.5714
G01 X25.2182 Y79.5630
G01 X24.7504 Y79.1640
G01 X24.7405 Y79.1551
G01 X24.7227 Y79.1378
G01 X24.7120 Y79.1259
G01 X24.6946 Y79.1045
G01 X24.3269 Y78.6119
G01 X24.3192 Y78.6010
G01 X24.3057 Y78.5801
G01 X24.2979 Y78.5661
G01 X24.2857 Y78.5415
G01 X24.0251 Y77.9546
G01 X24.0117 Y77.9324
G01 X24.0064 Y77.9269
G01 X24.0001 Y77.9228
G01 X23.9930 Y77.9202
G01 X23.9855 Y77.9191
G01 X23.9780 Y77.9198
G01 X23.9708 Y77.9222
G01 X23.9618 Y77.9275
G01 X23.9497 Y77.9376
G01 X23.9308 Y77.9513
G01 X23.9214 Y77.9577
G01 X23.9117 Y77.9636
G01 X23.8963 Y77.9724
G01 X23.8862 Y77.9776
G01 X23.8649 Y77.9873
G01 X23.8491 Y77.9934
G01 X23.8323 Y77.9991
G01 X23.8214 Y78.0023
G01 X23.7987 Y78.0078
G01 X23.7875 Y78.0099
G01 X23.7587 Y78.0139
G01 X23.7354 Y78.0152
G01 X23.7240 Y78.0155
G01 X13.4020 Y78.0155
G01 X13.3903 Y78.0152
G01 X13.3661 Y78.0137
G01 X13.3364 Y78.0095
G01 X13.3249 Y78.0073
G01 X13.3015 Y78.0014
G01 X13.2902 Y77.9980
G01 X13.2730 Y77.9919
G01 X13.2566 Y77.9854
G01 X13.2400 Y77.9776
G01 X13.2296 Y77.9723
G01 X13.2194 Y77.9665
G01 X13.2037 Y77.9571
G01 X13.1940 Y77.9505
G01 X13.1745 Y77.9361
G01 X13.1655 Y77.9287
G01 X13.1476 Y77.9125
G01 X13.1393 Y77.9042
G01 X13.1230 Y77.8863
G01 X13.1121 Y77.8725
G01 X13.0979 Y77.8529
G01 X13.0852 Y77.8324
G01 X13.0767 Y77.8170
G01 X13.0688 Y77.8004
G01 X13.0619 Y77.7843
G01 X13.0538 Y77.7615
G01 X13.0504 Y77.7503
G01 X13.0445 Y77.7268
G01 X13.0413 Y77.7096
G01 X13.0380 Y77.6856
G01 X13.0365 Y77.6615
G01 X13.0362 Y77.6497
G01 X13.0362 Y23.7299
G01 X13.0365 Y23.7182
G01 X13.0380 Y23.6940
G01 X13.0422 Y23.6643
G01 X13.0445 Y23.6528
G01 X13.0504 Y23.6293
G01 X13.0538 Y23.6181
G01 X13.0599 Y23.6009
G01 X13.0664 Y23.5845
G01 X13.0742 Y23.5679
G01 X13.0794 Y23.5575
G01 X13.0852 Y23.5473
G01 X13.0947 Y23.5316
G01 X13.1012 Y23.5219
G01 X13.1156 Y23.5024
G01 X13.1230 Y23.4934
G01 X13.1434 Y23.4713
G01 X13.1611 Y23.4548
G01 X13.1700 Y23.4472
G01 X13.1792 Y23.4400
G01 X13.1988 Y23.4258
G01 X13.2194 Y23.4131
G01 X13.2296 Y23.4073
G01 X13.2400 Y23.4021
G01 X13.2620 Y23.3920
G01 X13.2902 Y23.3817
G01 X13.3015 Y23.3783
G01 X13.3249 Y23.3724
G01 X13.3364 Y23.3701
G01 X13.3542 Y23.3674
G01 X13.3289 Y23.2969
G01 X13.3236 Y23.2801
G01 X13.2744 Y23.0840
G01 X13.2708 Y23.0669
G01 X13.2411 Y22.8669
G01 X13.2396 Y22.8553
G01 X13.2388 Y22.8436
G01 X13.2292 Y22.6476
G01 X13.2289 Y22.6359
G01 X13.2292 Y22.6242
G01 X13.2388 Y22.4281
G01 X13.2396 Y22.4164
G01 X13.2411 Y22.4048
G01 X13.2708 Y22.2049
G01 X13.2744 Y22.1877
G01 X13.3236 Y21.9916
G01 X13.3289 Y21.9749
G01 X13.3542 Y21.9044
G00 Z2.0000
G00 X17.5527 Y22.6401
G01 F60.00
G01 Z-0.1000
G01 F100.00
G01 X17.5428 Y22.8403
G01 X17.5127 Y23.0427
G01 X17.4630 Y23.2412
G01 X17.3941 Y23.4339
G01 X17.3066 Y23.6188
G01 X17.2014 Y23.7944
G01 X17.0795 Y23.9587
G01 X16.9421 Y24.1104
G01 X16.7904 Y24.2478
G01 X16.6261 Y24.3697
G01 X16.4505 Y24.4749
G01 X16.2656 Y24.5624
G01 X16.0729 Y24.6313
G01 X15.8744 Y24.6811
G01 X15.6720 Y24.7111
G01 X15.4676 Y24.7211
G01 X15.2632 Y24.7111
G01 X15.0608 Y24.6811
G01 X14.8622 Y24.6313
G01 X14.6696 Y24.5624
G01 X14.4846 Y24.4749
G01 X14.3091 Y24.3697
G01 X14.1447 Y24.2478
G01 X13.9931 Y24.1104
G01 X13.8556 Y23.9587
G01 X13.7337 Y23.7944
G01 X13.6285 Y23.6188
G01 X13.5410 Y23.4339
G01 X13.4721 Y23.2412
G01 X13.4224 Y23.0427
G01 X13.3924 Y22.8403
G01 X13.3823 Y22.6359
G01 X13.3924 Y22.4315
G01 X13.4224 Y22.2291
G01 X13.4721 Y22.0306
G01 X13.5410 Y21.8379
G01 X13.6285 Y21.6529
G01 X13.7337 Y21.4774
G01 X13.8556 Y21.3130
G01 X13.9931 Y21.1614
G01 X14.1447 Y21.0240
G01 X14.3091 Y20.9020
G01 X14.4846 Y20.7968
G01 X14.6696 Y20.7094
G01 X14.8622 Y20.6404
G01 X15.0608 Y20.5907
G01 X15.2632 Y20.5607
G01 X15.4676 Y20.5506
G01 X15.6720 Y20.5607
G01 X15.8744 Y20.5907
G01 X16.0729 Y20.6404
G01 X16.2656 Y20.7094
G01 X16.4505 Y20.7968
G01 X16.6261 Y20.9020
G01 X16.7904 Y21.0240
G01 X16.9421 Y21.1614
G01 X17.0795 Y21.3130
G01 X17.2014 Y21.4774
G01 X17.3066 Y21.6529
G01 X17.3941 Y21.8379
G01 X17.4630 Y22.0306
G01 X17.5127 Y22.2291
G01 X17.5428 Y22.4315
G01 X17.5527 Y22.6317
G01 X17.5527 Y22.6401
G00 X17.5527 Y22.6401
G01 F60.00
G01 Z-0.1999
G01 F100.00
G01 X17.5428 Y22.8403
G01 X17.5127 Y23.0427
G01 X17.4630 Y23.2412
G01 X17.3941 Y23.4339
G01 X17.3066 Y23.6188
G01 X17.2014 Y23.7944
G01 X17.0795 Y23.9587
G01 X16.9421 Y24.1104
G01 X16.7904 Y24.2478
G01 X16.6261 Y24.3697
G01 X16.4505 Y24.4749
G01 X16.2656 Y24.5624
G01 X16.0729 Y24.6313
G01 X15.8744 Y24.6811
G01 X15.6720 Y24.7111
G01 X15.4676 Y24.7211
G01 X15.2632 Y24.7111
G01 X15.0608 Y24.6811
G01 X14.8622 Y24.6313
G01 X14.6696 Y24.5624
G01 X14.4846 Y24.4749
G01 X14.3091 Y24.3697
G01 X14.1447 Y24.2478
G01 X13.9931 Y24.1104
G01 X13.8556 Y23.9587
G01 X13.7337 Y23.7944
G01 X13.6285 Y23.6188
G01 X13.5410 Y23.4339
G01 X13.4721 Y23.2412
G01 X13.4224 Y23.0427
G01 X13.3924 Y22.8403
G01 X13.3823 Y22.6359
G01 X13.3924 Y22.4315
G01 X13.4224 Y22.2291
G01 X13.4721 Y22.0306
G01 X13.5410 Y21.8379
G01 X13.6285 Y21.6529
G01 X13.7337 Y21.4774
G01 X13.8556 Y21.3130
G01 X13.9931 Y21.1614
G01 X14.1447 Y21.0240
G01 X14.3091 Y20.9020
G01 X14.4846 Y20.7968
G01 X14.6696 Y20.7094
G01 X14.8622 Y20.6404
G01 X15.0608 Y20.5907
G01 X15.2632 Y20.5607
G01 X15.4676 Y20.5506
G01 X15.6720 Y20.5607
G01 X15.8744 Y20.5907
G01 X16.0729 Y20.6404
G01 X16.2656 Y20.7094
G01 X16.4505 Y20.7968
G01 X16.6261 Y20.9020
G01 X16.7904 Y21.0240
G01 X16.9421 Y21.1614
G01 X17.0795 Y21.3130
G01 X17.2014 Y21.4774
G01 X17.3066 Y21.6529
G01 X17.3941 Y21.8379
G01 X17.4630 Y22.0306
G01 X17.5127 Y22.2291
G01 X17.5428 Y22.4315
G01 X17.5527 Y22.6317
G01 X17.5527 Y22.6401
G00 Z2.0000
G00 X18.9100 Y27.7398
G01 F60.00
G01 Z-0.1000
G01 F100.00
G01 X21.5100 Y27.7398
G01 X21.5184 Y27.7402
G01 X21.5287 Y27.7418
G01 X21.5367 Y27.7441
G01 X21.5445 Y27.7471
G01 X21.5520 Y27.7508
G01 X21.5591 Y27.7553
G01 X21.5657 Y27.7604
G01 X21.5717 Y27.7662
G01 X21.5772 Y27.7726
G01 X21.5820 Y27.7794
G01 X21.5861 Y27.7867
G01 X21.5895 Y27.7943
G01 X21.5922 Y27.8023
G01 X21.5940 Y27.8104
G01 X21.5950 Y27.8187
G01 X21.5952 Y27.8250
G01 X21.5952 Y30.4250
G01 X21.5948 Y30.4334
G01 X21.5932 Y30.4437
G01 X21.5909 Y30.4517
G01 X21.5879 Y30.4595
G01 X21.5842 Y30.4670
G01 X21.5797 Y30.4741
G01 X21.5746 Y30.4807
G01 X21.5688 Y30.4867
G01 X21.5624 Y30.4922
G01 X21.5556 Y30.4970
G01 X21.5483 Y30.5011
G01 X21.5407 Y30.5045
G01 X21.5327 Y30.5072
G01 X21.5246 Y30.5090
G01 X21.5163 Y30.5100
G01 X21.5100 Y30.5102
G01 X18.9100 Y30.5102
G01 X18.9016 Y30.5098
G01 X18.8913 Y30.5082
G01 X18.8833 Y30.5059
G01 X18.8755 Y30.5029
G01 X18.8680 Y30.4992
G01 X18.8609 Y30.4947
G01 X18.8543 Y30.4896
G01 X18.8483 Y30.4838
G01 X18.8428 Y30.4774
G01 X18.8380 Y30.4706
G01 X18.8339 Y30.4633
G01 X18.8305 Y30.4557
G01 X18.8278 Y30.4477
G01 X18.8260 Y30.4396
G01 X18.8252 Y30.4334
G01 X18.8248 Y30.4250
G01 X18.8248 Y27.8229
G01 X18.8254 Y27.8146
G01 X18.8264 Y27.8084
G01 X18.8284 Y27.8003
G01 X18.8312 Y27.7924
G01 X18.8348 Y27.7848
G01 X18.8391 Y27.7776
G01 X18.8441 Y27.7709
G01 X18.8497 Y27.7647
G01 X18.8559 Y27.7591
G01 X18.8626 Y27.7541
G01 X18.8698 Y27.7498
G01 X18.8774 Y27.7462
G01 X18.8853 Y27.7434
G01 X18.8934 Y27.7414
G01 X18.9016 Y27.7402
G01 X18.9100 Y27.7398
G00 X18.9100 Y27.7398
G01 F60.00
G01 Z-0.1999
G01 F100.00
G01 X21.5100 Y27.7398
G01 X21.5184 Y27.7402
G01 X21.5287 Y27.7418
G01 X21.5367 Y27.7441
G01 X21.5445 Y27.7471
G01 X21.5520 Y27.7508
G01 X21.5591 Y27.7553
G01 X21.5657 Y27.7604
G01 X21.5717 Y27.7662
G01 X21.5772 Y27.7726
G01 X21.5820 Y27.7794
G01 X21.5861 Y27.7867
G01 X21.5895 Y27.7943
G01 X21.5922 Y27.8023
G01 X21.5940 Y27.8104
G01 X21.5950 Y27.8187
G01 X21.5952 Y27.8250
G01 X21.5952 Y30.4250
G01 X21.5948 Y30.4334
G01 X21.5932 Y30.4437
G01 X21.5909 Y30.4517
G01 X21.5879 Y30.4595
G01 X21.5842 Y30.4670
G01 X21.5797 Y30.4741
G01 X21.5746 Y30.4807
G01 X21.5688 Y30.4867
G01 X21.5624 Y30.4922
G01 X21.5556 Y30.4970
G01 X21.5483 Y30.5011
G01 X21.5407 Y30.5045
G01 X21.5327 Y30.5072
G01 X21.5246 Y30.5090
G01 X21.5163 Y30.5100
G01 X21.5100 Y30.5102
G01 X18.9100 Y30.5102
G01 X18.9016 Y30.5098
G01 X18.8913 Y30.5082
G01 X18.8833 Y30.5059
G01 X18.8755 Y30.5029
G01 X18.8680 Y30.4992
G01 X18.8609 Y30.4947
G01 X18.8543 Y30.4896
G01 X18.8483 Y30.4838
G01 X18.8428 Y30.4774
G01 X18.8380 Y30.4706
G01 X18.8339 Y30.4633
G01 X18.8305 Y30.4557
G01 X18.8278 Y30.4477
G01 X18.8260 Y30.4396
G01 X18.8252 Y30.4334
G01 X18.8248 Y30.4250
G01 X18.8248 Y27.8229
G01 X18.8254 Y27.8146
G01 X18.8264 Y27.8084
G01 X18.8284 Y27.8003
G01 X18.8312 Y27.7924
G01 X18.8348 Y27.7848
G01 X18.8391 Y27.7776
G01 X18.8441 Y27.7709
G01 X18.8497 Y27.7647
G01 X18.8559 Y27.7591
G01 X18.8626 Y27.7541
G01 X18.8698 Y27.7498
G01 X18.8774 Y27.7462
G01 X18.8853 Y27.7434
G01 X18.8934 Y27.7414
G01 X18.9016 Y27.7402
G01 X18.9100 Y27.7398
G00 Z2.0000
G00 X18.7889 Y30.4041
G01 F60.00
G01 Z-0.1000
G01 F100.00
G01 X18.7889 Y27.8459
G01 X18.8020 Y27.7803
G01 X18.8273 Y27.7423
G01 X18.8653 Y27.7170
G01 X18.9309 Y27.7039
G01 X21.4891 Y27.7039
G01 X21.5547 Y27.7170
G01 X21.5927 Y27.7423
G01 X21.6180 Y27.7803
G01 X21.6311 Y27.8459
G01 X21.6311 Y30.4041
G01 X21.6180 Y30.4697
G01 X21.5927 Y30.5077
G01 X21.5547 Y30.5330
G01 X21.4891 Y30.5461
G01 X18.9309 Y30.5461
G01 X18.8653 Y30.5330
G01 X18.8273 Y30.5077
G01 X18.8020 Y30.4697
G01 X18.7889 Y30.4041
G00 X18.7889 Y30.4041
G01 F60.00
G01 Z-0.1999
G01 F100.00
G01 X18.7889 Y27.8459
G01 X18.8020 Y27.7803
G01 X18.8273 Y27.7423
G01 X18.8653 Y27.7170
G01 X18.9309 Y27.7039
G01 X21.4891 Y27.7039
G01 X21.5547 Y27.7170
G01 X21.5927 Y27.7423
G01 X21.6180 Y27.7803
G01 X21.6311 Y27.8459
G01 X21.6311 Y30.4041
G01 X21.6180 Y30.4697
G01 X21.5927 Y30.5077
G01 X21.5547 Y30.5330
G01 X21.4891 Y30.5461
G01 X18.9309 Y30.5461
G01 X18.8653 Y30.5330
G01 X18.8273 Y30.5077
G01 X18.8020 Y30.4697
G01 X18.7889 Y30.4041
G00 Z2.0000
G00 X27.9297 Y28.1012
G01 F60.00
G01 Z-0.1000
G01 F100.00
G01 X27.9600 Y28.0952
G01 X27.9922 Y28.1016
G01 X28.0066 Y28.1038
G01 X28.0129 Y28.1045
G01 X28.0316 Y28.1053
G01 X33.8942 Y28.1053
G01 X33.9150 Y28.1043
G01 X33.9335 Y28.1016
G01 X33.9397 Y28.1003
G01 X33.9558 Y28.0962
G01 X33.9715 Y28.0907
G01 X33.9774 Y28.0883
G01 X33.9943 Y28.0802
G01 X34.0121 Y28.0695
G01 X34.0256 Y28.0597
G01 X34.0305 Y28.0558
G01 X34.0443 Y28.0431
G01 X34.0583 Y28.0277
G01 X34.0683 Y28.0144
G01 X34.0719 Y28.0092
G01 X34.0814 Y27.9931
G01 X34.0895 Y27.9762
G01 X34.0918 Y27.9703
G01 X34.0974 Y27.9546
G01 X34.1024 Y27.9344
G01 X34.1052 Y27.9159
G01 X34.1058 Y27.9096
G01 X34.1065 Y27.8930
G01 X34.1055 Y27.8722
G01 X34.1024 Y27.8516
G01 X34.0985 Y27.8354
G01 X34.0960 Y27.8274
G01 X34.0895 Y27.8098
G01 X34.0814 Y27.7929
G01 X34.0695 Y27.7733
G01 X34.0570 Y27.7567
G01 X34.0458 Y27.7444
G01 X34.0396 Y27.7381
G01 X33.9003 Y27.4019
G01 X33.9003 Y27.0381
G01 X34.0396 Y26.7019
G01 X34.2381 Y26.5033
G01 X34.2508 Y26.4895
G01 X34.2645 Y26.4711
G01 X34.2752 Y26.4533
G01 X34.2842 Y26.4344
G01 X34.2905 Y26.4168
G01 X34.2953 Y26.3987
G01 X34.2969 Y26.3905
G01 X34.2993 Y26.3740
G01 X34.3003 Y26.3553
G01 X34.3003 Y26.0216
G01 X34.2995 Y26.0029
G01 X34.2988 Y25.9966
G01 X34.2966 Y25.9822
G01 X34.2902 Y25.9500
G01 X34.3302 Y25.7492
G01 X34.4439 Y25.5789
G01 X34.4712 Y25.5607
G01 X34.4830 Y25.5520
G01 X34.4879 Y25.5481
G01 X34.5017 Y25.5354
G01 X36.6704 Y23.3667
G01 X36.6831 Y23.3528
G01 X36.6870 Y23.3479
G01 X36.6957 Y23.3362
G01 X36.7139 Y23.3089
G01 X36.8842 Y23.1952
G01 X37.0850 Y23.1552
G01 X37.1172 Y23.1616
G01 X37.1316 Y23.1638
G01 X37.1379 Y23.1645
G01 X37.1566 Y23.1653
G01 X48.7134 Y23.1653
G01 X48.7321 Y23.1645
G01 X48.7384 Y23.1638
G01 X48.7528 Y23.1616
G01 X48.7850 Y23.1552
G01 X48.8172 Y23.1616
G01 X48.8316 Y23.1638
G01 X48.8379 Y23.1645
G01 X48.8566 Y23.1653
G01 X59.7784 Y23.1653
G01 X59.7971 Y23.1645
G01 X59.8034 Y23.1638
G01 X59.8178 Y23.1616
G01 X59.8500 Y23.1552
G01 X60.0508 Y23.1952
G01 X60.2211 Y23.3089
G01 X60.2393 Y23.3362
G01 X60.2480 Y23.3479
G01 X60.2519 Y23.3528
G01 X60.2646 Y23.3667
G01 X60.7024 Y23.8045
G01 X60.7147 Y23.8156
G01 X60.7196 Y23.8196
G01 X60.7313 Y23.8282
G01 X60.7586 Y23.8465
G01 X60.8724 Y24.0167
G01 X60.9123 Y24.2176
G01 X60.9059 Y24.2498
G01 X60.9038 Y24.2642
G01 X60.9031 Y24.2704
G01 X60.9023 Y24.2892
G01 X60.9023 Y26.0948
G01 X60.9033 Y26.1156
G01 X60.9063 Y26.1362
G01 X60.9114 Y26.1564
G01 X60.9169 Y26.1721
G01 X60.9192 Y26.1780
G01 X60.9273 Y26.1949
G01 X60.9369 Y26.2110
G01 X60.9404 Y26.2162
G01 X60.9504 Y26.2295
G01 X60.9616 Y26.2419
G01 X60.9675 Y26.2478
G01 X60.9783 Y26.2576
G01 X60.9832 Y26.2615
G01 X60.9984 Y26.2725
G01 X61.0176 Y26.2836
G01 X61.3326 Y26.5986
G01 X61.5023 Y27.0083
G01 X61.5023 Y27.4517
G01 X61.3326 Y27.8614
G01 X61.0190 Y28.1750
G01 X60.6093 Y28.3447
G01 X60.1658 Y28.3447
G01 X59.7561 Y28.1750
G01 X59.4426 Y27.8614
G01 X59.2729 Y27.4517
G01 X59.2729 Y27.0083
G01 X59.4426 Y26.5986
G01 X59.7575 Y26.2836
G01 X59.7768 Y26.2725
G01 X59.7936 Y26.2602
G01 X59.8107 Y26.2449
G01 X59.8233 Y26.2311
G01 X59.8359 Y26.2145
G01 X59.8457 Y26.1985
G01 X59.8488 Y26.1930
G01 X59.8550 Y26.1799
G01 X59.8582 Y26.1721
G01 X59.8637 Y26.1564
G01 X59.8688 Y26.1362
G01 X59.8719 Y26.1156
G01 X59.8729 Y26.0969
G01 X59.8729 Y24.5187
G01 X59.8719 Y24.4979
G01 X59.8692 Y24.4793
G01 X59.8637 Y24.4571
G01 X59.8575 Y24.4394
G01 X59.8550 Y24.4336
G01 X59.8478 Y24.4186
G01 X59.8393 Y24.4043
G01 X59.8359 Y24.3990
G01 X59.8260 Y24.3856
G01 X59.8107 Y24.3686
G01 X59.6990 Y24.2569
G01 X59.6867 Y24.2456
G01 X59.6819 Y24.2416
G01 X59.6702 Y24.2329
G01 X59.6633 Y24.2282
G01 X59.6471 Y24.2188
G01 X59.6282 Y24.2101
G01 X59.6105 Y24.2038
G01 X59.5903 Y24.1988
G01 X59.5697 Y24.1957
G01 X59.5510 Y24.1947
G01 X56.4548 Y24.1947
G01 X56.4361 Y24.1957
G01 X56.4155 Y24.1988
G01 X56.3953 Y24.2038
G01 X56.3738 Y24.2117
G01 X56.3569 Y24.2197
G01 X56.3373 Y24.2316
G01 X56.3206 Y24.2442
G01 X56.3083 Y24.2554
G01 X56.3039 Y24.2599
G01 X56.2928 Y24.2723
G01 X56.2804 Y24.2890
G01 X56.2697 Y24.3069
G01 X56.2608 Y24.3257
G01 X56.2538 Y24.3454
G01 X56.2487 Y24.3656
G01 X56.2456 Y24.3862
G01 X56.2446 Y24.4070
G01 X56.2456 Y24.4278
G01 X56.2483 Y24.4464
G01 X56.2948 Y24.6800
G01 X56.2884 Y24.7122
G01 X56.2862 Y24.7266
G01 X56.2855 Y24.7329
G01 X56.2847 Y24.7516
G01 X56.2847 Y27.5560
G01 X56.2857 Y27.5747
G01 X56.2888 Y27.5953
G01 X56.2938 Y27.6155
G01 X56.2993 Y27.6312
G01 X56.3017 Y27.6370
G01 X56.3079 Y27.6502
G01 X56.3118 Y27.6576
G01 X56.3217 Y27.6735
G01 X56.3342 Y27.6902
G01 X56.3469 Y27.7040
G01 X57.1910 Y28.5481
G01 X57.2064 Y28.5621
G01 X57.2198 Y28.5721
G01 X57.2249 Y28.5757
G01 X57.2374 Y28.5832
G01 X57.2448 Y28.5871
G01 X57.2580 Y28.5933
G01 X57.2638 Y28.5957
G01 X57.2795 Y28.6012
G01 X57.2956 Y28.6053
G01 X57.3018 Y28.6066
G01 X57.3182 Y28.6091
G01 X57.3390 Y28.6103
G01 X58.0804 Y28.6103
G01 X58.0970 Y28.6095
G01 X58.1033 Y28.6088
G01 X58.1177 Y28.6066
G01 X58.1499 Y28.6002
G01 X58.3507 Y28.6402
G01 X58.5210 Y28.7539
G01 X58.5393 Y28.7812
G01 X58.5479 Y28.7930
G01 X58.5518 Y28.7979
G01 X58.5645 Y28.8117
G01 X60.8409 Y31.0881
G01 X60.8564 Y31.1021
G01 X60.8731 Y31.1145
G01 X60.8910 Y31.1252
G01 X60.9079 Y31.1333
G01 X60.9137 Y31.1357
G01 X60.9294 Y31.1412
G01 X60.9496 Y31.1462
G01 X60.9702 Y31.1493
G01 X60.9910 Y31.1503
G01 X64.6603 Y31.1503
G01 X64.6791 Y31.1495
G01 X64.7038 Y31.1458
G01 X64.7220 Y31.1412
G01 X64.7377 Y31.1357
G01 X64.7435 Y31.1333
G01 X64.7604 Y31.1252
G01 X64.7800 Y31.1133
G01 X64.7950 Y31.1021
G01 X64.8074 Y31.0910
G01 X64.8119 Y31.0866
G01 X64.8245 Y31.0727
G01 X64.8357 Y31.0577
G01 X64.8705 Y31.0055
G01 X65.1731 Y30.8034
G01 X65.4399 Y30.7503
G01 X66.4201 Y30.7503
G01 X66.6869 Y30.8034
G01 X66.9895 Y31.0055
G01 X67.1916 Y31.3081
G01 X67.2626 Y31.6650
G01 X67.1916 Y32.0219
G01 X66.9895 Y32.3245
G01 X66.6869 Y32.5266
G01 X66.4201 Y32.5797
G01 X65.4399 Y32.5797
G01 X65.1731 Y32.5266
G01 X64.8705 Y32.3245
G01 X64.8357 Y32.2723
G01 X64.8245 Y32.2573
G01 X64.8119 Y32.2434
G01 X64.8074 Y32.2390
G01 X64.7950 Y32.2279
G01 X64.7800 Y32.2167
G01 X64.7586 Y32.2038
G01 X64.7416 Y32.1958
G01 X64.7259 Y32.1901
G01 X64.7200 Y32.1882
G01 X64.7018 Y32.1838
G01 X64.6791 Y32.1805
G01 X64.6603 Y32.1797
G01 X60.7615 Y32.1797
G01 X60.7428 Y32.1805
G01 X60.7365 Y32.1812
G01 X60.7221 Y32.1834
G01 X60.6899 Y32.1898
G01 X60.4891 Y32.1498
G01 X60.3188 Y32.0361
G01 X60.3006 Y32.0088
G01 X60.2919 Y31.9970
G01 X60.2880 Y31.9921
G01 X60.2753 Y31.9783
G01 X57.9989 Y29.7019
G01 X57.9818 Y29.6866
G01 X57.9667 Y29.6755
G01 X57.9525 Y29.6668
G01 X57.9470 Y29.6638
G01 X57.9300 Y29.6558
G01 X57.9104 Y29.6488
G01 X57.8943 Y29.6447
G01 X57.8861 Y29.6431
G01 X57.8675 Y29.6405
G01 X57.8488 Y29.6397
G01 X57.1116 Y29.6397
G01 X57.0929 Y29.6405
G01 X57.0866 Y29.6412
G01 X57.0722 Y29.6434
G01 X57.0400 Y29.6498
G01 X56.8392 Y29.6098
G01 X56.6689 Y29.4961
G01 X56.6507 Y29.4688
G01 X56.6420 Y29.4570
G01 X56.6381 Y29.4521
G01 X56.6254 Y29.4383
G01 X55.4567 Y28.2696
G01 X55.4429 Y28.2569
G01 X55.4380 Y28.2530
G01 X55.4262 Y28.2443
G01 X55.3989 Y28.2261
G01 X55.2852 Y28.0558
G01 X55.2452 Y27.8550
G01 X55.2516 Y27.8228
G01 X55.2538 Y27.8084
G01 X55.2545 Y27.8021
G01 X55.2553 Y27.7834
G01 X55.2553 Y25.4049
G01 X55.2543 Y25.3862
G01 X55.2508 Y25.3635
G01 X55.2455 Y25.3434
G01 X55.2399 Y25.3277
G01 X55.2375 Y25.3219
G01 X55.2312 Y25.3088
G01 X55.2282 Y25.3033
G01 X55.2195 Y25.2890
G01 X55.2097 Y25.2756
G01 X55.2058 Y25.2707
G01 X55.1946 Y25.2584
G01 X55.1809 Y25.2456
G01 X55.1744 Y25.2403
G01 X55.1627 Y25.2317
G01 X55.1574 Y25.2282
G01 X55.1412 Y25.2188
G01 X55.1223 Y25.2101
G01 X55.1046 Y25.2038
G01 X55.0844 Y25.1988
G01 X55.0638 Y25.1957
G01 X55.0451 Y25.1947
G01 X53.0541 Y25.1947
G01 X53.0354 Y25.1957
G01 X53.0189 Y25.1981
G01 X53.0128 Y25.1992
G01 X52.9946 Y25.2038
G01 X52.9769 Y25.2101
G01 X52.9711 Y25.2125
G01 X52.9561 Y25.2198
G01 X52.9418 Y25.2282
G01 X52.9365 Y25.2317
G01 X52.9232 Y25.2416
G01 X52.9076 Y25.2554
G01 X52.8551 Y25.3079
G01 X52.8424 Y25.3217
G01 X52.8287 Y25.3400
G01 X52.8170 Y25.3598
G01 X52.8099 Y25.3748
G01 X52.8076 Y25.3807
G01 X52.8020 Y25.3964
G01 X52.7979 Y25.4125
G01 X52.7966 Y25.4186
G01 X52.7939 Y25.4372
G01 X52.7929 Y25.4580
G01 X52.7939 Y25.4788
G01 X52.7966 Y25.4974
G01 X52.7979 Y25.5035
G01 X52.8020 Y25.5196
G01 X52.8076 Y25.5353
G01 X52.8099 Y25.5412
G01 X52.8161 Y25.5543
G01 X52.8190 Y25.5599
G01 X52.8287 Y25.5760
G01 X52.8411 Y25.5927
G01 X52.8551 Y25.6081
G01 X52.8689 Y25.6208
G01 X52.8738 Y25.6247
G01 X52.8873 Y25.6345
G01 X52.9015 Y25.6432
G01 X52.9070 Y25.6462
G01 X52.9240 Y25.6542
G01 X52.9436 Y25.6612
G01 X52.9638 Y25.6662
G01 X52.9844 Y25.6693
G01 X53.0031 Y25.6703
G01 X53.7201 Y25.6703
G01 X53.9869 Y25.7234
G01 X54.2895 Y25.9255
G01 X54.4916 Y26.2281
G01 X54.5626 Y26.5850
G01 X54.4916 Y26.9419
G01 X54.2895 Y27.2445
G01 X53.9869 Y27.4466
G01 X53.7201 Y27.4997
G01 X52.7399 Y27.4997
G01 X52.4731 Y27.4466
G01 X52.1682 Y27.2429
G01 X52.1539 Y27.2344
G01 X52.1483 Y27.2315
G01 X52.1332 Y27.2244
G01 X52.1156 Y27.2180
G01 X52.0934 Y27.2124
G01 X52.0728 Y27.2093
G01 X52.0520 Y27.2083
G01 X52.0312 Y27.2093
G01 X52.0106 Y27.2124
G01 X51.9904 Y27.2174
G01 X51.9708 Y27.2244
G01 X51.9519 Y27.2333
G01 X51.9340 Y27.2441
G01 X51.9189 Y27.2552
G01 X51.9141 Y27.2592
G01 X51.9019 Y27.2705
G01 X51.8906 Y27.2827
G01 X51.8866 Y27.2875
G01 X51.8755 Y27.3026
G01 X51.8658 Y27.3187
G01 X51.8629 Y27.3242
G01 X51.8558 Y27.3393
G01 X51.8501 Y27.3550
G01 X51.8482 Y27.3610
G01 X51.8438 Y27.3792
G01 X51.8405 Y27.4019
G01 X51.8397 Y27.4206
G01 X51.8397 Y28.2915
G01 X51.8407 Y28.3102
G01 X51.8438 Y28.3308
G01 X51.8488 Y28.3510
G01 X51.8567 Y28.3726
G01 X51.8648 Y28.3895
G01 X51.8732 Y28.4038
G01 X51.8779 Y28.4108
G01 X51.8892 Y28.4257
G01 X51.9019 Y28.4395
G01 X51.9157 Y28.4522
G01 X51.9306 Y28.4635
G01 X51.9376 Y28.4682
G01 X51.9519 Y28.4767
G01 X51.9688 Y28.4847
G01 X51.9864 Y28.4913
G01 X51.9944 Y28.4937
G01 X52.0106 Y28.4976
G01 X52.0312 Y28.5007
G01 X52.0520 Y28.5017
G01 X52.0686 Y28.5010
G01 X52.0749 Y28.5005
G01 X52.0934 Y28.4976
G01 X52.1136 Y28.4926
G01 X52.1332 Y28.4856
G01 X52.1502 Y28.4776
G01 X52.1557 Y28.4746
G01 X52.1700 Y28.4659
G01 X52.4731 Y28.2634
G01 X52.7399 Y28.2103
G01 X53.7201 Y28.2103
G01 X53.9869 Y28.2634
G01 X54.2895 Y28.4655
G01 X54.4916 Y28.7681
G01 X54.5626 Y29.1250
G01 X54.4916 Y29.4819
G01 X54.2895 Y29.7845
G01 X53.9869 Y29.9866
G01 X53.7201 Y30.0397
G01 X52.7399 Y30.0397
G01 X52.4731 Y29.9866
G01 X52.1682 Y29.7829
G01 X52.1539 Y29.7744
G01 X52.1483 Y29.7715
G01 X52.1332 Y29.7644
G01 X52.1156 Y29.7580
G01 X52.0934 Y29.7524
G01 X52.0728 Y29.7493
G01 X52.0520 Y29.7483
G01 X52.0333 Y29.7491
G01 X52.0270 Y29.7498
G01 X52.0126 Y29.7520
G01 X52.0065 Y29.7533
G01 X51.9904 Y29.7574
G01 X51.9747 Y29.7629
G01 X51.9688 Y29.7653
G01 X51.9519 Y29.7733
G01 X51.9340 Y29.7841
G01 X51.9173 Y29.7965
G01 X51.9034 Y29.8090
G01 X51.8990 Y29.8135
G01 X51.8892 Y29.8243
G01 X51.8853 Y29.8292
G01 X51.8755 Y29.8426
G01 X51.8668 Y29.8569
G01 X51.8638 Y29.8624
G01 X51.8558 Y29.8793
G01 X51.8488 Y29.8990
G01 X51.8438 Y29.9192
G01 X51.8409 Y29.9377
G01 X51.8404 Y29.9440
G01 X51.8397 Y29.9606
G01 X51.8397 Y30.8315
G01 X51.8405 Y30.8481
G01 X51.8412 Y30.8544
G01 X51.8438 Y30.8708
G01 X51.8477 Y30.8870
G01 X51.8495 Y30.8930
G01 X51.8558 Y30.9107
G01 X51.8648 Y30.9295
G01 X51.8755 Y30.9474
G01 X51.8853 Y30.9608
G01 X51.8892 Y30.9657
G01 X51.9019 Y30.9795
G01 X51.9157 Y30.9922
G01 X51.9206 Y30.9961
G01 X51.9340 Y31.0059
G01 X51.9519 Y31.0167
G01 X51.9688 Y31.0247
G01 X51.9747 Y31.0271
G01 X51.9904 Y31.0326
G01 X52.0106 Y31.0376
G01 X52.0291 Y31.0405
G01 X52.0354 Y31.0410
G01 X52.0520 Y31.0417
G01 X52.0728 Y31.0407
G01 X52.0934 Y31.0376
G01 X52.1136 Y31.0326
G01 X52.1332 Y31.0256
G01 X52.1502 Y31.0176
G01 X52.1557 Y31.0146
G01 X52.1700 Y31.0059
G01 X52.4731 Y30.8034
G01 X52.7399 Y30.7503
G01 X53.7201 Y30.7503
G01 X53.9869 Y30.8034
G01 X54.2895 Y31.0055
G01 X54.3243 Y31.0577
G01 X54.3355 Y31.0727
G01 X54.3481 Y31.0866
G01 X54.3526 Y31.0910
G01 X54.3650 Y31.1021
G01 X54.3783 Y31.1121
G01 X54.3835 Y31.1157
G01 X54.3996 Y31.1252
G01 X54.4184 Y31.1342
G01 X54.4380 Y31.1412
G01 X54.4582 Y31.1462
G01 X54.4789 Y31.1493
G01 X54.4997 Y31.1503
G01 X55.6984 Y31.1503
G01 X55.7171 Y31.1495
G01 X55.7234 Y31.1488
G01 X55.7378 Y31.1466
G01 X55.7700 Y31.1402
G01 X55.9708 Y31.1802
G01 X56.1411 Y31.2939
G01 X56.2548 Y31.4642
G01 X56.2948 Y31.6650
G01 X56.2884 Y31.6972
G01 X56.2862 Y31.7116
G01 X56.2855 Y31.7179
G01 X56.2847 Y31.7366
G01 X56.2847 Y44.4639
G01 X56.2857 Y44.4847
G01 X56.2881 Y44.5012
G01 X56.2897 Y44.5094
G01 X56.2945 Y44.5275
G01 X56.3001 Y44.5432
G01 X56.3025 Y44.5489
G01 X56.3098 Y44.5640
G01 X56.3182 Y44.5783
G01 X56.3217 Y44.5835
G01 X56.3316 Y44.5969
G01 X56.3454 Y44.6125
G01 X56.7195 Y44.9866
G01 X56.7349 Y45.0006
G01 X56.7516 Y45.0130
G01 X56.7695 Y45.0237
G01 X56.7845 Y45.0309
G01 X56.7922 Y45.0341
G01 X56.8060 Y45.0390
G01 X56.8120 Y45.0407
G01 X56.8282 Y45.0447
G01 X56.8488 Y45.0477
G01 X56.8696 Y45.0488
G01 X56.8862 Y45.0480
G01 X56.8945 Y45.0472
G01 X56.9089 Y45.0451
G01 X56.9151 Y45.0438
G01 X56.9312 Y45.0396
G01 X56.9508 Y45.0326
G01 X56.9697 Y45.0237
G01 X56.9840 Y45.0152
G01 X56.9893 Y45.0118
G01 X57.0043 Y45.0006
G01 X57.0197 Y44.9866
G01 X57.0337 Y44.9711
G01 X57.0461 Y44.9544
G01 X57.0558 Y44.9384
G01 X57.0587 Y44.9328
G01 X57.0649 Y44.9196
G01 X57.0672 Y44.9138
G01 X57.0728 Y44.8981
G01 X57.0769 Y44.8820
G01 X57.0782 Y44.8758
G01 X57.0806 Y44.8593
G01 X57.0818 Y44.8406
G01 X57.0818 Y44.8323
G01 X57.0806 Y44.8136
G01 X57.0778 Y44.7950
G01 X57.0733 Y44.7768
G01 X57.0649 Y44.7533
G01 X57.0568 Y44.7364
G01 X57.0484 Y44.7222
G01 X56.9774 Y44.3650
G01 X57.0484 Y44.0081
G01 X57.2505 Y43.7055
G01 X57.5531 Y43.5034
G01 X57.8199 Y43.4503
G01 X58.8001 Y43.4503
G01 X59.0669 Y43.5034
G01 X59.3695 Y43.7055
G01 X59.4055 Y43.7594
G01 X59.4155 Y43.7727
G01 X59.4295 Y43.7881
G01 X59.4450 Y43.8021
G01 X59.4617 Y43.8145
G01 X59.4796 Y43.8252
G01 X59.4965 Y43.8333
G01 X59.5023 Y43.8357
G01 X59.5180 Y43.8412
G01 X59.5382 Y43.8462
G01 X59.5589 Y43.8493
G01 X59.5776 Y43.8503
G01 X59.9139 Y43.8503
G01 X59.9347 Y43.8493
G01 X59.9553 Y43.8462
G01 X59.9755 Y43.8412
G01 X59.9912 Y43.8357
G01 X59.9989 Y43.8325
G01 X60.0121 Y43.8262
G01 X60.0176 Y43.8232
G01 X60.0335 Y43.8133
G01 X60.0469 Y43.8034
G01 X60.0517 Y43.7994
G01 X60.0640 Y43.7881
G01 X60.2731 Y43.5790
G01 X60.2858 Y43.5652
G01 X60.2995 Y43.5468
G01 X60.3112 Y43.5271
G01 X60.3183 Y43.5120
G01 X60.3207 Y43.5062
G01 X60.3262 Y43.4905
G01 X60.3303 Y43.4744
G01 X60.3316 Y43.4682
G01 X60.3343 Y43.4497
G01 X60.3353 Y43.4289
G01 X60.3353 Y40.1261
G01 X60.3343 Y40.1053
G01 X60.3316 Y40.0868
G01 X60.3303 Y40.0806
G01 X60.3262 Y40.0645
G01 X60.3207 Y40.0488
G01 X60.3183 Y40.0430
G01 X60.3112 Y40.0279
G01 X60.2983 Y40.0065
G01 X60.2871 Y39.9914
G01 X60.2760 Y39.9790
G01 X60.1560 Y39.8590
G01 X60.1452 Y39.8492
G01 X60.1403 Y39.8453
G01 X60.1268 Y39.8355
G01 X60.1126 Y39.8268
G01 X60.1071 Y39.8238
G01 X60.0901 Y39.8158
G01 X60.0705 Y39.8088
G01 X60.0523 Y39.8042
G01 X60.0462 Y39.8031
G01 X60.0297 Y39.8007
G01 X60.0110 Y39.7997
G01 X59.5755 Y39.7998
G01 X59.5589 Y39.8007
G01 X59.5424 Y39.8031
G01 X59.5362 Y39.8042
G01 X59.5180 Y39.8088
G01 X59.4984 Y39.8158
G01 X59.4833 Y39.8229
G01 X59.4777 Y39.8258
G01 X59.4617 Y39.8355
G01 X59.4466 Y39.8466
G01 X59.4418 Y39.8506
G01 X59.4295 Y39.8619
G01 X59.4169 Y39.8757
G01 X59.4043 Y39.8923
G01 X59.3695 Y39.9445
G01 X59.0669 Y40.1466
G01 X58.8001 Y40.1997
G01 X57.8199 Y40.1997
G01 X57.5531 Y40.1466
G01 X57.2505 Y39.9445
G01 X57.0484 Y39.6419
G01 X56.9774 Y39.2850
G01 X57.0484 Y38.9281
G01 X57.2505 Y38.6255
G01 X57.5531 Y38.4234
G01 X57.8199 Y38.3703
G01 X58.8001 Y38.3703
G01 X59.0669 Y38.4234
G01 X59.3695 Y38.6255
G01 X59.4031 Y38.6760
G01 X59.4142 Y38.6911
G01 X59.4281 Y38.7066
G01 X59.4418 Y38.7194
G01 X59.4466 Y38.7234
G01 X59.4617 Y38.7345
G01 X59.4796 Y38.7452
G01 X59.4984 Y38.7542
G01 X59.5160 Y38.7605
G01 X59.5221 Y38.7623
G01 X59.5382 Y38.7662
G01 X59.5547 Y38.7688
G01 X59.5609 Y38.7695
G01 X59.5797 Y38.7703
G01 X60.2384 Y38.7703
G01 X60.2571 Y38.7695
G01 X60.2634 Y38.7688
G01 X60.2778 Y38.7666
G01 X60.3100 Y38.7602
G01 X60.5108 Y38.8002
G01 X60.6811 Y38.9139
G01 X60.6993 Y38.9412
G01 X60.7080 Y38.9530
G01 X60.7119 Y38.9579
G01 X60.7246 Y38.9717
G01 X61.1648 Y39.4119
G01 X61.1771 Y39.4231
G01 X61.1820 Y39.4270
G01 X61.1938 Y39.4357
G01 X61.2211 Y39.4539
G01 X61.3348 Y39.6242
G01 X61.3748 Y39.8250
G01 X61.3684 Y39.8572
G01 X61.3662 Y39.8716
G01 X61.3655 Y39.8779
G01 X61.3647 Y39.8966
G01 X61.3647 Y43.6584
G01 X61.3655 Y43.6771
G01 X61.3662 Y43.6834
G01 X61.3684 Y43.6978
G01 X61.3748 Y43.7300
G01 X61.3348 Y43.9308
G01 X61.2211 Y44.1011
G01 X61.1938 Y44.1193
G01 X61.1821 Y44.1280
G01 X61.1772 Y44.1319
G01 X61.1633 Y44.1446
G01 X60.6296 Y44.6783
G01 X60.6169 Y44.6921
G01 X60.6130 Y44.6970
G01 X60.6043 Y44.7088
G01 X60.5861 Y44.7361
G01 X60.4158 Y44.8498
G01 X60.2150 Y44.8898
G01 X60.1828 Y44.8834
G01 X60.1684 Y44.8812
G01 X60.1621 Y44.8805
G01 X60.1434 Y44.8797
G01 X59.5776 Y44.8797
G01 X59.5609 Y44.8805
G01 X59.5547 Y44.8812
G01 X59.5382 Y44.8838
G01 X59.5200 Y44.8882
G01 X59.4984 Y44.8958
G01 X59.4796 Y44.9048
G01 X59.4617 Y44.9155
G01 X59.4466 Y44.9266
G01 X59.4418 Y44.9306
G01 X59.4281 Y44.9434
G01 X59.4142 Y44.9589
G01 X59.4031 Y44.9740
G01 X59.3695 Y45.0245
G01 X59.0669 Y45.2266
G01 X58.8001 Y45.2797
G01 X57.8199 Y45.2797
G01 X57.5528 Y45.2266
G01 X57.5386 Y45.2182
G01 X57.5236 Y45.2110
G01 X57.5179 Y45.2085
G01 X57.5042 Y45.2036
G01 X57.4982 Y45.2017
G01 X57.4820 Y45.1976
G01 X57.4614 Y45.1944
G01 X57.4427 Y45.1932
G01 X57.4344 Y45.1932
G01 X57.4177 Y45.1941
G01 X57.3971 Y45.1972
G01 X57.3769 Y45.2022
G01 X57.3612 Y45.2078
G01 X57.3535 Y45.2110
G01 X57.3403 Y45.2172
G01 X57.3348 Y45.2202
G01 X57.3206 Y45.2289
G01 X57.3039 Y45.2413
G01 X57.2884 Y45.2553
G01 X57.2744 Y45.2707
G01 X57.2620 Y45.2875
G01 X57.2513 Y45.3053
G01 X57.2424 Y45.3242
G01 X57.2360 Y45.3418
G01 X57.2303 Y45.3640
G01 X57.2275 Y45.3825
G01 X57.2263 Y45.4033
G01 X57.2270 Y45.4221
G01 X57.2278 Y45.4304
G01 X57.2299 Y45.4448
G01 X57.2312 Y45.4509
G01 X57.2360 Y45.4690
G01 X57.2416 Y45.4847
G01 X57.2441 Y45.4905
G01 X57.2513 Y45.5055
G01 X57.2620 Y45.5234
G01 X57.2744 Y45.5401
G01 X57.2870 Y45.5541
G01 X57.6546 Y45.9217
G01 X57.6684 Y45.9344
G01 X57.6850 Y45.9469
G01 X57.7010 Y45.9568
G01 X57.7084 Y45.9607
G01 X57.7254 Y45.9685
G01 X57.7431 Y45.9748
G01 X57.7633 Y45.9798
G01 X57.7839 Y45.9829
G01 X57.8005 Y45.9838
G01 X59.4891 Y45.9839
G01 X59.5547 Y45.9970
G01 X59.5927 Y46.0223
G01 X59.6180 Y46.0603
G01 X59.6311 Y46.1259
G01 X59.6311 Y47.4235
G01 X59.6321 Y47.4443
G01 X59.6352 Y47.4649
G01 X59.6402 Y47.4851
G01 X59.6473 Y47.5047
G01 X59.6562 Y47.5235
G01 X59.6657 Y47.5397
G01 X59.6693 Y47.5448
G01 X59.6806 Y47.5598
G01 X59.6918 Y47.5721
G01 X59.6963 Y47.5765
G01 X59.7087 Y47.5876
G01 X59.7220 Y47.5976
G01 X59.7272 Y47.6011
G01 X59.7397 Y47.6086
G01 X59.7452 Y47.6117
G01 X59.7622 Y47.6196
G01 X59.7818 Y47.6266
G01 X59.8020 Y47.6317
G01 X59.8226 Y47.6348
G01 X59.8434 Y47.6358
G01 X59.8642 Y47.6348
G01 X59.8848 Y47.6317
G01 X59.9030 Y47.6272
G01 X59.9090 Y47.6253
G01 X59.9227 Y47.6204
G01 X59.9285 Y47.6179
G01 X59.9435 Y47.6107
G01 X59.9578 Y47.6022
G01 X59.9631 Y47.5988
G01 X59.9781 Y47.5876
G01 X59.9935 Y47.5736
G01 X63.5154 Y44.0517
G01 X63.5281 Y44.0379
G01 X63.5320 Y44.0330
G01 X63.5407 Y44.0212
G01 X63.5589 Y43.9939
G01 X63.7292 Y43.8802
G01 X63.8301 Y43.8601
G01 X63.8504 Y43.8550
G01 X63.8700 Y43.8480
G01 X63.8851 Y43.8410
G01 X63.8906 Y43.8381
G01 X63.9067 Y43.8284
G01 X63.9234 Y43.8160
G01 X63.9389 Y43.8020
G01 X63.9528 Y43.7865
G01 X63.9653 Y43.7698
G01 X63.9760 Y43.7519
G01 X63.9849 Y43.7331
G01 X63.9919 Y43.7135
G01 X63.9965 Y43.6953
G01 X64.0000 Y43.6727
G01 X64.0010 Y43.6540
G01 X64.0009 Y43.6477
G01 X64.0000 Y43.6310
G01 X63.9977 Y43.6146
G01 X63.9965 Y43.6084
G01 X63.9925 Y43.5922
G01 X63.9849 Y43.5706
G01 X63.9750 Y43.5499
G01 X63.9664 Y43.5357
G01 X63.9628 Y43.5305
G01 X63.9528 Y43.5172
G01 X63.9417 Y43.5048
G01 X62.4417 Y42.0046
G01 X62.4279 Y41.9919
G01 X62.4230 Y41.9880
G01 X62.4112 Y41.9793
G01 X62.3839 Y41.9611
G01 X62.2702 Y41.7908
G01 X62.2302 Y41.5900
G01 X62.2366 Y41.5578
G01 X62.2388 Y41.5434
G01 X62.2395 Y41.5371
G01 X62.2403 Y41.5184
G01 X62.2403 Y38.5511
G01 X62.2393 Y38.5303
G01 X62.2366 Y38.5118
G01 X62.2353 Y38.5056
G01 X62.2312 Y38.4895
G01 X62.2257 Y38.4738
G01 X62.2233 Y38.4680
G01 X62.2152 Y38.4510
G01 X62.2045 Y38.4332
G01 X62.1947 Y38.4197
G01 X62.1908 Y38.4148
G01 X62.1781 Y38.4010
G01 X59.8991 Y36.1220
G01 X59.8835 Y36.1081
G01 X59.8701 Y36.0982
G01 X59.8648 Y36.0948
G01 X59.8505 Y36.0863
G01 X59.8355 Y36.0791
G01 X59.8297 Y36.0766
G01 X59.8140 Y36.0710
G01 X59.7918 Y36.0653
G01 X59.7712 Y36.0623
G01 X59.7504 Y36.0612
G01 X59.7317 Y36.0621
G01 X59.7255 Y36.0628
G01 X59.7090 Y36.0653
G01 X59.6928 Y36.0693
G01 X59.6868 Y36.0710
G01 X59.6731 Y36.0759
G01 X59.6672 Y36.0782
G01 X59.6503 Y36.0863
G01 X59.6325 Y36.0970
G01 X59.6157 Y36.1094
G01 X59.6018 Y36.1220
G01 X59.5974 Y36.1265
G01 X59.5863 Y36.1389
G01 X59.5763 Y36.1522
G01 X59.5727 Y36.1574
G01 X59.5642 Y36.1716
G01 X59.5560 Y36.1885
G01 X59.5528 Y36.1962
G01 X59.5472 Y36.2119
G01 X59.5422 Y36.2321
G01 X59.5391 Y36.2527
G01 X59.5382 Y36.2694
G01 X59.5381 Y36.2756
G01 X59.5388 Y36.2902
G01 X59.5396 Y36.2985
G01 X59.5426 Y36.3170
G01 X59.5467 Y36.3332
G01 X59.5486 Y36.3392
G01 X59.5535 Y36.3529
G01 X59.5560 Y36.3586
G01 X59.5632 Y36.3736
G01 X59.5716 Y36.3878
G01 X59.6426 Y36.7450
G01 X59.5716 Y37.1019
G01 X59.3695 Y37.4045
G01 X59.0669 Y37.6066
G01 X58.8001 Y37.6597
G01 X57.8199 Y37.6597
G01 X57.5531 Y37.6066
G01 X57.2505 Y37.4045
G01 X57.0484 Y37.1019
G01 X56.9774 Y36.7450
G01 X57.0484 Y36.3881
G01 X57.2505 Y36.0855
G01 X57.5531 Y35.8834
G01 X57.8199 Y35.8303
G01 X58.8001 Y35.8303
G01 X59.0672 Y35.8834
G01 X59.0814 Y35.8918
G01 X59.1002 Y35.9007
G01 X59.1198 Y35.9078
G01 X59.1380 Y35.9124
G01 X59.1627 Y35.9161
G01 X59.1814 Y35.9169
G01 X59.1981 Y35.9162
G01 X59.2043 Y35.9156
G01 X59.2229 Y35.9128
G01 X59.2411 Y35.9083
G01 X59.2471 Y35.9064
G01 X59.2627 Y35.9007
G01 X59.2797 Y35.8928
G01 X59.3011 Y35.8799
G01 X59.3161 Y35.8687
G01 X59.3285 Y35.8576
G01 X59.3330 Y35.8532
G01 X59.3456 Y35.8393
G01 X59.3568 Y35.8243
G01 X59.3602 Y35.8190
G01 X59.3687 Y35.8047
G01 X59.3759 Y35.7897
G01 X59.3784 Y35.7839
G01 X59.3846 Y35.7662
G01 X59.3892 Y35.7480
G01 X59.3904 Y35.7419
G01 X59.3927 Y35.7254
G01 X59.3937 Y35.7088
G01 X59.3937 Y35.7025
G01 X59.3927 Y35.6838
G01 X59.3901 Y35.6652
G01 X59.3888 Y35.6591
G01 X59.3846 Y35.6429
G01 X59.3791 Y35.6272
G01 X59.3768 Y35.6214
G01 X59.3687 Y35.6045
G01 X59.3591 Y35.5884
G01 X59.3556 Y35.5832
G01 X59.3456 Y35.5699
G01 X59.3316 Y35.5545
G01 X58.9590 Y35.1819
G01 X58.9452 Y35.1692
G01 X58.9403 Y35.1653
G01 X58.9268 Y35.1555
G01 X58.9090 Y35.1448
G01 X58.8901 Y35.1358
G01 X58.8725 Y35.1295
G01 X58.8665 Y35.1277
G01 X58.8503 Y35.1238
G01 X58.8338 Y35.1212
G01 X58.8276 Y35.1205
G01 X58.8110 Y35.1197
G01 X57.8199 Y35.1197
G01 X57.5531 Y35.0666
G01 X57.2505 Y34.8645
G01 X57.0484 Y34.5619
G01 X56.9774 Y34.2050
G01 X57.0484 Y33.8481
G01 X57.2505 Y33.5455
G01 X57.5531 Y33.3434
G01 X57.8199 Y33.2903
G01 X58.8001 Y33.2903
G01 X59.0669 Y33.3434
G01 X59.3695 Y33.5455
G01 X59.5716 Y33.8481
G01 X59.6426 Y34.2050
G01 X59.6304 Y34.2665
G01 X59.6277 Y34.2851
G01 X59.6267 Y34.3038
G01 X59.6268 Y34.3101
G01 X59.6277 Y34.3267
G01 X59.6304 Y34.3452
G01 X59.6365 Y34.3695
G01 X59.6429 Y34.3871
G01 X59.6499 Y34.4022
G01 X59.6528 Y34.4078
G01 X59.6625 Y34.4238
G01 X59.6762 Y34.4422
G01 X59.6889 Y34.4560
G01 X63.0683 Y37.8354
G01 X63.0821 Y37.8481
G01 X63.0870 Y37.8520
G01 X63.0988 Y37.8607
G01 X63.1261 Y37.8789
G01 X63.1989 Y37.9879
G01 X63.2101 Y38.0029
G01 X63.2241 Y38.0183
G01 X63.2395 Y38.0323
G01 X63.2546 Y38.0435
G01 X63.2598 Y38.0470
G01 X63.2742 Y38.0554
G01 X63.2892 Y38.0626
G01 X63.2949 Y38.0651
G01 X63.3106 Y38.0707
G01 X63.3328 Y38.0764
G01 X63.3513 Y38.0793
G01 X63.3576 Y38.0798
G01 X63.3742 Y38.0805
G01 X63.3909 Y38.0798
G01 X63.3971 Y38.0793
G01 X63.4157 Y38.0764
G01 X63.4339 Y38.0719
G01 X63.4398 Y38.0701
G01 X63.4555 Y38.0643
G01 X63.4706 Y38.0573
G01 X63.4762 Y38.0544
G01 X63.4922 Y38.0447
G01 X63.5105 Y38.0310
G01 X63.5244 Y38.0183
G01 X63.5370 Y38.0045
G01 X63.5496 Y37.9879
G01 X63.5589 Y37.9739
G01 X63.5862 Y37.9557
G01 X63.5980 Y37.9470
G01 X63.6029 Y37.9431
G01 X63.6167 Y37.9304
G01 X64.5511 Y36.9960
G01 X64.5638 Y36.9822
G01 X64.5787 Y36.9621
G01 X64.5882 Y36.9460
G01 X64.5954 Y36.9310
G01 X64.5979 Y36.9252
G01 X64.6042 Y36.9075
G01 X64.6096 Y36.8852
G01 X64.6123 Y36.8667
G01 X64.6132 Y36.8501
G01 X64.6133 Y36.8438
G01 X64.6123 Y36.8251
G01 X64.6096 Y36.8065
G01 X64.5974 Y36.7450
G01 X64.6684 Y36.3881
G01 X64.8705 Y36.0855
G01 X65.1731 Y35.8834
G01 X65.4399 Y35.8303
G01 X66.4201 Y35.8303
G01 X66.6869 Y35.8834
G01 X66.9895 Y36.0855
G01 X67.1916 Y36.3881
G01 X67.2626 Y36.7450
G01 X67.1916 Y37.1019
G01 X66.9895 Y37.4045
G01 X66.6869 Y37.6066
G01 X66.4201 Y37.6597
G01 X65.4290 Y37.6597
G01 X65.4103 Y37.6607
G01 X65.3897 Y37.6638
G01 X65.3695 Y37.6688
G01 X65.3518 Y37.6751
G01 X65.3310 Y37.6848
G01 X65.3132 Y37.6955
G01 X65.2964 Y37.7079
G01 X65.2825 Y37.7204
G01 X64.9084 Y38.0945
G01 X64.8958 Y38.1083
G01 X64.8820 Y38.1266
G01 X64.8713 Y38.1445
G01 X64.8624 Y38.1633
G01 X64.8560 Y38.1810
G01 X64.8503 Y38.2032
G01 X64.8475 Y38.2217
G01 X64.8463 Y38.2425
G01 X64.8470 Y38.2612
G01 X64.8475 Y38.2675
G01 X64.8499 Y38.2839
G01 X64.8543 Y38.3022
G01 X64.8567 Y38.3102
G01 X64.8616 Y38.3239
G01 X64.8641 Y38.3297
G01 X64.8713 Y38.3447
G01 X64.8820 Y38.3625
G01 X64.8944 Y38.3793
G01 X64.9084 Y38.3947
G01 X64.9239 Y38.4087
G01 X64.9406 Y38.4211
G01 X64.9585 Y38.4318
G01 X64.9735 Y38.4390
G01 X64.9812 Y38.4422
G01 X64.9949 Y38.4471
G01 X65.0010 Y38.4489
G01 X65.0171 Y38.4528
G01 X65.0377 Y38.4559
G01 X65.0586 Y38.4569
G01 X65.0752 Y38.4562
G01 X65.0835 Y38.4554
G01 X65.1020 Y38.4524
G01 X65.1202 Y38.4478
G01 X65.1398 Y38.4407
G01 X65.1586 Y38.4318
G01 X65.1728 Y38.4234
G01 X65.4399 Y38.3703
G01 X66.4201 Y38.3703
G01 X66.6869 Y38.4234
G01 X66.9895 Y38.6255
G01 X67.1916 Y38.9281
G01 X67.2626 Y39.2850
G01 X67.1916 Y39.6419
G01 X66.9895 Y39.9445
G01 X66.6869 Y40.1466
G01 X66.4201 Y40.1997
G01 X65.4399 Y40.1997
G01 X65.1728 Y40.1466
G01 X65.1586 Y40.1382
G01 X65.1398 Y40.1293
G01 X65.1202 Y40.1222
G01 X65.1020 Y40.1176
G01 X65.0835 Y40.1146
G01 X65.0752 Y40.1138
G01 X65.0586 Y40.1131
G01 X65.0377 Y40.1141
G01 X65.0171 Y40.1172
G01 X64.9969 Y40.1222
G01 X64.9773 Y40.1293
G01 X64.9585 Y40.1382
G01 X64.9406 Y40.1489
G01 X64.9239 Y40.1613
G01 X64.9084 Y40.1753
G01 X64.8972 Y40.1876
G01 X64.8931 Y40.1924
G01 X64.8832 Y40.2057
G01 X64.8734 Y40.2217
G01 X64.8703 Y40.2272
G01 X64.8641 Y40.2403
G01 X64.8609 Y40.2481
G01 X64.8548 Y40.2658
G01 X64.8499 Y40.2861
G01 X64.8473 Y40.3046
G01 X64.8463 Y40.3275
G01 X64.8473 Y40.3462
G01 X64.8503 Y40.3668
G01 X64.8554 Y40.3871
G01 X64.8616 Y40.4047
G01 X64.8703 Y40.4236
G01 X64.8798 Y40.4398
G01 X64.8832 Y40.4451
G01 X64.8919 Y40.4568
G01 X64.8972 Y40.4633
G01 X64.9084 Y40.4755
G01 X65.2825 Y40.8496
G01 X65.2964 Y40.8621
G01 X65.3132 Y40.8745
G01 X65.3310 Y40.8852
G01 X65.3518 Y40.8949
G01 X65.3695 Y40.9012
G01 X65.3897 Y40.9062
G01 X65.4103 Y40.9093
G01 X65.4290 Y40.9103
G01 X66.4201 Y40.9103
G01 X66.6869 Y40.9634
G01 X66.9895 Y41.1655
G01 X67.1916 Y41.4681
G01 X67.2626 Y41.8250
G01 X67.1916 Y42.1819
G01 X66.9895 Y42.4845
G01 X66.6869 Y42.6866
G01 X66.4201 Y42.7397
G01 X65.4399 Y42.7397
G01 X65.1728 Y42.6866
G01 X65.1586 Y42.6782
G01 X65.1398 Y42.6693
G01 X65.1202 Y42.6623
G01 X65.1020 Y42.6576
G01 X65.0835 Y42.6546
G01 X65.0752 Y42.6538
G01 X65.0586 Y42.6531
G01 X65.0377 Y42.6541
G01 X65.0171 Y42.6572
G01 X64.9969 Y42.6623
G01 X64.9773 Y42.6693
G01 X64.9585 Y42.6782
G01 X64.9406 Y42.6889
G01 X64.9239 Y42.7013
G01 X64.9084 Y42.7153
G01 X64.8972 Y42.7276
G01 X64.8931 Y42.7324
G01 X64.8832 Y42.7457
G01 X64.8734 Y42.7617
G01 X64.8694 Y42.7691
G01 X64.8632 Y42.7823
G01 X64.8609 Y42.7881
G01 X64.8548 Y42.8058
G01 X64.8499 Y42.8261
G01 X64.8473 Y42.8446
G01 X64.8463 Y42.8675
G01 X64.8473 Y42.8862
G01 X64.8503 Y42.9068
G01 X64.8554 Y42.9271
G01 X64.8616 Y42.9447
G01 X64.8703 Y42.9636
G01 X64.8798 Y42.9798
G01 X64.8832 Y42.9851
G01 X64.8919 Y42.9968
G01 X64.8972 Y43.0033
G01 X64.9084 Y43.0156
G01 X65.2825 Y43.3896
G01 X65.2964 Y43.4021
G01 X65.3132 Y43.4145
G01 X65.3311 Y43.4252
G01 X65.3518 Y43.4349
G01 X65.3695 Y43.4412
G01 X65.3897 Y43.4462
G01 X65.4103 Y43.4493
G01 X65.4290 Y43.4503
G01 X66.4201 Y43.4503
G01 X66.6869 Y43.5034
G01 X66.9895 Y43.7055
G01 X67.1916 Y44.0081
G01 X67.2626 Y44.3650
G01 X67.1916 Y44.7219
G01 X66.9895 Y45.0245
G01 X66.6869 Y45.2266
G01 X66.4201 Y45.2797
G01 X65.4399 Y45.2797
G01 X65.1731 Y45.2266
G01 X64.8705 Y45.0245
G01 X64.8369 Y44.9740
G01 X64.8258 Y44.9589
G01 X64.8119 Y44.9434
G01 X64.7982 Y44.9306
G01 X64.7934 Y44.9266
G01 X64.7783 Y44.9155
G01 X64.7604 Y44.9048
G01 X64.7416 Y44.8958
G01 X64.7200 Y44.8882
G01 X64.7018 Y44.8838
G01 X64.6853 Y44.8812
G01 X64.6791 Y44.8805
G01 X64.6624 Y44.8797
G01 X64.2269 Y44.8798
G01 X64.2103 Y44.8807
G01 X64.1938 Y44.8831
G01 X64.1877 Y44.8842
G01 X64.1695 Y44.8888
G01 X64.1518 Y44.8951
G01 X64.1461 Y44.8975
G01 X64.1310 Y44.9048
G01 X64.1149 Y44.9143
G01 X64.0964 Y44.9279
G01 X64.0810 Y44.9419
G01 X59.2646 Y49.7583
G01 X59.2519 Y49.7721
G01 X59.2480 Y49.7770
G01 X59.2393 Y49.7888
G01 X59.2211 Y49.8161
G01 X59.0508 Y49.9298
G01 X58.8500 Y49.9698
G01 X58.8178 Y49.9634
G01 X58.8034 Y49.9612
G01 X58.7971 Y49.9605
G01 X58.7784 Y49.9597
G01 X55.0361 Y49.9597
G01 X55.0174 Y49.9605
G01 X55.0112 Y49.9612
G01 X54.9947 Y49.9638
G01 X54.9765 Y49.9682
G01 X54.9530 Y49.9767
G01 X54.9360 Y49.9848
G01 X54.9217 Y49.9932
G01 X54.9148 Y49.9979
G01 X54.8998 Y50.0092
G01 X54.8860 Y50.0219
G01 X54.5134 Y50.3945
G01 X54.5008 Y50.4083
G01 X54.4870 Y50.4266
G01 X54.4773 Y50.4427
G01 X54.4744 Y50.4482
G01 X54.4674 Y50.4633
G01 X54.4617 Y50.4790
G01 X54.4598 Y50.4850
G01 X54.4553 Y50.5032
G01 X54.4525 Y50.5217
G01 X54.4520 Y50.5279
G01 X54.4512 Y50.5446
G01 X54.4520 Y50.5612
G01 X54.4525 Y50.5675
G01 X54.4553 Y50.5860
G01 X54.4604 Y50.6062
G01 X54.4674 Y50.6258
G01 X54.4744 Y50.6409
G01 X54.4773 Y50.6465
G01 X54.4870 Y50.6625
G01 X54.4981 Y50.6776
G01 X54.5022 Y50.6824
G01 X54.5134 Y50.6947
G01 X54.5289 Y50.7087
G01 X54.5456 Y50.7211
G01 X54.5598 Y50.7298
G01 X54.5653 Y50.7328
G01 X54.5823 Y50.7407
G01 X54.5999 Y50.7471
G01 X54.6060 Y50.7489
G01 X54.6221 Y50.7528
G01 X54.6407 Y50.7556
G01 X54.6594 Y50.7568
G01 X54.6677 Y50.7568
G01 X54.6844 Y50.7559
G01 X54.7050 Y50.7528
G01 X54.7252 Y50.7478
G01 X54.7448 Y50.7407
G01 X54.7636 Y50.7318
G01 X54.7778 Y50.7234
G01 X55.1350 Y50.6524
G01 X55.4919 Y50.7234
G01 X55.7945 Y50.9255
G01 X55.9966 Y51.2281
G01 X56.0497 Y51.4949
G01 X56.0497 Y52.4860
G01 X56.0507 Y52.5047
G01 X56.0538 Y52.5253
G01 X56.0588 Y52.5455
G01 X56.0651 Y52.5632
G01 X56.0748 Y52.5840
G01 X56.0855 Y52.6018
G01 X56.0979 Y52.6186
G01 X56.1104 Y52.6325
G01 X56.4875 Y53.0095
G01 X56.4999 Y53.0206
G01 X56.5166 Y53.0330
G01 X56.5345 Y53.0437
G01 X56.5514 Y53.0518
G01 X56.5710 Y53.0590
G01 X56.5891 Y53.0638
G01 X56.5973 Y53.0654
G01 X56.6159 Y53.0679
G01 X56.6346 Y53.0688
G01 X56.6554 Y53.0677
G01 X56.6760 Y53.0647
G01 X56.6962 Y53.0596
G01 X56.7158 Y53.0526
G01 X56.7347 Y53.0437
G01 X56.7525 Y53.0330
G01 X56.7660 Y53.0231
G01 X56.7709 Y53.0192
G01 X56.7832 Y53.0080
G01 X56.7960 Y52.9943
G01 X56.8013 Y52.9878
G01 X56.8099 Y52.9761
G01 X56.8134 Y52.9709
G01 X56.8218 Y52.9565
G01 X56.8307 Y52.9377
G01 X56.8378 Y52.9181
G01 X56.8428 Y52.8979
G01 X56.8459 Y52.8773
G01 X56.8469 Y52.8564
G01 X56.8459 Y52.8356
G01 X56.8428 Y52.8150
G01 X56.8378 Y52.7948
G01 X56.8307 Y52.7752
G01 X56.8218 Y52.7564
G01 X56.8134 Y52.7422
G01 X56.7603 Y52.4751
G01 X56.7603 Y51.4949
G01 X56.8134 Y51.2281
G01 X57.0155 Y50.9255
G01 X57.3181 Y50.7234
G01 X57.6750 Y50.6524
G01 X58.0319 Y50.7234
G01 X58.3345 Y50.9255
G01 X58.5366 Y51.2281
G01 X58.5897 Y51.4949
G01 X58.5897 Y52.4751
G01 X58.5366 Y52.7419
G01 X58.3345 Y53.0445
G01 X58.0319 Y53.2466
G01 X57.6750 Y53.3176
G01 X57.3178 Y53.2466
G01 X57.3036 Y53.2382
G01 X57.2848 Y53.2293
G01 X57.2652 Y53.2223
G01 X57.2450 Y53.2172
G01 X57.2244 Y53.2141
G01 X57.2036 Y53.2131
G01 X57.1827 Y53.2141
G01 X57.1663 Y53.2165
G01 X57.1601 Y53.2176
G01 X57.1460 Y53.2211
G01 X57.1379 Y53.2236
G01 X57.1223 Y53.2293
G01 X57.1035 Y53.2382
G01 X57.0856 Y53.2489
G01 X57.0722 Y53.2587
G01 X57.0673 Y53.2626
G01 X57.0565 Y53.2724
G01 X57.0505 Y53.2783
G01 X57.0394 Y53.2907
G01 X57.0270 Y53.3075
G01 X57.0163 Y53.3253
G01 X57.0082 Y53.3423
G01 X57.0010 Y53.3618
G01 X56.9962 Y53.3799
G01 X56.9949 Y53.3861
G01 X56.9928 Y53.4005
G01 X56.9920 Y53.4088
G01 X56.9913 Y53.4275
G01 X56.9921 Y53.4441
G01 X56.9928 Y53.4504
G01 X56.9953 Y53.4668
G01 X56.9993 Y53.4830
G01 X57.0010 Y53.4890
G01 X57.0059 Y53.5028
G01 X57.0082 Y53.5086
G01 X57.0153 Y53.5236
G01 X57.0259 Y53.5416
G01 X57.0394 Y53.5601
G01 X57.0520 Y53.5741
G01 X58.0625 Y54.5846
G01 X58.0748 Y54.5958
G01 X58.0797 Y54.5997
G01 X58.0932 Y54.6095
G01 X58.1074 Y54.6182
G01 X58.1129 Y54.6212
G01 X58.1299 Y54.6292
G01 X58.1515 Y54.6368
G01 X58.1697 Y54.6412
G01 X58.1862 Y54.6438
G01 X58.1924 Y54.6445
G01 X58.2111 Y54.6453
G01 X69.2809 Y54.6453
G01 X69.2996 Y54.6443
G01 X69.3202 Y54.6412
G01 X69.3404 Y54.6362
G01 X69.3600 Y54.6292
G01 X69.3789 Y54.6202
G01 X69.3967 Y54.6095
G01 X69.4135 Y54.5971
G01 X69.4289 Y54.5831
G01 X75.5631 Y48.4489
G01 X75.5758 Y48.4351
G01 X75.5797 Y48.4302
G01 X75.5895 Y48.4167
G01 X75.6002 Y48.3989
G01 X75.6092 Y48.3800
G01 X75.6149 Y48.3644
G01 X75.6173 Y48.3564
G01 X75.6216 Y48.3381
G01 X75.6243 Y48.3196
G01 X75.6253 Y48.2988
G01 X75.6253 Y32.5271
G01 X75.6243 Y32.5063
G01 X75.6208 Y32.4837
G01 X75.6162 Y32.4655
G01 X75.6107 Y32.4498
G01 X75.6083 Y32.4440
G01 X75.6002 Y32.4270
G01 X75.5907 Y32.4109
G01 X75.5871 Y32.4058
G01 X75.5771 Y32.3924
G01 X75.5660 Y32.3800
G01 X75.2271 Y32.0410
G01 X75.2117 Y32.0270
G01 X75.1967 Y32.0158
G01 X75.1807 Y32.0060
G01 X75.1733 Y32.0020
G01 X75.1582 Y31.9950
G01 X75.1386 Y31.9880
G01 X75.1184 Y31.9829
G01 X75.1020 Y31.9804
G01 X75.0957 Y31.9797
G01 X75.0770 Y31.9788
G01 X75.0583 Y31.9797
G01 X75.0520 Y31.9804
G01 X75.0356 Y31.9829
G01 X75.0154 Y31.9880
G01 X74.9977 Y31.9942
G01 X74.9919 Y31.9967
G01 X74.9769 Y32.0039
G01 X74.9608 Y32.0135
G01 X74.9423 Y32.0270
G01 X74.9269 Y32.0410
G01 X74.9129 Y32.0564
G01 X74.9005 Y32.0732
G01 X74.8898 Y32.0910
G01 X74.8808 Y32.1099
G01 X74.8738 Y32.1295
G01 X74.8684 Y32.1518
G01 X74.8657 Y32.1703
G01 X74.8647 Y32.1911
G01 X74.8647 Y32.5615
G01 X74.6645 Y33.0447
G01 X74.2947 Y33.4145
G01 X73.8115 Y33.6147
G01 X73.2885 Y33.6147
G01 X72.8053 Y33.4145
G01 X72.4355 Y33.0447
G01 X72.2353 Y32.5615
G01 X72.2353 Y32.0385
G01 X72.4355 Y31.5553
G01 X72.8053 Y31.1855
G01 X73.2885 Y30.9853
G01 X73.6610 Y30.9853
G01 X73.6797 Y30.9843
G01 X73.7003 Y30.9812
G01 X73.7205 Y30.9762
G01 X73.7382 Y30.9699
G01 X73.7552 Y30.9621
G01 X73.7626 Y30.9582
G01 X73.7768 Y30.9495
G01 X73.7936 Y30.9371
G01 X73.8090 Y30.9231
G01 X73.8203 Y30.9109
G01 X73.8243 Y30.9061
G01 X73.8354 Y30.8910
G01 X73.8451 Y30.8749
G01 X73.8480 Y30.8693
G01 X73.8550 Y30.8542
G01 X73.8620 Y30.8346
G01 X73.8671 Y30.8144
G01 X73.8696 Y30.7980
G01 X73.8703 Y30.7917
G01 X73.8712 Y30.7730
G01 X73.8702 Y30.7522
G01 X73.8671 Y30.7316
G01 X73.8620 Y30.7114
G01 X73.8565 Y30.6957
G01 X73.8542 Y30.6898
G01 X73.8471 Y30.6748
G01 X73.8376 Y30.6586
G01 X73.8330 Y30.6516
G01 X73.8243 Y30.6399
G01 X73.8203 Y30.6351
G01 X73.8090 Y30.6229
G01 X73.2367 Y30.0506
G01 X73.2229 Y30.0379
G01 X73.2180 Y30.0340
G01 X73.2062 Y30.0253
G01 X73.1789 Y30.0071
G01 X73.0652 Y29.8368
G01 X73.0599 Y29.8103
G01 X73.0558 Y29.7941
G01 X73.0497 Y29.7764
G01 X73.0465 Y29.7686
G01 X73.0393 Y29.7536
G01 X73.0286 Y29.7358
G01 X73.0162 Y29.7190
G01 X73.0037 Y29.7051
G01 X72.9884 Y29.6909
G01 X72.9734 Y29.6796
G01 X72.9665 Y29.6749
G01 X72.9503 Y29.6655
G01 X72.9333 Y29.6576
G01 X72.8053 Y29.6045
G01 X72.4355 Y29.2347
G01 X72.2353 Y28.7515
G01 X72.2353 Y28.2285
G01 X72.4355 Y27.7453
G01 X72.8053 Y27.3755
G01 X73.2885 Y27.1753
G01 X73.8115 Y27.1753
G01 X74.2947 Y27.3755
G01 X74.6645 Y27.7453
G01 X74.8647 Y28.2285
G01 X74.8647 Y28.7515
G01 X74.6645 Y29.2347
G01 X74.4192 Y29.4801
G01 X74.4067 Y29.4940
G01 X74.3967 Y29.5073
G01 X74.3920 Y29.5143
G01 X74.3826 Y29.5305
G01 X74.3755 Y29.5455
G01 X74.3732 Y29.5513
G01 X74.3676 Y29.5671
G01 X74.3635 Y29.5832
G01 X74.3622 Y29.5893
G01 X74.3595 Y29.6079
G01 X74.3585 Y29.6287
G01 X74.3595 Y29.6495
G01 X74.3622 Y29.6680
G01 X74.3635 Y29.6742
G01 X74.3676 Y29.6903
G01 X74.3732 Y29.7060
G01 X74.3755 Y29.7119
G01 X74.3826 Y29.7269
G01 X74.3920 Y29.7431
G01 X74.3967 Y29.7501
G01 X74.4067 Y29.7634
G01 X74.4207 Y29.7788
G01 X76.4533 Y31.8114
G01 X76.4672 Y31.8241
G01 X76.4721 Y31.8280
G01 X76.4838 Y31.8367
G01 X76.5111 Y31.8549
G01 X76.6248 Y32.0252
G01 X76.6648 Y32.2260
G01 X76.6584 Y32.2582
G01 X76.6562 Y32.2726
G01 X76.6555 Y32.2789
G01 X76.6547 Y32.2976
G01 X76.6547 Y48.5283
G01 X76.6555 Y48.5470
G01 X76.6562 Y48.5533
G01 X76.6584 Y48.5677
G01 X76.6648 Y48.5999
G01 X76.6248 Y48.8007
G01 X76.5111 Y48.9710
G01 X76.4838 Y48.9893
G01 X76.4720 Y48.9979
G01 X76.4671 Y49.0018
G01 X76.4533 Y49.0145
G01 X69.9945 Y55.4733
G01 X69.9818 Y55.4871
G01 X69.9779 Y55.4920
G01 X69.9693 Y55.5038
G01 X69.9510 Y55.5311
G01 X69.7807 Y55.6448
G01 X69.5799 Y55.6848
G01 X69.5477 Y55.6784
G01 X69.5333 Y55.6762
G01 X69.5270 Y55.6755
G01 X69.5083 Y55.6747
G01 X57.9816 Y55.6747
G01 X57.9629 Y55.6755
G01 X57.9566 Y55.6762
G01 X57.9422 Y55.6784
G01 X57.9100 Y55.6848
G01 X57.7092 Y55.6448
G01 X57.5389 Y55.5311
G01 X57.5207 Y55.5038
G01 X57.5120 Y55.4920
G01 X57.5081 Y55.4871
G01 X57.4954 Y55.4733
G01 X55.3860 Y53.3639
G01 X55.3706 Y53.3499
G01 X55.3556 Y53.3387
G01 X55.3503 Y53.3352
G01 X55.3360 Y53.3268
G01 X55.3210 Y53.3196
G01 X55.3152 Y53.3171
G01 X55.2975 Y53.3108
G01 X55.2752 Y53.3054
G01 X55.2567 Y53.3027
G01 X55.2401 Y53.3018
G01 X55.2338 Y53.3017
G01 X55.2151 Y53.3027
G01 X55.1965 Y53.3054
G01 X55.1350 Y53.3176
G01 X54.7781 Y53.2466
G01 X54.4755 Y53.0445
G01 X54.2734 Y52.7419
G01 X54.2203 Y52.4751
G01 X54.2203 Y51.4949
G01 X54.2734 Y51.2278
G01 X54.2818 Y51.2136
G01 X54.2907 Y51.1948
G01 X54.2978 Y51.1752
G01 X54.3024 Y51.1570
G01 X54.3061 Y51.1323
G01 X54.3069 Y51.1136
G01 X54.3062 Y51.0969
G01 X54.3054 Y51.0886
G01 X54.3032 Y51.0742
G01 X54.3019 Y51.0680
G01 X54.2978 Y51.0519
G01 X54.2907 Y51.0323
G01 X54.2818 Y51.0135
G01 X54.2734 Y50.9991
G01 X54.2687 Y50.9922
G01 X54.2600 Y50.9805
G01 X54.2560 Y50.9757
G01 X54.2447 Y50.9634
G01 X54.2293 Y50.9494
G01 X54.2125 Y50.9370
G01 X54.1965 Y50.9273
G01 X54.1778 Y50.9182
G01 X54.1602 Y50.9117
G01 X54.1522 Y50.9093
G01 X54.1380 Y50.9058
G01 X54.1319 Y50.9046
G01 X54.1133 Y50.9021
G01 X54.0967 Y50.9013
G01 X54.0904 Y50.9013
G01 X54.0759 Y50.9021
G01 X54.0696 Y50.9028
G01 X54.0532 Y50.9053
G01 X54.0370 Y50.9093
G01 X54.0310 Y50.9110
G01 X54.0133 Y50.9174
G01 X53.9945 Y50.9263
G01 X53.9766 Y50.9370
G01 X53.9599 Y50.9494
G01 X53.9445 Y50.9634
G01 X53.5704 Y51.3375
G01 X53.5579 Y51.3514
G01 X53.5455 Y51.3682
G01 X53.5348 Y51.3860
G01 X53.5258 Y51.4049
G01 X53.5188 Y51.4245
G01 X53.5138 Y51.4447
G01 X53.5107 Y51.4653
G01 X53.5097 Y51.4840
G01 X53.5097 Y52.4751
G01 X53.4566 Y52.7419
G01 X53.2545 Y53.0445
G01 X52.9519 Y53.2466
G01 X52.5950 Y53.3176
G01 X52.2381 Y53.2466
G01 X51.9355 Y53.0445
G01 X51.7334 Y52.7419
G01 X51.6803 Y52.4751
G01 X51.6803 Y51.4949
G01 X51.7334 Y51.2281
G01 X51.9355 Y50.9255
G01 X52.2381 Y50.7234
G01 X52.5950 Y50.6524
G01 X52.6565 Y50.6646
G01 X52.6751 Y50.6673
G01 X52.6938 Y50.6683
G01 X52.7001 Y50.6682
G01 X52.7167 Y50.6673
G01 X52.7352 Y50.6646
G01 X52.7575 Y50.6592
G01 X52.7752 Y50.6529
G01 X52.7810 Y50.6504
G01 X52.7960 Y50.6432
G01 X52.8103 Y50.6348
G01 X52.8156 Y50.6313
G01 X52.8306 Y50.6201
G01 X52.8460 Y50.6061
G01 X54.3204 Y49.1317
G01 X54.3331 Y49.1179
G01 X54.3370 Y49.1130
G01 X54.3457 Y49.1012
G01 X54.3639 Y49.0739
G01 X54.5342 Y48.9602
G01 X54.7350 Y48.9202
G01 X54.7672 Y48.9266
G01 X54.7816 Y48.9288
G01 X54.7879 Y48.9295
G01 X54.8066 Y48.9303
G01 X58.5489 Y48.9303
G01 X58.5697 Y48.9293
G01 X58.5903 Y48.9262
G01 X58.6105 Y48.9212
G01 X58.6262 Y48.9157
G01 X58.6320 Y48.9133
G01 X58.6490 Y48.9052
G01 X58.6651 Y48.8957
G01 X58.6702 Y48.8921
G01 X58.6836 Y48.8821
G01 X58.6975 Y48.8696
G01 X59.3801 Y48.1870
G01 X59.3926 Y48.1731
G01 X59.4050 Y48.1564
G01 X59.4157 Y48.1385
G01 X59.4246 Y48.1197
G01 X59.4316 Y48.1000
G01 X59.4367 Y48.0798
G01 X59.4398 Y48.0592
G01 X59.4408 Y48.0384
G01 X59.4398 Y48.0176
G01 X59.4367 Y47.9970
G01 X59.4316 Y47.9768
G01 X59.4246 Y47.9572
G01 X59.4157 Y47.9383
G01 X59.4050 Y47.9205
G01 X59.3926 Y47.9037
G01 X59.3815 Y47.8913
G01 X59.3756 Y47.8854
G01 X59.3648 Y47.8756
G01 X59.3599 Y47.8717
G01 X59.3447 Y47.8607
G01 X59.3304 Y47.8522
G01 X59.3248 Y47.8493
G01 X59.3097 Y47.8423
G01 X59.2901 Y47.8352
G01 X59.2699 Y47.8302
G01 X59.2493 Y47.8271
G01 X59.2285 Y47.8261
G01 X57.1309 Y47.8261
G01 X57.0653 Y47.8130
G01 X57.0273 Y47.7877
G01 X57.0020 Y47.7497
G01 X56.9889 Y47.6841
G01 X56.9889 Y46.7976
G01 X56.9879 Y46.7789
G01 X56.9855 Y46.7624
G01 X56.9844 Y46.7563
G01 X56.9798 Y46.7381
G01 X56.9735 Y46.7204
G01 X56.9711 Y46.7147
G01 X56.9638 Y46.6996
G01 X56.9543 Y46.6835
G01 X56.9407 Y46.6650
G01 X56.9267 Y46.6496
G01 X55.4567 Y45.1796
G01 X55.4429 Y45.1669
G01 X55.4380 Y45.1630
G01 X55.4262 Y45.1543
G01 X55.3989 Y45.1361
G01 X55.2852 Y44.9658
G01 X55.2452 Y44.7650
G01 X55.2516 Y44.7328
G01 X55.2538 Y44.7184
G01 X55.2545 Y44.7121
G01 X55.2553 Y44.6934
G01 X55.2553 Y32.3920
G01 X55.2545 Y32.3733
G01 X55.2538 Y32.3670
G01 X55.2512 Y32.3506
G01 X55.2462 Y32.3304
G01 X55.2399 Y32.3127
G01 X55.2375 Y32.3069
G01 X55.2302 Y32.2919
G01 X55.2207 Y32.2758
G01 X55.2071 Y32.2573
G01 X55.1931 Y32.2419
G01 X55.1777 Y32.2279
G01 X55.1627 Y32.2167
G01 X55.1574 Y32.2132
G01 X55.1449 Y32.2058
G01 X55.1393 Y32.2029
G01 X55.1242 Y32.1958
G01 X55.1086 Y32.1901
G01 X55.1026 Y32.1882
G01 X55.0865 Y32.1842
G01 X55.0659 Y32.1809
G01 X55.0430 Y32.1797
G01 X54.4997 Y32.1797
G01 X54.4789 Y32.1807
G01 X54.4582 Y32.1838
G01 X54.4380 Y32.1888
G01 X54.4184 Y32.1958
G01 X54.3996 Y32.2048
G01 X54.3835 Y32.2143
G01 X54.3783 Y32.2179
G01 X54.3650 Y32.2279
G01 X54.3526 Y32.2390
G01 X54.3481 Y32.2434
G01 X54.3355 Y32.2573
G01 X54.3243 Y32.2723
G01 X54.2895 Y32.3245
G01 X53.9869 Y32.5266
G01 X53.7201 Y32.5797
G01 X52.7399 Y32.5797
G01 X52.4731 Y32.5266
G01 X52.1700 Y32.3241
G01 X52.1557 Y32.3154
G01 X52.1502 Y32.3124
G01 X52.1332 Y32.3044
G01 X52.1136 Y32.2974
G01 X52.0934 Y32.2924
G01 X52.0728 Y32.2893
G01 X52.0541 Y32.2883
G01 X52.0478 Y32.2884
G01 X52.0312 Y32.2893
G01 X52.0106 Y32.2924
G01 X51.9904 Y32.2974
G01 X51.9747 Y32.3029
G01 X51.9688 Y32.3053
G01 X51.9557 Y32.3115
G01 X51.9483 Y32.3154
G01 X51.9340 Y32.3241
G01 X51.9173 Y32.3365
G01 X51.9019 Y32.3505
G01 X51.8906 Y32.3627
G01 X51.8853 Y32.3692
G01 X51.8743 Y32.3844
G01 X51.8648 Y32.4005
G01 X51.8567 Y32.4174
G01 X51.8488 Y32.4390
G01 X51.8438 Y32.4592
G01 X51.8407 Y32.4798
G01 X51.8397 Y32.4985
G01 X51.8397 Y33.3694
G01 X51.8407 Y33.3902
G01 X51.8434 Y33.4088
G01 X51.8447 Y33.4149
G01 X51.8488 Y33.4310
G01 X51.8543 Y33.4468
G01 X51.8567 Y33.4526
G01 X51.8648 Y33.4695
G01 X51.8743 Y33.4856
G01 X51.8779 Y33.4908
G01 X51.8879 Y33.5041
G01 X51.8990 Y33.5165
G01 X51.9034 Y33.5210
G01 X51.9173 Y33.5335
G01 X51.9323 Y33.5448
G01 X51.9376 Y33.5482
G01 X51.9519 Y33.5567
G01 X51.9669 Y33.5639
G01 X51.9727 Y33.5663
G01 X51.9884 Y33.5720
G01 X52.0065 Y33.5767
G01 X52.0147 Y33.5784
G01 X52.0291 Y33.5805
G01 X52.0354 Y33.5810
G01 X52.0541 Y33.5817
G01 X52.0749 Y33.5805
G01 X52.0955 Y33.5772
G01 X52.1116 Y33.5732
G01 X52.1176 Y33.5713
G01 X52.1332 Y33.5656
G01 X52.1483 Y33.5585
G01 X52.1539 Y33.5556
G01 X52.1682 Y33.5471
G01 X52.4731 Y33.3434
G01 X52.7399 Y33.2903
G01 X53.7201 Y33.2903
G01 X53.9869 Y33.3434
G01 X54.2895 Y33.5455
G01 X54.4916 Y33.8481
G01 X54.5626 Y34.2050
G01 X54.4916 Y34.5619
G01 X54.2895 Y34.8645
G01 X53.9869 Y35.0666
G01 X53.7201 Y35.1197
G01 X52.7399 Y35.1197
G01 X52.4731 Y35.0666
G01 X52.1705 Y34.8645
G01 X52.1369 Y34.8140
G01 X52.1258 Y34.7989
G01 X52.1119 Y34.7834
G01 X52.0982 Y34.7706
G01 X52.0934 Y34.7666
G01 X52.0783 Y34.7555
G01 X52.0604 Y34.7448
G01 X52.0416 Y34.7358
G01 X52.0200 Y34.7282
G01 X52.0018 Y34.7238
G01 X51.9853 Y34.7212
G01 X51.9791 Y34.7205
G01 X51.9624 Y34.7197
G01 X51.3966 Y34.7197
G01 X51.3779 Y34.7205
G01 X51.3716 Y34.7212
G01 X51.3572 Y34.7234
G01 X51.3250 Y34.7298
G01 X51.1242 Y34.6898
G01 X50.9539 Y34.5761
G01 X50.8402 Y34.4058
G01 X50.8002 Y34.2050
G01 X50.8066 Y34.1728
G01 X50.8088 Y34.1584
G01 X50.8095 Y34.1521
G01 X50.8103 Y34.1334
G01 X50.8103 Y26.1817
G01 X50.8095 Y26.1630
G01 X50.8088 Y26.1567
G01 X50.8066 Y26.1423
G01 X50.8002 Y26.1101
G01 X50.8402 Y25.9093
G01 X50.9539 Y25.7390
G01 X50.9812 Y25.7207
G01 X50.9930 Y25.7121
G01 X50.9979 Y25.7082
G01 X51.0117 Y25.6955
G01 X52.1501 Y24.5571
G01 X52.1641 Y24.5417
G01 X52.1776 Y24.5232
G01 X52.1862 Y24.5089
G01 X52.1891 Y24.5033
G01 X52.1961 Y24.4882
G01 X52.2025 Y24.4706
G01 X52.2082 Y24.4484
G01 X52.2110 Y24.4299
G01 X52.2116 Y24.4236
G01 X52.2123 Y24.4070
G01 X52.2116 Y24.3904
G01 X52.2110 Y24.3841
G01 X52.2082 Y24.3656
G01 X52.2037 Y24.3474
G01 X52.2018 Y24.3414
G01 X52.1961 Y24.3257
G01 X52.1882 Y24.3088
G01 X52.1765 Y24.2890
G01 X52.1654 Y24.2739
G01 X52.1614 Y24.2691
G01 X52.1501 Y24.2569
G01 X52.1378 Y24.2456
G01 X52.1330 Y24.2416
G01 X52.1179 Y24.2305
G01 X52.1019 Y24.2208
G01 X52.0963 Y24.2179
G01 X52.0812 Y24.2108
G01 X52.0656 Y24.2051
G01 X52.0596 Y24.2032
G01 X52.0414 Y24.1988
G01 X52.0229 Y24.1959
G01 X52.0166 Y24.1954
G01 X52.0000 Y24.1947
G01 X49.5120 Y24.1947
G01 X49.4933 Y24.1955
G01 X49.4747 Y24.1980
G01 X49.4665 Y24.1997
G01 X49.4504 Y24.2038
G01 X49.4308 Y24.2108
G01 X49.4119 Y24.2197
G01 X49.3976 Y24.2282
G01 X49.3923 Y24.2316
G01 X49.3806 Y24.2403
G01 X49.3741 Y24.2456
G01 X49.3619 Y24.2569
G01 X49.3479 Y24.2723
G01 X49.3355 Y24.2890
G01 X49.3268 Y24.3033
G01 X49.3229 Y24.3106
G01 X49.3167 Y24.3238
G01 X49.3143 Y24.3296
G01 X49.3088 Y24.3454
G01 X49.3038 Y24.3656
G01 X49.3007 Y24.3862
G01 X49.2997 Y24.4070
G01 X49.2997 Y29.6884
G01 X49.3005 Y29.7071
G01 X49.3012 Y29.7134
G01 X49.3034 Y29.7278
G01 X49.3098 Y29.7600
G01 X49.3034 Y29.7922
G01 X49.3012 Y29.8066
G01 X49.3005 Y29.8129
G01 X49.2997 Y29.8316
G01 X49.2997 Y37.8089
G01 X49.3009 Y37.8318
G01 X49.3038 Y37.8503
G01 X49.3088 Y37.8705
G01 X49.3158 Y37.8901
G01 X49.3229 Y37.9052
G01 X49.3268 Y37.9126
G01 X49.3343 Y37.9251
G01 X49.3379 Y37.9302
G01 X49.3479 Y37.9436
G01 X49.3619 Y37.9590
G01 X50.1140 Y38.7110
G01 X50.1264 Y38.7221
G01 X50.1432 Y38.7345
G01 X50.1610 Y38.7452
G01 X50.1761 Y38.7525
G01 X50.1838 Y38.7557
G01 X50.2015 Y38.7618
G01 X50.2197 Y38.7662
G01 X50.2382 Y38.7691
G01 X50.2611 Y38.7703
G01 X51.9603 Y38.7703
G01 X51.9811 Y38.7693
G01 X51.9976 Y38.7669
G01 X52.0038 Y38.7658
G01 X52.0220 Y38.7612
G01 X52.0416 Y38.7542
G01 X52.0604 Y38.7452
G01 X52.0800 Y38.7333
G01 X52.0950 Y38.7221
G01 X52.1074 Y38.7110
G01 X52.1119 Y38.7066
G01 X52.1245 Y38.6927
G01 X52.1357 Y38.6777
G01 X52.1705 Y38.6255
G01 X52.4731 Y38.4234
G01 X52.7399 Y38.3703
G01 X53.7201 Y38.3703
G01 X53.9869 Y38.4234
G01 X54.2895 Y38.6255
G01 X54.4916 Y38.9281
G01 X54.5626 Y39.2850
G01 X54.4916 Y39.6419
G01 X54.2895 Y39.9445
G01 X53.9869 Y40.1466
G01 X53.7201 Y40.1997
G01 X52.7399 Y40.1997
G01 X52.4731 Y40.1466
G01 X52.1705 Y39.9445
G01 X52.1357 Y39.8923
G01 X52.1245 Y39.8773
G01 X52.1119 Y39.8634
G01 X52.1074 Y39.8590
G01 X52.0950 Y39.8479
G01 X52.0800 Y39.8367
G01 X52.0604 Y39.8248
G01 X52.0435 Y39.8167
G01 X52.0377 Y39.8143
G01 X52.0220 Y39.8088
G01 X52.0058 Y39.8047
G01 X51.9997 Y39.8034
G01 X51.9811 Y39.8007
G01 X51.9603 Y39.7997
G01 X50.0316 Y39.7997
G01 X50.0129 Y39.8005
G01 X50.0066 Y39.8012
G01 X49.9922 Y39.8034
G01 X49.9600 Y39.8098
G01 X49.7592 Y39.7698
G01 X49.5889 Y39.6561
G01 X49.5707 Y39.6288
G01 X49.5620 Y39.6170
G01 X49.5581 Y39.6121
G01 X49.5454 Y39.5983
G01 X48.9351 Y38.9880
G01 X48.9213 Y38.9754
G01 X48.9064 Y38.9640
G01 X48.8994 Y38.9594
G01 X48.8851 Y38.9509
G01 X48.8662 Y38.9420
G01 X48.8466 Y38.9350
G01 X48.8305 Y38.9308
G01 X48.8244 Y38.9295
G01 X48.8100 Y38.9274
G01 X48.8016 Y38.9265
G01 X48.7829 Y38.9258
G01 X48.7621 Y38.9271
G01 X48.7436 Y38.9299
G01 X48.7214 Y38.9356
G01 X48.7038 Y38.9420
G01 X48.6849 Y38.9509
G01 X48.6670 Y38.9616
G01 X48.6487 Y38.9754
G01 X48.6349 Y38.9880
G01 X48.0246 Y39.5983
G01 X48.0119 Y39.6121
G01 X48.0080 Y39.6170
G01 X47.9993 Y39.6288
G01 X47.9811 Y39.6561
G01 X47.8108 Y39.7698
G01 X47.6100 Y39.8098
G01 X47.5778 Y39.8034
G01 X47.5634 Y39.8012
G01 X47.5571 Y39.8005
G01 X47.5384 Y39.7997
G01 X46.8797 Y39.7997
G01 X46.8609 Y39.8005
G01 X46.8547 Y39.8012
G01 X46.8382 Y39.8038
G01 X46.8221 Y39.8077
G01 X46.8160 Y39.8095
G01 X46.7984 Y39.8158
G01 X46.7796 Y39.8248
G01 X46.7617 Y39.8355
G01 X46.7466 Y39.8466
G01 X46.7418 Y39.8506
G01 X46.7281 Y39.8634
G01 X46.7142 Y39.8789
G01 X46.7031 Y39.8940
G01 X46.6695 Y39.9445
G01 X46.3669 Y40.1466
G01 X46.1001 Y40.1997
G01 X45.1199 Y40.1997
G01 X44.8531 Y40.1466
G01 X44.5505 Y39.9445
G01 X44.3484 Y39.6419
G01 X44.2774 Y39.2850
G01 X44.3484 Y38.9281
G01 X44.5505 Y38.6255
G01 X44.8531 Y38.4234
G01 X45.1199 Y38.3703
G01 X46.1001 Y38.3703
G01 X46.3669 Y38.4234
G01 X46.6695 Y38.6255
G01 X46.7055 Y38.6794
G01 X46.7169 Y38.6943
G01 X46.7281 Y38.7066
G01 X46.7326 Y38.7110
G01 X46.7450 Y38.7221
G01 X46.7583 Y38.7321
G01 X46.7635 Y38.7357
G01 X46.7759 Y38.7432
G01 X46.7814 Y38.7462
G01 X46.7965 Y38.7533
G01 X46.8160 Y38.7605
G01 X46.8342 Y38.7653
G01 X46.8424 Y38.7669
G01 X46.8589 Y38.7693
G01 X46.8797 Y38.7703
G01 X47.3089 Y38.7703
G01 X47.3297 Y38.7693
G01 X47.3482 Y38.7666
G01 X47.3665 Y38.7623
G01 X47.3745 Y38.7599
G01 X47.3901 Y38.7542
G01 X47.4090 Y38.7452
G01 X47.4268 Y38.7345
G01 X47.4403 Y38.7247
G01 X47.4452 Y38.7208
G01 X47.4590 Y38.7081
G01 X48.2096 Y37.9575
G01 X48.2221 Y37.9436
G01 X48.2321 Y37.9302
G01 X48.2357 Y37.9251
G01 X48.2452 Y37.9090
G01 X48.2533 Y37.8920
G01 X48.2557 Y37.8862
G01 X48.2612 Y37.8705
G01 X48.2653 Y37.8544
G01 X48.2666 Y37.8482
G01 X48.2693 Y37.8297
G01 X48.2703 Y37.8089
G01 X48.2703 Y30.0611
G01 X48.2693 Y30.0403
G01 X48.2662 Y30.0197
G01 X48.2612 Y29.9995
G01 X48.2533 Y29.9780
G01 X48.2452 Y29.9611
G01 X48.2345 Y29.9432
G01 X48.2221 Y29.9264
G01 X48.2110 Y29.9140
G01 X47.9960 Y29.6990
G01 X47.9836 Y29.6879
G01 X47.9702 Y29.6779
G01 X47.9651 Y29.6743
G01 X47.9490 Y29.6648
G01 X47.9320 Y29.6567
G01 X47.9262 Y29.6543
G01 X47.9105 Y29.6488
G01 X47.8944 Y29.6447
G01 X47.8882 Y29.6434
G01 X47.8697 Y29.6407
G01 X47.8489 Y29.6397
G01 X46.8797 Y29.6397
G01 X46.8609 Y29.6405
G01 X46.8547 Y29.6412
G01 X46.8382 Y29.6438
G01 X46.8180 Y29.6488
G01 X46.7984 Y29.6558
G01 X46.7833 Y29.6629
G01 X46.7777 Y29.6658
G01 X46.7617 Y29.6755
G01 X46.7466 Y29.6866
G01 X46.7418 Y29.6906
G01 X46.7295 Y29.7019
G01 X46.7169 Y29.7157
G01 X46.7043 Y29.7323
G01 X46.6695 Y29.7845
G01 X46.3669 Y29.9866
G01 X46.1001 Y30.0397
G01 X45.1199 Y30.0397
G01 X44.8531 Y29.9866
G01 X44.5505 Y29.7845
G01 X44.3484 Y29.4819
G01 X44.2774 Y29.1250
G01 X44.3484 Y28.7681
G01 X44.5505 Y28.4655
G01 X44.8531 Y28.2634
G01 X45.1199 Y28.2103
G01 X46.1001 Y28.2103
G01 X46.3669 Y28.2634
G01 X46.6695 Y28.4655
G01 X46.7043 Y28.5177
G01 X46.7155 Y28.5327
G01 X46.7281 Y28.5466
G01 X46.7326 Y28.5510
G01 X46.7450 Y28.5621
G01 X46.7600 Y28.5733
G01 X46.7796 Y28.5852
G01 X46.7965 Y28.5933
G01 X46.8023 Y28.5957
G01 X46.8180 Y28.6012
G01 X46.8342 Y28.6053
G01 X46.8403 Y28.6066
G01 X46.8589 Y28.6093
G01 X46.8797 Y28.6103
G01 X48.0580 Y28.6103
G01 X48.0746 Y28.6096
G01 X48.0809 Y28.6091
G01 X48.0994 Y28.6062
G01 X48.1196 Y28.6012
G01 X48.1392 Y28.5942
G01 X48.1581 Y28.5852
G01 X48.1760 Y28.5745
G01 X48.1927 Y28.5621
G01 X48.2081 Y28.5481
G01 X48.2234 Y28.5311
G01 X48.2345 Y28.5160
G01 X48.2452 Y28.4981
G01 X48.2542 Y28.4792
G01 X48.2599 Y28.4636
G01 X48.2623 Y28.4556
G01 X48.2658 Y28.4415
G01 X48.2669 Y28.4353
G01 X48.2693 Y28.4188
G01 X48.2703 Y28.3980
G01 X48.2703 Y24.4049
G01 X48.2693 Y24.3862
G01 X48.2670 Y24.3697
G01 X48.2658 Y24.3635
G01 X48.2612 Y24.3454
G01 X48.2549 Y24.3277
G01 X48.2525 Y24.3219
G01 X48.2452 Y24.3069
G01 X48.2345 Y24.2890
G01 X48.2221 Y24.2723
G01 X48.2110 Y24.2599
G01 X48.2066 Y24.2554
G01 X48.1927 Y24.2429
G01 X48.1760 Y24.2305
G01 X48.1617 Y24.2218
G01 X48.1562 Y24.2188
G01 X48.1392 Y24.2108
G01 X48.1196 Y24.2038
G01 X48.0994 Y24.1988
G01 X48.0788 Y24.1957
G01 X48.0580 Y24.1947
G01 X37.3861 Y24.1947
G01 X37.3653 Y24.1957
G01 X37.3488 Y24.1980
G01 X37.3406 Y24.1997
G01 X37.3225 Y24.2045
G01 X37.3049 Y24.2108
G01 X37.2879 Y24.2188
G01 X37.2717 Y24.2282
G01 X37.2648 Y24.2329
G01 X37.2515 Y24.2429
G01 X37.2375 Y24.2554
G01 X35.3919 Y26.1010
G01 X35.3779 Y26.1164
G01 X35.3679 Y26.1298
G01 X35.3643 Y26.1349
G01 X35.3568 Y26.1474
G01 X35.3529 Y26.1548
G01 X35.3458 Y26.1699
G01 X35.3388 Y26.1895
G01 X35.3338 Y26.2097
G01 X35.3309 Y26.2282
G01 X35.3297 Y26.2511
G01 X35.3297 Y26.3532
G01 X35.3307 Y26.3740
G01 X35.3338 Y26.3946
G01 X35.3388 Y26.4148
G01 X35.3458 Y26.4344
G01 X35.3538 Y26.4514
G01 X35.3632 Y26.4676
G01 X35.3679 Y26.4746
G01 X35.3779 Y26.4879
G01 X35.3904 Y26.5018
G01 X35.5904 Y26.7019
G01 X35.7297 Y27.0381
G01 X35.7297 Y27.4019
G01 X35.5904 Y27.7381
G01 X35.5842 Y27.7444
G01 X35.5730 Y27.7567
G01 X35.5605 Y27.7733
G01 X35.5486 Y27.7929
G01 X35.5397 Y27.8118
G01 X35.5326 Y27.8314
G01 X35.5276 Y27.8516
G01 X35.5245 Y27.8722
G01 X35.5236 Y27.8888
G01 X35.5235 Y27.8951
G01 X35.5242 Y27.9096
G01 X35.5250 Y27.9180
G01 X35.5276 Y27.9344
G01 X35.5326 Y27.9546
G01 X35.5397 Y27.9742
G01 X35.5467 Y27.9893
G01 X35.5506 Y27.9967
G01 X35.5581 Y28.0092
G01 X35.5617 Y28.0144
G01 X35.5717 Y28.0277
G01 X35.5857 Y28.0431
G01 X35.6011 Y28.0571
G01 X35.6161 Y28.0683
G01 X35.6339 Y28.0792
G01 X35.6507 Y28.0875
G01 X35.6585 Y28.0907
G01 X35.6722 Y28.0955
G01 X35.6782 Y28.0973
G01 X35.6944 Y28.1012
G01 X35.7109 Y28.1038
G01 X35.7171 Y28.1045
G01 X35.7358 Y28.1053
G01 X40.2040 Y28.1053
G01 X40.2227 Y28.1043
G01 X40.2454 Y28.1008
G01 X40.2655 Y28.0955
G01 X40.2812 Y28.0899
G01 X40.2870 Y28.0875
G01 X40.3020 Y28.0802
G01 X40.3181 Y28.0707
G01 X40.4162 Y28.0052
G01 X40.6170 Y27.9652
G01 X40.6492 Y27.9716
G01 X40.6636 Y27.9738
G01 X40.6699 Y27.9745
G01 X40.6886 Y27.9753
G01 X42.3634 Y27.9753
G01 X42.3821 Y27.9745
G01 X42.3884 Y27.9738
G01 X42.4028 Y27.9716
G01 X42.4350 Y27.9652
G01 X42.6358 Y28.0052
G01 X42.8061 Y28.1189
G01 X42.9198 Y28.2892
G01 X42.9598 Y28.4900
G01 X42.9534 Y28.5222
G01 X42.9512 Y28.5366
G01 X42.9505 Y28.5429
G01 X42.9497 Y28.5616
G01 X42.9497 Y33.1088
G01 X42.9505 Y33.1275
G01 X42.9512 Y33.1337
G01 X42.9538 Y33.1502
G01 X42.9588 Y33.1704
G01 X42.9658 Y33.1900
G01 X42.9729 Y33.2051
G01 X42.9768 Y33.2125
G01 X42.9867 Y33.2285
G01 X42.9979 Y33.2435
G01 X43.0119 Y33.2589
G01 X43.9450 Y34.1920
G01 X43.9590 Y34.2046
G01 X43.9723 Y34.2146
G01 X43.9792 Y34.2192
G01 X43.9954 Y34.2286
G01 X44.0124 Y34.2366
G01 X44.0300 Y34.2430
G01 X44.0482 Y34.2478
G01 X44.0564 Y34.2494
G01 X44.0728 Y34.2517
G01 X44.0895 Y34.2526
G01 X44.0957 Y34.2527
G01 X44.1145 Y34.2517
G01 X44.1351 Y34.2487
G01 X44.1513 Y34.2447
G01 X44.1573 Y34.2430
G01 X44.1749 Y34.2366
G01 X44.1919 Y34.2286
G01 X44.1974 Y34.2256
G01 X44.2116 Y34.2170
G01 X44.2283 Y34.2046
G01 X44.2423 Y34.1920
G01 X44.2467 Y34.1875
G01 X44.2578 Y34.1751
G01 X44.2690 Y34.1601
G01 X44.2799 Y34.1424
G01 X44.2881 Y34.1255
G01 X44.2906 Y34.1197
G01 X44.2955 Y34.1060
G01 X44.2979 Y34.0980
G01 X44.3019 Y34.0819
G01 X44.3484 Y33.8481
G01 X44.5505 Y33.5455
G01 X44.8531 Y33.3434
G01 X45.1199 Y33.2903
G01 X46.1001 Y33.2903
G01 X46.3669 Y33.3434
G01 X46.6695 Y33.5455
G01 X46.8716 Y33.8481
G01 X46.9426 Y34.2050
G01 X46.8716 Y34.5619
G01 X46.6695 Y34.8645
G01 X46.3669 Y35.0666
G01 X46.1001 Y35.1197
G01 X45.3852 Y35.1197
G01 X45.3665 Y35.1205
G01 X45.3603 Y35.1212
G01 X45.3438 Y35.1238
G01 X45.3236 Y35.1288
G01 X45.3040 Y35.1358
G01 X45.2889 Y35.1429
G01 X45.2833 Y35.1458
G01 X45.2673 Y35.1555
G01 X45.2505 Y35.1679
G01 X45.2381 Y35.1790
G01 X45.2336 Y35.1834
G01 X45.2211 Y35.1973
G01 X45.2087 Y35.2140
G01 X45.2000 Y35.2283
G01 X45.1970 Y35.2338
G01 X45.1891 Y35.2508
G01 X45.1827 Y35.2684
G01 X45.1809 Y35.2744
G01 X45.1770 Y35.2906
G01 X45.1742 Y35.3091
G01 X45.1729 Y35.3320
G01 X45.1739 Y35.3528
G01 X45.1770 Y35.3734
G01 X45.1820 Y35.3936
G01 X45.1891 Y35.4132
G01 X45.1980 Y35.4321
G01 X45.2087 Y35.4500
G01 X45.2198 Y35.4651
G01 X45.2351 Y35.4821
G01 X45.5211 Y35.7681
G01 X45.5365 Y35.7821
G01 X45.5550 Y35.7957
G01 X45.5693 Y35.8042
G01 X45.5749 Y35.8071
G01 X45.5900 Y35.8142
G01 X45.6056 Y35.8199
G01 X45.6116 Y35.8218
G01 X45.6298 Y35.8262
G01 X45.6525 Y35.8295
G01 X45.6712 Y35.8303
G01 X46.1001 Y35.8303
G01 X46.3669 Y35.8834
G01 X46.6695 Y36.0855
G01 X46.8716 Y36.3881
G01 X46.9426 Y36.7450
G01 X46.8716 Y37.1019
G01 X46.6695 Y37.4045
G01 X46.3669 Y37.6066
G01 X46.1001 Y37.6597
G01 X45.1199 Y37.6597
G01 X44.8531 Y37.6066
G01 X44.5505 Y37.4045
G01 X44.3484 Y37.1019
G01 X44.2774 Y36.7450
G01 X44.3484 Y36.3881
G01 X44.3877 Y36.3293
G01 X44.3982 Y36.3113
G01 X44.4062 Y36.2943
G01 X44.4119 Y36.2787
G01 X44.4143 Y36.2706
G01 X44.4186 Y36.2524
G01 X44.4213 Y36.2339
G01 X44.4223 Y36.2131
G01 X44.4213 Y36.1922
G01 X44.4182 Y36.1716
G01 X44.4132 Y36.1514
G01 X44.4062 Y36.1318
G01 X44.3972 Y36.1130
G01 X44.3865 Y36.0951
G01 X44.3741 Y36.0784
G01 X44.3601 Y36.0629
G01 X42.1217 Y33.8245
G01 X42.1079 Y33.8118
G01 X42.1030 Y33.8079
G01 X42.0912 Y33.7993
G01 X42.0639 Y33.7810
G01 X41.9502 Y33.6107
G01 X41.9102 Y33.4099
G01 X41.9166 Y33.3777
G01 X41.9188 Y33.3633
G01 X41.9195 Y33.3570
G01 X41.9203 Y33.3383
G01 X41.9203 Y29.2149
G01 X41.9193 Y29.1962
G01 X41.9170 Y29.1797
G01 X41.9158 Y29.1735
G01 X41.9112 Y29.1554
G01 X41.9049 Y29.1377
G01 X41.9025 Y29.1319
G01 X41.8952 Y29.1169
G01 X41.8845 Y29.0990
G01 X41.8734 Y29.0839
G01 X41.8694 Y29.0791
G01 X41.8581 Y29.0669
G01 X41.8427 Y29.0529
G01 X41.8277 Y29.0417
G01 X41.8224 Y29.0382
G01 X41.8081 Y29.0298
G01 X41.7931 Y29.0225
G01 X41.7873 Y29.0201
G01 X41.7716 Y29.0145
G01 X41.7515 Y29.0092
G01 X41.7288 Y29.0057
G01 X41.7101 Y29.0047
G01 X40.9021 Y29.0047
G01 X40.8834 Y29.0055
G01 X40.8771 Y29.0062
G01 X40.8607 Y29.0088
G01 X40.8405 Y29.0138
G01 X40.8208 Y29.0208
G01 X40.8020 Y29.0298
G01 X40.7841 Y29.0405
G01 X40.6878 Y29.1048
G01 X40.6374 Y29.1149
G01 X40.6213 Y29.1189
G01 X40.5996 Y29.1265
G01 X40.5808 Y29.1354
G01 X40.5647 Y29.1450
G01 X40.5595 Y29.1486
G01 X40.5462 Y29.1586
G01 X40.5338 Y29.1697
G01 X40.5293 Y29.1740
G01 X40.5168 Y29.1880
G01 X40.5055 Y29.2030
G01 X40.5021 Y29.2083
G01 X40.4936 Y29.2226
G01 X40.4856 Y29.2395
G01 X40.4790 Y29.2571
G01 X40.4766 Y29.2651
G01 X40.4726 Y29.2813
G01 X40.4696 Y29.3019
G01 X40.4686 Y29.3227
G01 X40.4693 Y29.3393
G01 X40.4701 Y29.3476
G01 X40.4731 Y29.3661
G01 X40.4777 Y29.3843
G01 X40.4840 Y29.4020
G01 X40.4918 Y29.4190
G01 X40.4957 Y29.4264
G01 X40.5043 Y29.4406
G01 X40.5155 Y29.4557
G01 X40.5279 Y29.4698
G01 X40.5338 Y29.4757
G01 X40.5478 Y29.4881
G01 X40.5647 Y29.5003
G01 X40.5808 Y29.5099
G01 X40.6016 Y29.5196
G01 X40.6213 Y29.5264
G01 X40.6374 Y29.5305
G01 X40.6519 Y29.5334
G01 X40.9545 Y29.7355
G01 X41.1566 Y30.0381
G01 X41.2276 Y30.3950
G01 X41.1566 Y30.7519
G01 X40.9545 Y31.0545
G01 X40.6519 Y31.2566
G01 X40.3851 Y31.3097
G01 X39.4049 Y31.3097
