(G-CODE GENERATED BY FLATCAM v8.994 - www.flatcam.org - Version Date: 2020/11/7)

(Name: back_drill_cnc)
(Type: G-code from Geometry)
(Units: MM)

(Created on Monday, 15 February 2021 at 22:25)

(This preprocessor is the default preprocessor used by FlatCAM.)
(It is made to work with MACH3 compatible motion controllers.)


(TOOLS DIAMETER: )
(Tool: 1 -> Dia: 0.8)
(Tool: 2 -> Dia: 1.0)
(Tool: 3 -> Dia: 1.016)
(Tool: 4 -> Dia: 1.2)
(Tool: 5 -> Dia: 1.3)
(Tool: 6 -> Dia: 2.8)

(FEEDRATE Z: )
(Tool: 1 -> Feedrate: 60.0)
(Tool: 2 -> Feedrate: 60.0)
(Tool: 3 -> Feedrate: 60.0)
(Tool: 4 -> Feedrate: 60.0)
(Tool: 5 -> Feedrate: 60.0)
(Tool: 6 -> Feedrate: 60.0)

(FEEDRATE RAPIDS: )
(Tool: 1 -> Feedrate Rapids: 150.0)
(Tool: 2 -> Feedrate Rapids: 150.0)
(Tool: 3 -> Feedrate Rapids: 150.0)
(Tool: 4 -> Feedrate Rapids: 150.0)
(Tool: 5 -> Feedrate Rapids: 150.0)
(Tool: 6 -> Feedrate Rapids: 150.0)

(Z_CUT: )
(Tool: 1 -> Z_Cut: -0.6)
(Tool: 2 -> Z_Cut: -0.6)
(Tool: 3 -> Z_Cut: -0.6)
(Tool: 4 -> Z_Cut: -2.0)
(Tool: 5 -> Z_Cut: -2.0)
(Tool: 6 -> Z_Cut: -2.0)

(Tools Offset: )
(Tool: 1 -> Offset Z: 0.0)
(Tool: 2 -> Offset Z: 0.0)
(Tool: 3 -> Offset Z: 0.0)

(Z_MOVE: )
(Tool: 1 -> Z_Move: 2.0)
(Tool: 2 -> Z_Move: 2.0)
(Tool: 3 -> Z_Move: 2.0)
(Tool: 4 -> Z_Move: 2)
(Tool: 5 -> Z_Move: 2)
(Tool: 6 -> Z_Move: 2)

(Z Toolchange: 20.0 mm)
(X,Y Toolchange: 0.0000, 0.0000 mm)
(Z Start: None mm)
(Z End: 20.0 mm)
(X,Y End: None mm)
(Steps per circle: 64)
(Preprocessor Excellon: default)

(X range:    1.6000 ...   75.1400  mm)
(Y range:    1.6000 ...   78.4000  mm)

(Spindle Speed: 12000 RPM)
G21
G90
G94

G01 F60.00

M5
G00 Z20.0000
T1
G00 X0.0000 Y0.0000                
M6
(MSG, Change to Tool Dia = 0.8000 ||| Total drills for tool T1 = 101)
M0
G00 Z20.0000

G01 F60.00
M03 S12000
G00 X69.7400 Y46.9050
G01 Z-0.6000
G01 Z0
G00 Z2.0000
G00 X65.9300 Y46.9050
G01 Z-0.6000
G01 Z0
G00 Z2.0000
G00 X65.9300 Y44.3650
G01 Z-0.6000
G01 Z0
G00 Z2.0000
G00 X65.9300 Y41.8250
G01 Z-0.6000
G01 Z0
G00 Z2.0000
G00 X65.9300 Y39.2850
G01 Z-0.6000
G01 Z0
G00 Z2.0000
G00 X65.9300 Y36.7450
G01 Z-0.6000
G01 Z0
G00 Z2.0000
G00 X65.9300 Y34.2050
G01 Z-0.6000
G01 Z0
G00 Z2.0000
G00 X65.9300 Y31.6650
G01 Z-0.6000
G01 Z0
G00 Z2.0000
G00 X65.4680 Y27.2200
G01 Z-0.6000
G01 Z0
G00 Z2.0000
G00 X60.3880 Y27.2300
G01 Z-0.6000
G01 Z0
G00 Z2.0000
G00 X58.3100 Y31.6650
G01 Z-0.6000
G01 Z0
G00 Z2.0000
G00 X58.3100 Y34.2050
G01 Z-0.6000
G01 Z0
G00 Z2.0000
G00 X58.3100 Y36.7450
G01 Z-0.6000
G01 Z0
G00 Z2.0000
G00 X58.3100 Y39.2850
G01 Z-0.6000
G01 Z0
G00 Z2.0000
G00 X58.3100 Y41.8250
G01 Z-0.6000
G01 Z0
G00 Z2.0000
G00 X58.3100 Y44.3650
G01 Z-0.6000
G01 Z0
G00 Z2.0000
G00 X58.3100 Y46.9050
G01 Z-0.6000
G01 Z0
G00 Z2.0000
G00 X60.2150 Y51.9850
G01 Z-0.6000
G01 Z0
G00 Z2.0000
G00 X57.6750 Y51.9850
G01 Z-0.6000
G01 Z0
G00 Z2.0000
G00 X55.1350 Y51.9850
G01 Z-0.6000
G01 Z0
G00 Z2.0000
G00 X52.5950 Y51.9850
G01 Z-0.6000
G01 Z0
G00 Z2.0000
G00 X50.0550 Y51.9850
G01 Z-0.6000
G01 Z0
G00 Z2.0000
G00 X47.5150 Y51.9850
G01 Z-0.6000
G01 Z0
G00 Z2.0000
G00 X44.9750 Y51.9850
G01 Z-0.6000
G01 Z0
G00 Z2.0000
G00 X42.4350 Y51.9850
G01 Z-0.6000
G01 Z0
G00 Z2.0000
G00 X46.4180 Y47.0860
G01 Z-0.6000
G01 Z0
G00 Z2.0000
G00 X48.9580 Y47.0860
G01 Z-0.6000
G01 Z0
G00 Z2.0000
G00 X51.4980 Y47.0860
G01 Z-0.6000
G01 Z0
G00 Z2.0000
G00 X53.2300 Y41.8250
G01 Z-0.6000
G01 Z0
G00 Z2.0000
G00 X53.2300 Y39.2850
G01 Z-0.6000
G01 Z0
G00 Z2.0000
G00 X53.2300 Y36.7450
G01 Z-0.6000
G01 Z0
G00 Z2.0000
G00 X53.2300 Y34.2050
G01 Z-0.6000
G01 Z0
G00 Z2.0000
G00 X53.2300 Y31.6650
G01 Z-0.6000
G01 Z0
G00 Z2.0000
G00 X53.2300 Y29.1250
G01 Z-0.6000
G01 Z0
G00 Z2.0000
G00 X53.2300 Y26.5850
G01 Z-0.6000
G01 Z0
G00 Z2.0000
G00 X45.6100 Y26.5850
G01 Z-0.6000
G01 Z0
G00 Z2.0000
G00 X45.6100 Y29.1250
G01 Z-0.6000
G01 Z0
G00 Z2.0000
G00 X45.6100 Y31.6650
G01 Z-0.6000
G01 Z0
G00 Z2.0000
G00 X45.6100 Y34.2050
G01 Z-0.6000
G01 Z0
G00 Z2.0000
G00 X45.6100 Y36.7450
G01 Z-0.6000
G01 Z0
G00 Z2.0000
G00 X45.6100 Y39.2850
G01 Z-0.6000
G01 Z0
G00 Z2.0000
G00 X45.6100 Y41.8250
G01 Z-0.6000
G01 Z0
G00 Z2.0000
G00 X39.8950 Y45.6350
G01 Z-0.6000
G01 Z0
G00 Z2.0000
G00 X39.8950 Y43.0950
G01 Z-0.6000
G01 Z0
G00 Z2.0000
G00 X39.8950 Y40.5550
G01 Z-0.6000
G01 Z0
G00 Z2.0000
G00 X39.8950 Y38.0150
G01 Z-0.6000
G01 Z0
G00 Z2.0000
G00 X39.8950 Y35.4750
G01 Z-0.6000
G01 Z0
G00 Z2.0000
G00 X39.8950 Y32.9350
G01 Z-0.6000
G01 Z0
G00 Z2.0000
G00 X39.8950 Y30.3950
G01 Z-0.6000
G01 Z0
G00 Z2.0000
G00 X39.8150 Y27.2200
G01 Z-0.6000
G01 Z0
G00 Z2.0000
G00 X34.8150 Y27.2200
G01 Z-0.6000
G01 Z0
G00 Z2.0000
G00 X32.2750 Y30.3950
G01 Z-0.6000
G01 Z0
G00 Z2.0000
G00 X32.2750 Y32.9350
G01 Z-0.6000
G01 Z0
G00 Z2.0000
G00 X32.2750 Y35.4750
G01 Z-0.6000
G01 Z0
G00 Z2.0000
G00 X32.2750 Y38.0150
G01 Z-0.6000
G01 Z0
G00 Z2.0000
G00 X32.2750 Y40.5550
G01 Z-0.6000
G01 Z0
G00 Z2.0000
G00 X32.2750 Y43.0950
G01 Z-0.6000
G01 Z0
G00 Z2.0000
G00 X32.2750 Y45.6350
G01 Z-0.6000
G01 Z0
G00 Z2.0000
G00 X39.8950 Y51.9850
G01 Z-0.6000
G01 Z0
G00 Z2.0000
G00 X37.3550 Y51.9850
G01 Z-0.6000
G01 Z0
G00 Z2.0000
G00 X34.8150 Y51.9850
G01 Z-0.6000
G01 Z0
G00 Z2.0000
G00 X32.2750 Y51.9850
G01 Z-0.6000
G01 Z0
G00 Z2.0000
G00 X28.0030 Y52.0860
G01 Z-0.6000
G01 Z0
G00 Z2.0000
G00 X28.0030 Y47.0860
G01 Z-0.6000
G01 Z0
G00 Z2.0000
G00 X19.7480 Y53.8900
G01 Z-0.6000
G01 Z0
G00 Z2.0000
G00 X17.2080 Y53.8900
G01 Z-0.6000
G01 Z0
G00 Z2.0000
G00 X17.2080 Y56.4300
G01 Z-0.6000
G01 Z0
G00 Z2.0000
G00 X19.7480 Y56.4300
G01 Z-0.6000
G01 Z0
G00 Z2.0000
G00 X19.7480 Y58.9700
G01 Z-0.6000
G01 Z0
G00 Z2.0000
G00 X19.7480 Y61.5100
G01 Z-0.6000
G01 Z0
G00 Z2.0000
G00 X17.2080 Y58.9700
G01 Z-0.6000
G01 Z0
G00 Z2.0000
G00 X17.2080 Y61.5100
G01 Z-0.6000
G01 Z0
G00 Z2.0000
G00 X17.2080 Y64.0500
G01 Z-0.6000
G01 Z0
G00 Z2.0000
G00 X19.7480 Y64.0500
G01 Z-0.6000
G01 Z0
G00 Z2.0000
G00 X19.7480 Y66.5900
G01 Z-0.6000
G01 Z0
G00 Z2.0000
G00 X17.2080 Y66.5900
G01 Z-0.6000
G01 Z0
G00 Z2.0000
G00 X17.2080 Y69.1300
G01 Z-0.6000
G01 Z0
G00 Z2.0000
G00 X17.2080 Y71.6700
G01 Z-0.6000
G01 Z0
G00 Z2.0000
G00 X19.7480 Y71.6700
G01 Z-0.6000
G01 Z0
G00 Z2.0000
G00 X19.7480 Y69.1300
G01 Z-0.6000
G01 Z0
G00 Z2.0000
G00 X32.2750 Y74.8450
G01 Z-0.6000
G01 Z0
G00 Z2.0000
G00 X34.8150 Y74.8450
G01 Z-0.6000
G01 Z0
G00 Z2.0000
G00 X37.3550 Y74.8450
G01 Z-0.6000
G01 Z0
G00 Z2.0000
G00 X39.8950 Y74.8450
G01 Z-0.6000
G01 Z0
G00 Z2.0000
G00 X42.4350 Y74.8450
G01 Z-0.6000
G01 Z0
G00 Z2.0000
G00 X44.9750 Y74.8450
G01 Z-0.6000
G01 Z0
G00 Z2.0000
G00 X47.5150 Y74.8450
G01 Z-0.6000
G01 Z0
G00 Z2.0000
G00 X50.0550 Y74.8450
G01 Z-0.6000
G01 Z0
G00 Z2.0000
G00 X52.5950 Y74.8450
G01 Z-0.6000
G01 Z0
G00 Z2.0000
G00 X55.1350 Y74.8450
G01 Z-0.6000
G01 Z0
G00 Z2.0000
G00 X57.6750 Y74.8450
G01 Z-0.6000
G01 Z0
G00 Z2.0000
G00 X60.2150 Y74.8450
G01 Z-0.6000
G01 Z0
G00 Z2.0000
G00 X62.7550 Y74.8450
G01 Z-0.6000
G01 Z0
G00 Z2.0000
G00 X65.2950 Y74.8450
G01 Z-0.6000
G01 Z0
G00 Z2.0000
G00 X67.8350 Y74.8450
G01 Z-0.6000
G01 Z0
G00 Z2.0000
G00 X70.3750 Y74.8450
G01 Z-0.6000
G01 Z0
G00 Z2.0000
G00 X62.7550 Y51.9850
G01 Z-0.6000
G01 Z0
G00 Z2.0000
G00 X65.2950 Y51.9850
G01 Z-0.6000
G01 Z0
G00 Z2.0000
G00 X67.8350 Y51.9850
G01 Z-0.6000
G01 Z0
G00 Z2.0000
G00 X70.3750 Y51.9850
G01 Z-0.6000
G01 Z0
G00 Z2.0000
G00 X74.7400 Y46.9050
G01 Z-0.6000
G01 Z0
G00 Z2.0000
M05
G00 Z20.00


