(G-CODE GENERATED BY FLATCAM v8.994 - www.flatcam.org - Version Date: 2020/11/7)

(Name: innogreentech_mt_paint_cnc)
(Type: G-code from Geometry)
(Units: MM)

(Created on Tuesday, 16 February 2021 at 18:21)

(This preprocessor is the default preprocessor used by FlatCAM.)
(It is made to work with MACH3 compatible motion controllers.)

(TOOL DIAMETER: 0.1705 mm)
(Feedrate_XY: 100.0 mm/min)
(Feedrate_Z: 60.0 mm/min)
(Feedrate rapids 1500.0 mm/min)

(Z_Cut: -0.1999 mm)
(DepthPerCut: 0.1 mm <=>2 passes)
(Z_Move: 2.0 mm)
(Z Start: None mm)
(Z End: 20.0 mm)
(X,Y End: None mm)
(Steps per circle: 64)
(Preprocessor Geometry: default)

(X range:   26.2682 ...   55.6836  mm)
(Y range:    0.7792 ...    7.4589  mm)

(Spindle Speed: 12000.0 RPM)
G21
G90
G94

G01 F100.00

M5
G00 Z20.0000
G00 X0.0000 Y0.0000
T1
M6    
(MSG, Change to Tool Dia = 0.1705)
M0
G00 Z20.0000

M03 S12000.0
G01 F100.00
G00 X26.3979 Y3.3420
G01 F60.00
G01 Z-0.1000
G01 F100.00
G01 X26.3975 Y3.3504
G01 X26.3965 Y3.3567
G01 X26.3950 Y3.3628
G01 X26.3929 Y3.3688
G01 X26.3901 Y3.3746
G01 X26.3869 Y3.3800
G01 X26.3831 Y3.3851
G01 X26.3788 Y3.3898
G01 X26.3741 Y3.3941
G01 X26.3690 Y3.3979
G01 X26.3636 Y3.4011
G01 X26.3578 Y3.4038
G01 X26.3519 Y3.4060
G01 X26.3457 Y3.4075
G01 X26.3394 Y3.4085
G01 X26.3331 Y3.4088
G01 X26.3267 Y3.4085
G01 X26.3204 Y3.4075
G01 X26.3143 Y3.4060
G01 X26.3083 Y3.4038
G01 X26.3026 Y3.4011
G01 X26.2971 Y3.3979
G01 X26.2920 Y3.3941
G01 X26.2873 Y3.3898
G01 X26.2830 Y3.3851
G01 X26.2793 Y3.3800
G01 X26.2760 Y3.3746
G01 X26.2733 Y3.3688
G01 X26.2711 Y3.3628
G01 X26.2696 Y3.3567
G01 X26.2687 Y3.3504
G01 X26.2682 Y3.3420
G01 X26.2682 Y0.8461
G01 X26.2687 Y0.8377
G01 X26.2696 Y0.8314
G01 X26.2711 Y0.8253
G01 X26.2733 Y0.8193
G01 X26.2760 Y0.8135
G01 X26.2793 Y0.8081
G01 X26.2830 Y0.8030
G01 X26.2873 Y0.7983
G01 X26.2920 Y0.7940
G01 X26.2971 Y0.7902
G01 X26.3026 Y0.7870
G01 X26.3083 Y0.7843
G01 X26.3143 Y0.7821
G01 X26.3204 Y0.7806
G01 X26.3267 Y0.7796
G01 X26.3331 Y0.7793
G01 X26.3394 Y0.7796
G01 X26.3457 Y0.7806
G01 X26.3519 Y0.7821
G01 X26.3578 Y0.7843
G01 X26.3636 Y0.7870
G01 X26.3690 Y0.7902
G01 X26.3741 Y0.7940
G01 X26.3788 Y0.7983
G01 X26.3831 Y0.8030
G01 X26.3869 Y0.8081
G01 X26.3901 Y0.8135
G01 X26.3929 Y0.8193
G01 X26.3950 Y0.8253
G01 X26.3965 Y0.8314
G01 X26.3975 Y0.8377
G01 X26.3979 Y0.8461
G01 X26.3979 Y3.3420
G00 X26.3979 Y3.3420
G01 F60.00
G01 Z-0.1999
G01 F100.00
G01 X26.3979 Y0.8461
G01 X26.3975 Y0.8377
G01 X26.3965 Y0.8314
G01 X26.3950 Y0.8253
G01 X26.3929 Y0.8193
G01 X26.3901 Y0.8135
G01 X26.3869 Y0.8081
G01 X26.3831 Y0.8030
G01 X26.3788 Y0.7983
G01 X26.3741 Y0.7940
G01 X26.3690 Y0.7902
G01 X26.3636 Y0.7870
G01 X26.3578 Y0.7843
G01 X26.3519 Y0.7821
G01 X26.3457 Y0.7806
G01 X26.3394 Y0.7796
G01 X26.3331 Y0.7793
G01 X26.3267 Y0.7796
G01 X26.3204 Y0.7806
G01 X26.3143 Y0.7821
G01 X26.3083 Y0.7843
G01 X26.3026 Y0.7870
G01 X26.2971 Y0.7902
G01 X26.2920 Y0.7940
G01 X26.2873 Y0.7983
G01 X26.2830 Y0.8030
G01 X26.2793 Y0.8081
G01 X26.2760 Y0.8135
G01 X26.2733 Y0.8193
G01 X26.2711 Y0.8253
G01 X26.2696 Y0.8314
G01 X26.2687 Y0.8377
G01 X26.2682 Y0.8461
G01 X26.2682 Y3.3420
G01 X26.2687 Y3.3504
G01 X26.2696 Y3.3567
G01 X26.2711 Y3.3628
G01 X26.2733 Y3.3688
G01 X26.2760 Y3.3746
G01 X26.2793 Y3.3800
G01 X26.2830 Y3.3851
G01 X26.2873 Y3.3898
G01 X26.2920 Y3.3941
G01 X26.2971 Y3.3979
G01 X26.3026 Y3.4011
G01 X26.3083 Y3.4038
G01 X26.3143 Y3.4060
G01 X26.3204 Y3.4075
G01 X26.3267 Y3.4085
G01 X26.3331 Y3.4088
G01 X26.3394 Y3.4085
G01 X26.3457 Y3.4075
G01 X26.3519 Y3.4060
G01 X26.3578 Y3.4038
G01 X26.3636 Y3.4011
G01 X26.3690 Y3.3979
G01 X26.3741 Y3.3941
G01 X26.3788 Y3.3898
G01 X26.3831 Y3.3851
G01 X26.3869 Y3.3800
G01 X26.3901 Y3.3746
G01 X26.3929 Y3.3688
G01 X26.3950 Y3.3628
G01 X26.3965 Y3.3567
G01 X26.3975 Y3.3504
G01 X26.3979 Y3.3420
G00 Z2.0000
G00 X27.6125 Y3.0097
G01 F60.00
G01 Z-0.1000
G01 F100.00
G01 X27.6122 Y3.0103
G01 X27.6122 Y3.0096
G01 X27.6125 Y3.0097
G00 X27.6125 Y3.0097
G01 F60.00
G01 Z-0.1999
G01 F100.00
G01 X27.6122 Y3.0096
G01 X27.6122 Y3.0103
G01 X27.6125 Y3.0097
G00 Z2.0000
G00 X27.5884 Y2.7789
G01 F60.00
G01 Z-0.1000
G01 F100.00
G01 X27.5888 Y2.7872
G01 X27.5896 Y2.7934
G01 X27.5926 Y2.8054
G01 X27.5947 Y2.8112
G01 X27.5982 Y2.8187
G01 X27.6048 Y2.8292
G01 X27.6100 Y2.8357
G01 X27.6143 Y2.8402
G01 X27.6238 Y2.8481
G01 X27.6344 Y2.8546
G01 X27.6419 Y2.8581
G01 X27.6478 Y2.8602
G01 X27.6537 Y2.8618
G01 X27.6619 Y2.8634
G01 X27.6743 Y2.8642
G01 X27.6805 Y2.8639
G01 X27.6887 Y2.8628
G01 X27.7007 Y2.8598
G01 X27.7084 Y2.8568
G01 X27.7140 Y2.8540
G01 X27.7244 Y2.8474
G01 X27.7338 Y2.8393
G01 X27.7381 Y2.8347
G01 X27.7432 Y2.8282
G01 X27.7476 Y2.8212
G01 X28.8948 Y0.8137
G01 X28.8993 Y0.8066
G01 X28.9032 Y0.8017
G01 X28.9075 Y0.7971
G01 X28.9123 Y0.7930
G01 X28.9174 Y0.7894
G01 X28.9229 Y0.7863
G01 X28.9286 Y0.7837
G01 X28.9346 Y0.7817
G01 X28.9407 Y0.7803
G01 X28.9469 Y0.7795
G01 X28.9532 Y0.7793
G01 X28.9595 Y0.7797
G01 X28.9657 Y0.7808
G01 X28.9717 Y0.7824
G01 X28.9776 Y0.7846
G01 X28.9833 Y0.7873
G01 X28.9886 Y0.7906
G01 X28.9936 Y0.7944
G01 X28.9983 Y0.7987
G01 X29.0024 Y0.8034
G01 X29.0062 Y0.8084
G01 X29.0094 Y0.8138
G01 X29.0120 Y0.8195
G01 X29.0141 Y0.8255
G01 X29.0156 Y0.8316
G01 X29.0165 Y0.8378
G01 X29.0169 Y0.8461
G01 X29.0169 Y3.3420
G01 X29.0165 Y3.3504
G01 X29.0156 Y3.3567
G01 X29.0140 Y3.3628
G01 X29.0119 Y3.3688
G01 X29.0092 Y3.3746
G01 X29.0059 Y3.3800
G01 X29.0021 Y3.3851
G01 X28.9979 Y3.3898
G01 X28.9932 Y3.3941
G01 X28.9881 Y3.3979
G01 X28.9826 Y3.4011
G01 X28.9769 Y3.4038
G01 X28.9709 Y3.4060
G01 X28.9647 Y3.4075
G01 X28.9585 Y3.4085
G01 X28.9521 Y3.4088
G01 X28.9458 Y3.4085
G01 X28.9395 Y3.4075
G01 X28.9333 Y3.4060
G01 X28.9273 Y3.4038
G01 X28.9216 Y3.4011
G01 X28.9162 Y3.3979
G01 X28.9111 Y3.3941
G01 X28.9063 Y3.3898
G01 X28.9021 Y3.3851
G01 X28.8983 Y3.3800
G01 X28.8950 Y3.3746
G01 X28.8923 Y3.3688
G01 X28.8902 Y3.3628
G01 X28.8886 Y3.3567
G01 X28.8877 Y3.3504
G01 X28.8873 Y3.3420
G01 X28.8872 Y1.4050
G01 X28.8864 Y1.3968
G01 X28.8848 Y1.3887
G01 X28.8831 Y1.3827
G01 X28.8801 Y1.3750
G01 X28.8764 Y1.3676
G01 X28.8721 Y1.3605
G01 X28.8670 Y1.3540
G01 X28.8614 Y1.3479
G01 X28.8551 Y1.3425
G01 X28.8484 Y1.3376
G01 X28.8413 Y1.3335
G01 X28.8337 Y1.3300
G01 X28.8259 Y1.3273
G01 X28.8179 Y1.3254
G01 X28.8097 Y1.3243
G01 X28.8014 Y1.3239
G01 X28.7911 Y1.3246
G01 X28.7789 Y1.3271
G01 X28.7692 Y1.3305
G01 X28.7599 Y1.3351
G01 X28.7512 Y1.3407
G01 X28.7433 Y1.3474
G01 X28.7362 Y1.3550
G01 X28.7291 Y1.3651
G01 X27.5809 Y3.3744
G01 X27.5764 Y3.3815
G01 X27.5725 Y3.3864
G01 X27.5681 Y3.3910
G01 X27.5634 Y3.3951
G01 X27.5583 Y3.3987
G01 X27.5528 Y3.4018
G01 X27.5471 Y3.4044
G01 X27.5411 Y3.4063
G01 X27.5350 Y3.4078
G01 X27.5287 Y3.4086
G01 X27.5225 Y3.4088
G01 X27.5162 Y3.4084
G01 X27.5100 Y3.4073
G01 X27.5039 Y3.4057
G01 X27.4980 Y3.4035
G01 X27.4924 Y3.4008
G01 X27.4870 Y3.3975
G01 X27.4820 Y3.3937
G01 X27.4774 Y3.3894
G01 X27.4732 Y3.3847
G01 X27.4695 Y3.3797
G01 X27.4663 Y3.3743
G01 X27.4636 Y3.3686
G01 X27.4615 Y3.3626
G01 X27.4600 Y3.3565
G01 X27.4591 Y3.3503
G01 X27.4587 Y3.3420
G01 X27.4587 Y0.8461
G01 X27.4591 Y0.8377
G01 X27.4601 Y0.8314
G01 X27.4616 Y0.8253
G01 X27.4637 Y0.8193
G01 X27.4665 Y0.8135
G01 X27.4697 Y0.8081
G01 X27.4735 Y0.8030
G01 X27.4778 Y0.7983
G01 X27.4825 Y0.7940
G01 X27.4876 Y0.7902
G01 X27.4930 Y0.7870
G01 X27.4988 Y0.7843
G01 X27.5048 Y0.7821
G01 X27.5109 Y0.7806
G01 X27.5172 Y0.7796
G01 X27.5235 Y0.7793
G01 X27.5299 Y0.7796
G01 X27.5362 Y0.7806
G01 X27.5423 Y0.7821
G01 X27.5483 Y0.7843
G01 X27.5541 Y0.7870
G01 X27.5595 Y0.7902
G01 X27.5646 Y0.7940
G01 X27.5693 Y0.7983
G01 X27.5736 Y0.8030
G01 X27.5774 Y0.8081
G01 X27.5806 Y0.8135
G01 X27.5833 Y0.8193
G01 X27.5855 Y0.8253
G01 X27.5870 Y0.8314
G01 X27.5880 Y0.8377
G01 X27.5884 Y0.8461
G01 X27.5884 Y2.7789
G00 X27.5884 Y2.7789
G01 F60.00
G01 Z-0.1999
G01 F100.00
G01 X27.5884 Y0.8461
G01 X27.5880 Y0.8377
G01 X27.5870 Y0.8314
G01 X27.5855 Y0.8253
G01 X27.5833 Y0.8193
G01 X27.5806 Y0.8135
G01 X27.5774 Y0.8081
G01 X27.5736 Y0.8030
G01 X27.5693 Y0.7983
G01 X27.5646 Y0.7940
G01 X27.5595 Y0.7902
G01 X27.5541 Y0.7870
G01 X27.5483 Y0.7843
G01 X27.5423 Y0.7821
G01 X27.5362 Y0.7806
G01 X27.5299 Y0.7796
G01 X27.5235 Y0.7793
G01 X27.5172 Y0.7796
G01 X27.5109 Y0.7806
G01 X27.5048 Y0.7821
G01 X27.4988 Y0.7843
G01 X27.4930 Y0.7870
G01 X27.4876 Y0.7902
G01 X27.4825 Y0.7940
G01 X27.4778 Y0.7983
G01 X27.4735 Y0.8030
G01 X27.4697 Y0.8081
G01 X27.4665 Y0.8135
G01 X27.4637 Y0.8193
G01 X27.4616 Y0.8253
G01 X27.4601 Y0.8314
G01 X27.4591 Y0.8377
G01 X27.4587 Y0.8461
G01 X27.4587 Y3.3420
G01 X27.4591 Y3.3503
G01 X27.4600 Y3.3565
G01 X27.4615 Y3.3626
G01 X27.4636 Y3.3686
G01 X27.4663 Y3.3743
G01 X27.4695 Y3.3797
G01 X27.4732 Y3.3847
G01 X27.4774 Y3.3894
G01 X27.4820 Y3.3937
G01 X27.4870 Y3.3975
G01 X27.4924 Y3.4008
G01 X27.4980 Y3.4035
G01 X27.5039 Y3.4057
G01 X27.5100 Y3.4073
G01 X27.5162 Y3.4084
G01 X27.5225 Y3.4088
G01 X27.5287 Y3.4086
G01 X27.5350 Y3.4078
G01 X27.5411 Y3.4063
G01 X27.5471 Y3.4044
G01 X27.5528 Y3.4018
G01 X27.5583 Y3.3987
G01 X27.5634 Y3.3951
G01 X27.5681 Y3.3910
G01 X27.5725 Y3.3864
G01 X27.5764 Y3.3815
G01 X27.5809 Y3.3744
G01 X28.7291 Y1.3651
G01 X28.7362 Y1.3550
G01 X28.7433 Y1.3474
G01 X28.7512 Y1.3407
G01 X28.7599 Y1.3351
G01 X28.7692 Y1.3305
G01 X28.7789 Y1.3271
G01 X28.7911 Y1.3246
G01 X28.8014 Y1.3239
G01 X28.8097 Y1.3243
G01 X28.8179 Y1.3254
G01 X28.8259 Y1.3273
G01 X28.8337 Y1.3300
G01 X28.8413 Y1.3335
G01 X28.8484 Y1.3376
G01 X28.8551 Y1.3425
G01 X28.8614 Y1.3479
G01 X28.8670 Y1.3540
G01 X28.8721 Y1.3605
G01 X28.8764 Y1.3676
G01 X28.8801 Y1.3750
G01 X28.8831 Y1.3827
G01 X28.8848 Y1.3887
G01 X28.8864 Y1.3968
G01 X28.8872 Y1.4050
G01 X28.8873 Y3.3420
G01 X28.8877 Y3.3504
G01 X28.8886 Y3.3567
G01 X28.8902 Y3.3628
G01 X28.8923 Y3.3688
G01 X28.8950 Y3.3746
G01 X28.8983 Y3.3800
G01 X28.9021 Y3.3851
G01 X28.9063 Y3.3898
G01 X28.9111 Y3.3941
G01 X28.9162 Y3.3979
G01 X28.9216 Y3.4011
G01 X28.9273 Y3.4038
G01 X28.9333 Y3.4060
G01 X28.9395 Y3.4075
G01 X28.9458 Y3.4085
G01 X28.9521 Y3.4088
G01 X28.9585 Y3.4085
G01 X28.9647 Y3.4075
G01 X28.9709 Y3.4060
G01 X28.9769 Y3.4038
G01 X28.9826 Y3.4011
G01 X28.9881 Y3.3979
G01 X28.9932 Y3.3941
G01 X28.9979 Y3.3898
G01 X29.0021 Y3.3851
G01 X29.0059 Y3.3800
G01 X29.0092 Y3.3746
G01 X29.0119 Y3.3688
G01 X29.0140 Y3.3628
G01 X29.0156 Y3.3567
G01 X29.0165 Y3.3504
G01 X29.0169 Y3.3420
G01 X29.0169 Y0.8461
G01 X29.0165 Y0.8378
G01 X29.0156 Y0.8316
G01 X29.0141 Y0.8255
G01 X29.0120 Y0.8195
G01 X29.0094 Y0.8138
G01 X29.0062 Y0.8084
G01 X29.0024 Y0.8034
G01 X28.9983 Y0.7987
G01 X28.9936 Y0.7944
G01 X28.9886 Y0.7906
G01 X28.9833 Y0.7873
G01 X28.9776 Y0.7846
G01 X28.9717 Y0.7824
G01 X28.9657 Y0.7808
G01 X28.9595 Y0.7797
G01 X28.9532 Y0.7793
G01 X28.9469 Y0.7795
G01 X28.9407 Y0.7803
G01 X28.9346 Y0.7817
G01 X28.9286 Y0.7837
G01 X28.9229 Y0.7863
G01 X28.9174 Y0.7894
G01 X28.9123 Y0.7930
G01 X28.9075 Y0.7971
G01 X28.9032 Y0.8017
G01 X28.8993 Y0.8066
G01 X28.8948 Y0.8137
G01 X27.7476 Y2.8212
G01 X27.7432 Y2.8282
G01 X27.7381 Y2.8347
G01 X27.7338 Y2.8393
G01 X27.7244 Y2.8474
G01 X27.7140 Y2.8540
G01 X27.7084 Y2.8568
G01 X27.7007 Y2.8598
G01 X27.6887 Y2.8628
G01 X27.6805 Y2.8639
G01 X27.6743 Y2.8642
G01 X27.6619 Y2.8634
G01 X27.6537 Y2.8618
G01 X27.6478 Y2.8602
G01 X27.6419 Y2.8581
G01 X27.6344 Y2.8546
G01 X27.6238 Y2.8481
G01 X27.6143 Y2.8402
G01 X27.6100 Y2.8357
G01 X27.6048 Y2.8292
G01 X27.5982 Y2.8187
G01 X27.5947 Y2.8112
G01 X27.5926 Y2.8054
G01 X27.5896 Y2.7934
G01 X27.5888 Y2.7872
G01 X27.5884 Y2.7789
G00 Z2.0000
G00 X28.8635 Y1.1785
G01 F60.00
G01 Z-0.1000
G01 F100.00
G01 X28.8631 Y1.1784
G01 X28.8635 Y1.1778
G01 X28.8635 Y1.1785
G00 X28.8635 Y1.1785
G01 F60.00
G01 Z-0.1999
G01 F100.00
G01 X28.8635 Y1.1778
G01 X28.8631 Y1.1784
G01 X28.8635 Y1.1785
G00 Z2.0000
G00 X30.2074 Y2.7789
G01 F60.00
G01 Z-0.1000
G01 F100.00
G01 X30.2078 Y2.7872
G01 X30.2086 Y2.7934
G01 X30.2116 Y2.8054
G01 X30.2138 Y2.8112
G01 X30.2173 Y2.8187
G01 X30.2238 Y2.8292
G01 X30.2319 Y2.8387
G01 X30.2380 Y2.8443
G01 X30.2429 Y2.8481
G01 X30.2534 Y2.8546
G01 X30.2610 Y2.8581
G01 X30.2668 Y2.8602
G01 X30.2728 Y2.8618
G01 X30.2809 Y2.8634
G01 X30.2933 Y2.8642
G01 X30.3057 Y2.8632
G01 X30.3118 Y2.8620
G01 X30.3197 Y2.8598
G01 X30.3256 Y2.8576
G01 X30.3330 Y2.8540
G01 X30.3435 Y2.8474
G01 X30.3499 Y2.8421
G01 X30.3543 Y2.8378
G01 X30.3622 Y2.8282
G01 X30.3667 Y2.8212
G01 X31.5138 Y0.8137
G01 X31.5183 Y0.8066
G01 X31.5222 Y0.8017
G01 X31.5266 Y0.7971
G01 X31.5313 Y0.7930
G01 X31.5365 Y0.7894
G01 X31.5419 Y0.7863
G01 X31.5476 Y0.7837
G01 X31.5536 Y0.7817
G01 X31.5597 Y0.7803
G01 X31.5660 Y0.7795
G01 X31.5722 Y0.7793
G01 X31.5785 Y0.7797
G01 X31.5847 Y0.7808
G01 X31.5908 Y0.7824
G01 X31.5967 Y0.7846
G01 X31.6023 Y0.7873
G01 X31.6077 Y0.7906
G01 X31.6127 Y0.7944
G01 X31.6173 Y0.7987
G01 X31.6215 Y0.8034
G01 X31.6252 Y0.8084
G01 X31.6284 Y0.8138
G01 X31.6311 Y0.8195
G01 X31.6332 Y0.8255
G01 X31.6347 Y0.8316
G01 X31.6356 Y0.8378
G01 X31.6360 Y0.8461
G01 X31.6360 Y3.3420
G01 X31.6356 Y3.3504
G01 X31.6346 Y3.3567
G01 X31.6331 Y3.3628
G01 X31.6310 Y3.3688
G01 X31.6282 Y3.3746
G01 X31.6250 Y3.3800
G01 X31.6212 Y3.3851
G01 X31.6169 Y3.3898
G01 X31.6122 Y3.3941
G01 X31.6071 Y3.3979
G01 X31.6017 Y3.4011
G01 X31.5959 Y3.4038
G01 X31.5899 Y3.4060
G01 X31.5838 Y3.4075
G01 X31.5775 Y3.4085
G01 X31.5712 Y3.4088
G01 X31.5648 Y3.4085
G01 X31.5585 Y3.4075
G01 X31.5524 Y3.4060
G01 X31.5464 Y3.4038
G01 X31.5407 Y3.4011
G01 X31.5352 Y3.3979
G01 X31.5301 Y3.3941
G01 X31.5254 Y3.3898
G01 X31.5211 Y3.3851
G01 X31.5173 Y3.3800
G01 X31.5141 Y3.3746
G01 X31.5114 Y3.3688
G01 X31.5092 Y3.3628
G01 X31.5077 Y3.3567
G01 X31.5068 Y3.3504
G01 X31.5063 Y3.3420
G01 X31.5062 Y1.4050
G01 X31.5054 Y1.3968
G01 X31.5038 Y1.3887
G01 X31.5021 Y1.3827
G01 X31.4992 Y1.3750
G01 X31.4955 Y1.3676
G01 X31.4911 Y1.3605
G01 X31.4861 Y1.3540
G01 X31.4804 Y1.3479
G01 X31.4742 Y1.3425
G01 X31.4675 Y1.3376
G01 X31.4603 Y1.3335
G01 X31.4528 Y1.3300
G01 X31.4450 Y1.3273
G01 X31.4369 Y1.3254
G01 X31.4287 Y1.3243
G01 X31.4204 Y1.3239
G01 X31.4101 Y1.3246
G01 X31.4000 Y1.3266
G01 X31.3882 Y1.3305
G01 X31.3789 Y1.3351
G01 X31.3703 Y1.3407
G01 X31.3609 Y1.3488
G01 X31.3540 Y1.3566
G01 X31.3481 Y1.3651
G01 X30.1999 Y3.3744
G01 X30.1954 Y3.3815
G01 X30.1915 Y3.3864
G01 X30.1872 Y3.3910
G01 X30.1824 Y3.3951
G01 X30.1773 Y3.3987
G01 X30.1718 Y3.4018
G01 X30.1661 Y3.4044
G01 X30.1601 Y3.4063
G01 X30.1540 Y3.4078
G01 X30.1478 Y3.4086
G01 X30.1415 Y3.4088
G01 X30.1352 Y3.4084
G01 X30.1290 Y3.4073
G01 X30.1230 Y3.4057
G01 X30.1171 Y3.4035
G01 X30.1114 Y3.4008
G01 X30.1061 Y3.3975
G01 X30.1011 Y3.3937
G01 X30.0964 Y3.3894
G01 X30.0923 Y3.3847
G01 X30.0885 Y3.3797
G01 X30.0853 Y3.3743
G01 X30.0827 Y3.3686
G01 X30.0806 Y3.3626
G01 X30.0791 Y3.3565
G01 X30.0782 Y3.3503
G01 X30.0778 Y3.3420
G01 X30.0778 Y0.8461
G01 X30.0782 Y0.8377
G01 X30.0791 Y0.8314
G01 X30.0807 Y0.8253
G01 X30.0828 Y0.8193
G01 X30.0855 Y0.8135
G01 X30.0888 Y0.8081
G01 X30.0926 Y0.8030
G01 X30.0968 Y0.7983
G01 X30.1015 Y0.7940
G01 X30.1066 Y0.7902
G01 X30.1121 Y0.7870
G01 X30.1178 Y0.7843
G01 X30.1238 Y0.7821
G01 X30.1300 Y0.7806
G01 X30.1362 Y0.7796
G01 X30.1426 Y0.7793
G01 X30.1489 Y0.7796
G01 X30.1552 Y0.7806
G01 X30.1614 Y0.7821
G01 X30.1674 Y0.7843
G01 X30.1731 Y0.7870
G01 X30.1785 Y0.7902
G01 X30.1836 Y0.7940
G01 X30.1884 Y0.7983
G01 X30.1926 Y0.8030
G01 X30.1964 Y0.8081
G01 X30.1997 Y0.8135
G01 X30.2024 Y0.8193
G01 X30.2045 Y0.8253
G01 X30.2061 Y0.8314
G01 X30.2070 Y0.8377
G01 X30.2074 Y0.8461
G01 X30.2074 Y2.7789
G00 X30.2074 Y2.7789
G01 F60.00
G01 Z-0.1999
G01 F100.00
G01 X30.2074 Y0.8461
G01 X30.2070 Y0.8377
G01 X30.2061 Y0.8314
G01 X30.2045 Y0.8253
G01 X30.2024 Y0.8193
G01 X30.1997 Y0.8135
G01 X30.1964 Y0.8081
G01 X30.1926 Y0.8030
G01 X30.1884 Y0.7983
G01 X30.1836 Y0.7940
G01 X30.1785 Y0.7902
G01 X30.1731 Y0.7870
G01 X30.1674 Y0.7843
G01 X30.1614 Y0.7821
G01 X30.1552 Y0.7806
G01 X30.1489 Y0.7796
G01 X30.1426 Y0.7793
G01 X30.1362 Y0.7796
G01 X30.1300 Y0.7806
G01 X30.1238 Y0.7821
G01 X30.1178 Y0.7843
G01 X30.1121 Y0.7870
G01 X30.1066 Y0.7902
G01 X30.1015 Y0.7940
G01 X30.0968 Y0.7983
G01 X30.0926 Y0.8030
G01 X30.0888 Y0.8081
G01 X30.0855 Y0.8135
G01 X30.0828 Y0.8193
G01 X30.0807 Y0.8253
G01 X30.0791 Y0.8314
G01 X30.0782 Y0.8377
G01 X30.0778 Y0.8461
G01 X30.0778 Y3.3420
G01 X30.0782 Y3.3503
G01 X30.0791 Y3.3565
G01 X30.0806 Y3.3626
G01 X30.0827 Y3.3686
G01 X30.0853 Y3.3743
G01 X30.0885 Y3.3797
G01 X30.0923 Y3.3847
G01 X30.0964 Y3.3894
G01 X30.1011 Y3.3937
G01 X30.1061 Y3.3975
G01 X30.1114 Y3.4008
G01 X30.1171 Y3.4035
G01 X30.1230 Y3.4057
G01 X30.1290 Y3.4073
G01 X30.1352 Y3.4084
G01 X30.1415 Y3.4088
G01 X30.1478 Y3.4086
G01 X30.1540 Y3.4078
G01 X30.1601 Y3.4063
G01 X30.1661 Y3.4044
G01 X30.1718 Y3.4018
G01 X30.1773 Y3.3987
G01 X30.1824 Y3.3951
G01 X30.1872 Y3.3910
G01 X30.1915 Y3.3864
G01 X30.1954 Y3.3815
G01 X30.1999 Y3.3744
G01 X31.3481 Y1.3651
G01 X31.3540 Y1.3566
G01 X31.3609 Y1.3488
G01 X31.3703 Y1.3407
G01 X31.3789 Y1.3351
G01 X31.3882 Y1.3305
G01 X31.4000 Y1.3266
G01 X31.4101 Y1.3246
G01 X31.4204 Y1.3239
G01 X31.4287 Y1.3243
G01 X31.4369 Y1.3254
G01 X31.4450 Y1.3273
G01 X31.4528 Y1.3300
G01 X31.4603 Y1.3335
G01 X31.4675 Y1.3376
G01 X31.4742 Y1.3425
G01 X31.4804 Y1.3479
G01 X31.4861 Y1.3540
G01 X31.4911 Y1.3605
G01 X31.4955 Y1.3676
G01 X31.4992 Y1.3750
G01 X31.5021 Y1.3827
G01 X31.5038 Y1.3887
G01 X31.5054 Y1.3968
G01 X31.5062 Y1.4050
G01 X31.5063 Y3.3420
G01 X31.5068 Y3.3504
G01 X31.5077 Y3.3567
G01 X31.5092 Y3.3628
G01 X31.5114 Y3.3688
G01 X31.5141 Y3.3746
G01 X31.5173 Y3.3800
G01 X31.5211 Y3.3851
G01 X31.5254 Y3.3898
G01 X31.5301 Y3.3941
G01 X31.5352 Y3.3979
G01 X31.5407 Y3.4011
G01 X31.5464 Y3.4038
G01 X31.5524 Y3.4060
G01 X31.5585 Y3.4075
G01 X31.5648 Y3.4085
G01 X31.5712 Y3.4088
G01 X31.5775 Y3.4085
G01 X31.5838 Y3.4075
G01 X31.5899 Y3.4060
G01 X31.5959 Y3.4038
G01 X31.6017 Y3.4011
G01 X31.6071 Y3.3979
G01 X31.6122 Y3.3941
G01 X31.6169 Y3.3898
G01 X31.6212 Y3.3851
G01 X31.6250 Y3.3800
G01 X31.6282 Y3.3746
G01 X31.6310 Y3.3688
G01 X31.6331 Y3.3628
G01 X31.6346 Y3.3567
G01 X31.6356 Y3.3504
G01 X31.6360 Y3.3420
G01 X31.6360 Y0.8461
G01 X31.6356 Y0.8378
G01 X31.6347 Y0.8316
G01 X31.6332 Y0.8255
G01 X31.6311 Y0.8195
G01 X31.6284 Y0.8138
G01 X31.6252 Y0.8084
G01 X31.6215 Y0.8034
G01 X31.6173 Y0.7987
G01 X31.6127 Y0.7944
G01 X31.6077 Y0.7906
G01 X31.6023 Y0.7873
G01 X31.5967 Y0.7846
G01 X31.5908 Y0.7824
G01 X31.5847 Y0.7808
G01 X31.5785 Y0.7797
G01 X31.5722 Y0.7793
G01 X31.5660 Y0.7795
G01 X31.5597 Y0.7803
G01 X31.5536 Y0.7817
G01 X31.5476 Y0.7837
G01 X31.5419 Y0.7863
G01 X31.5365 Y0.7894
G01 X31.5313 Y0.7930
G01 X31.5266 Y0.7971
G01 X31.5222 Y0.8017
G01 X31.5183 Y0.8066
G01 X31.5138 Y0.8137
G01 X30.3667 Y2.8212
G01 X30.3622 Y2.8282
G01 X30.3543 Y2.8378
G01 X30.3499 Y2.8421
G01 X30.3435 Y2.8474
G01 X30.3330 Y2.8540
G01 X30.3256 Y2.8576
G01 X30.3197 Y2.8598
G01 X30.3118 Y2.8620
G01 X30.3057 Y2.8632
G01 X30.2933 Y2.8642
G01 X30.2809 Y2.8634
G01 X30.2728 Y2.8618
G01 X30.2668 Y2.8602
G01 X30.2610 Y2.8581
G01 X30.2534 Y2.8546
G01 X30.2429 Y2.8481
G01 X30.2380 Y2.8443
G01 X30.2319 Y2.8387
G01 X30.2238 Y2.8292
G01 X30.2173 Y2.8187
G01 X30.2138 Y2.8112
G01 X30.2116 Y2.8054
G01 X30.2086 Y2.7934
G01 X30.2078 Y2.7872
G01 X30.2074 Y2.7789
G00 Z2.0000
G00 X30.2316 Y3.0097
G01 F60.00
G01 Z-0.1000
G01 F100.00
G01 X30.2312 Y3.0103
G01 X30.2312 Y3.0096
G01 X30.2316 Y3.0097
G00 X30.2316 Y3.0097
G01 F60.00
G01 Z-0.1999
G01 F100.00
G01 X30.2312 Y3.0096
G01 X30.2312 Y3.0103
G01 X30.2316 Y3.0097
G00 Z2.0000
G00 X31.4825 Y1.1785
G01 F60.00
G01 Z-0.1000
G01 F100.00
G01 X31.4822 Y1.1784
G01 X31.4825 Y1.1778
G01 X31.4825 Y1.1785
G00 X31.4825 Y1.1785
G01 F60.00
G01 Z-0.1999
G01 F100.00
G01 X31.4825 Y1.1778
G01 X31.4822 Y1.1784
G01 X31.4825 Y1.1785
G00 Z2.0000
G00 X33.2367 Y3.4087
G01 F60.00
G01 Z-0.1000
G01 F100.00
G01 X33.7120 Y3.4089
G01 X33.7200 Y3.4085
G01 X33.7260 Y3.4077
G01 X33.7318 Y3.4063
G01 X33.7375 Y3.4044
G01 X33.7448 Y3.4011
G01 X33.9791 Y3.2840
G01 X33.9871 Y3.2794
G01 X33.9927 Y3.2754
G01 X33.9996 Y3.2692
G01 X34.2347 Y3.0341
G01 X34.2399 Y3.0284
G01 X34.2434 Y3.0237
G01 X34.2465 Y3.0188
G01 X34.2492 Y3.0136
G01 X34.2513 Y3.0082
G01 X34.2536 Y3.0008
G01 X34.3715 Y2.5290
G01 X34.3734 Y2.5186
G01 X34.3741 Y2.5081
G01 X34.3741 Y1.6800
G01 X34.3734 Y1.6695
G01 X34.3715 Y1.6591
G01 X34.2536 Y1.1873
G01 X34.2513 Y1.1799
G01 X34.2492 Y1.1745
G01 X34.2465 Y1.1693
G01 X34.2434 Y1.1644
G01 X34.2399 Y1.1597
G01 X34.2347 Y1.1540
G01 X33.9996 Y0.9189
G01 X33.9927 Y0.9127
G01 X33.9871 Y0.9087
G01 X33.9791 Y0.9041
G01 X33.7448 Y0.7870
G01 X33.7375 Y0.7837
G01 X33.7318 Y0.7818
G01 X33.7260 Y0.7804
G01 X33.7200 Y0.7796
G01 X33.7120 Y0.7792
G01 X33.2398 Y0.7792
G01 X33.2318 Y0.7796
G01 X33.2259 Y0.7804
G01 X33.2201 Y0.7818
G01 X33.2144 Y0.7837
G01 X33.2071 Y0.7870
G01 X32.9728 Y0.9041
G01 X32.9648 Y0.9087
G01 X32.9591 Y0.9127
G01 X32.9523 Y0.9189
G01 X32.7172 Y1.1540
G01 X32.7119 Y1.1597
G01 X32.7084 Y1.1644
G01 X32.7053 Y1.1693
G01 X32.7027 Y1.1745
G01 X32.7005 Y1.1799
G01 X32.6983 Y1.1873
G01 X32.5803 Y1.6591
G01 X32.5784 Y1.6695
G01 X32.5778 Y1.6800
G01 X32.5778 Y2.5081
G01 X32.5784 Y2.5186
G01 X32.5803 Y2.5290
G01 X32.6983 Y3.0008
G01 X32.7005 Y3.0082
G01 X32.7027 Y3.0136
G01 X32.7053 Y3.0188
G01 X32.7084 Y3.0237
G01 X32.7119 Y3.0284
G01 X32.7172 Y3.0341
G01 X32.9523 Y3.2692
G01 X32.9591 Y3.2754
G01 X32.9648 Y3.2794
G01 X32.9728 Y3.2840
G01 X33.2070 Y3.4011
G01 X33.2143 Y3.4044
G01 X33.2203 Y3.4064
G01 X33.2265 Y3.4078
G01 X33.2367 Y3.4087
G01 X33.6786 Y3.2792
G01 X33.2713 Y3.2792
G01 X33.2634 Y3.2787
G01 X33.2575 Y3.2778
G01 X33.2498 Y3.2759
G01 X33.2424 Y3.2734
G01 X33.2351 Y3.2702
G01 X33.0505 Y3.1779
G01 X33.0426 Y3.1734
G01 X33.0369 Y3.1695
G01 X33.0283 Y3.1619
G01 X32.8369 Y2.9705
G01 X32.8293 Y2.9618
G01 X32.8239 Y2.9538
G01 X32.8187 Y2.9436
G01 X32.8160 Y2.9364
G01 X32.8144 Y2.9309
G01 X32.7100 Y2.5129
G01 X32.7078 Y2.5001
G01 X32.7074 Y2.4922
G01 X32.7074 Y1.6959
G01 X32.7078 Y1.6880
G01 X32.7100 Y1.6752
G01 X32.8144 Y1.2572
G01 X32.8173 Y1.2481
G01 X32.8211 Y1.2393
G01 X32.8249 Y1.2326
G01 X32.8282 Y1.2278
G01 X32.8317 Y1.2233
G01 X32.8369 Y1.2176
G01 X33.0283 Y1.0262
G01 X33.0369 Y1.0186
G01 X33.0465 Y1.0123
G01 X33.2369 Y0.9170
G01 X33.2479 Y0.9127
G01 X33.2595 Y0.9100
G01 X33.2654 Y0.9092
G01 X33.2733 Y0.9089
G01 X33.6786 Y0.9089
G01 X33.6884 Y0.9094
G01 X33.6962 Y0.9107
G01 X33.7058 Y0.9133
G01 X33.7149 Y0.9170
G01 X33.9013 Y1.0102
G01 X33.9112 Y1.0160
G01 X33.9167 Y1.0200
G01 X33.9235 Y1.0262
G01 X34.1150 Y1.2176
G01 X34.1202 Y1.2233
G01 X34.1237 Y1.2278
G01 X34.1269 Y1.2326
G01 X34.1307 Y1.2393
G01 X34.1346 Y1.2481
G01 X34.1374 Y1.2572
G01 X34.2425 Y1.6777
G01 X34.2441 Y1.6880
G01 X34.2444 Y1.6959
G01 X34.2444 Y2.4922
G01 X34.2441 Y2.5001
G01 X34.2419 Y2.5129
G01 X34.1374 Y2.9309
G01 X34.1346 Y2.9400
G01 X34.1315 Y2.9471
G01 X34.1279 Y2.9538
G01 X34.1237 Y2.9603
G01 X34.1202 Y2.9648
G01 X34.1150 Y2.9705
G01 X33.9235 Y3.1619
G01 X33.9185 Y3.1666
G01 X33.9131 Y3.1708
G01 X33.9073 Y3.1746
G01 X33.9013 Y3.1779
G01 X33.7149 Y3.2711
G01 X33.7058 Y3.2748
G01 X33.6962 Y3.2774
G01 X33.6884 Y3.2787
G01 X33.6786 Y3.2792
G00 X33.6786 Y3.2792
G01 F60.00
G01 Z-0.1999
G01 F100.00
G01 X33.6884 Y3.2787
G01 X33.6962 Y3.2774
G01 X33.7058 Y3.2748
G01 X33.7149 Y3.2711
G01 X33.9013 Y3.1779
G01 X33.9073 Y3.1746
G01 X33.9131 Y3.1708
G01 X33.9185 Y3.1666
G01 X33.9235 Y3.1619
G01 X34.1150 Y2.9705
G01 X34.1202 Y2.9648
G01 X34.1237 Y2.9603
G01 X34.1279 Y2.9538
G01 X34.1315 Y2.9471
G01 X34.1346 Y2.9400
G01 X34.1374 Y2.9309
G01 X34.2419 Y2.5129
G01 X34.2441 Y2.5001
G01 X34.2444 Y2.4922
G01 X34.2444 Y1.6959
G01 X34.2441 Y1.6880
G01 X34.2425 Y1.6777
G01 X34.1374 Y1.2572
G01 X34.1346 Y1.2481
G01 X34.1307 Y1.2393
G01 X34.1269 Y1.2326
G01 X34.1237 Y1.2278
G01 X34.1202 Y1.2233
G01 X34.1150 Y1.2176
G01 X33.9235 Y1.0262
G01 X33.9167 Y1.0200
G01 X33.9112 Y1.0160
G01 X33.9013 Y1.0102
G01 X33.7149 Y0.9170
G01 X33.7058 Y0.9133
G01 X33.6962 Y0.9107
G01 X33.6884 Y0.9094
G01 X33.6786 Y0.9089
G01 X33.2733 Y0.9089
G01 X33.2654 Y0.9092
G01 X33.2595 Y0.9100
G01 X33.2479 Y0.9127
G01 X33.2369 Y0.9170
G01 X33.0465 Y1.0123
G01 X33.0369 Y1.0186
G01 X33.0283 Y1.0262
G01 X32.8369 Y1.2176
G01 X32.8317 Y1.2233
G01 X32.8282 Y1.2278
G01 X32.8249 Y1.2326
G01 X32.8211 Y1.2393
G01 X32.8173 Y1.2481
G01 X32.8144 Y1.2572
G01 X32.7100 Y1.6752
G01 X32.7078 Y1.6880
G01 X32.7074 Y1.6959
G01 X32.7074 Y2.4922
G01 X32.7078 Y2.5001
G01 X32.7100 Y2.5129
G01 X32.8144 Y2.9309
G01 X32.8160 Y2.9364
G01 X32.8187 Y2.9436
G01 X32.8239 Y2.9538
G01 X32.8293 Y2.9618
G01 X32.8369 Y2.9705
G01 X33.0283 Y3.1619
G01 X33.0369 Y3.1695
G01 X33.0426 Y3.1734
G01 X33.0505 Y3.1779
G01 X33.2351 Y3.2702
G01 X33.2424 Y3.2734
G01 X33.2498 Y3.2759
G01 X33.2575 Y3.2778
G01 X33.2634 Y3.2787
G01 X33.2713 Y3.2792
G01 X33.6786 Y3.2792
G01 X33.2367 Y3.4087
G01 X33.2265 Y3.4078
G01 X33.2203 Y3.4064
G01 X33.2143 Y3.4044
G01 X33.2070 Y3.4011
G01 X32.9728 Y3.2840
G01 X32.9648 Y3.2794
G01 X32.9591 Y3.2754
G01 X32.9523 Y3.2692
G01 X32.7172 Y3.0341
G01 X32.7119 Y3.0284
G01 X32.7084 Y3.0237
G01 X32.7053 Y3.0188
G01 X32.7027 Y3.0136
G01 X32.7005 Y3.0082
G01 X32.6983 Y3.0008
G01 X32.5803 Y2.5290
G01 X32.5784 Y2.5186
G01 X32.5778 Y2.5081
G01 X32.5778 Y1.6800
G01 X32.5784 Y1.6695
G01 X32.5803 Y1.6591
G01 X32.6983 Y1.1873
G01 X32.7005 Y1.1799
G01 X32.7027 Y1.1745
G01 X32.7053 Y1.1693
G01 X32.7084 Y1.1644
G01 X32.7119 Y1.1597
G01 X32.7172 Y1.1540
G01 X32.9523 Y0.9189
G01 X32.9591 Y0.9127
G01 X32.9648 Y0.9087
G01 X32.9728 Y0.9041
G01 X33.2071 Y0.7870
G01 X33.2144 Y0.7837
G01 X33.2201 Y0.7818
G01 X33.2259 Y0.7804
G01 X33.2318 Y0.7796
G01 X33.2398 Y0.7792
G01 X33.7120 Y0.7792
G01 X33.7200 Y0.7796
G01 X33.7260 Y0.7804
G01 X33.7318 Y0.7818
G01 X33.7375 Y0.7837
G01 X33.7448 Y0.7870
G01 X33.9791 Y0.9041
G01 X33.9871 Y0.9087
G01 X33.9927 Y0.9127
G01 X33.9996 Y0.9189
G01 X34.2347 Y1.1540
G01 X34.2399 Y1.1597
G01 X34.2434 Y1.1644
G01 X34.2465 Y1.1693
G01 X34.2492 Y1.1745
G01 X34.2513 Y1.1799
G01 X34.2536 Y1.1873
G01 X34.3715 Y1.6591
G01 X34.3734 Y1.6695
G01 X34.3741 Y1.6800
G01 X34.3741 Y2.5081
G01 X34.3734 Y2.5186
G01 X34.3715 Y2.5290
G01 X34.2536 Y3.0008
G01 X34.2513 Y3.0082
G01 X34.2492 Y3.0136
G01 X34.2465 Y3.0188
G01 X34.2434 Y3.0237
G01 X34.2399 Y3.0284
G01 X34.2347 Y3.0341
G01 X33.9996 Y3.2692
G01 X33.9927 Y3.2754
G01 X33.9871 Y3.2794
G01 X33.9791 Y3.2840
G01 X33.7448 Y3.4011
G01 X33.7375 Y3.4044
G01 X33.7318 Y3.4063
G01 X33.7260 Y3.4077
G01 X33.7200 Y3.4085
G01 X33.7120 Y3.4089
G01 X33.2367 Y3.4087
G00 Z2.0000
G00 X36.4829 Y3.4011
G01 F60.00
G01 Z-0.1000
G01 F100.00
G01 X36.4756 Y3.4044
G01 X36.4699 Y3.4063
G01 X36.4640 Y3.4077
G01 X36.4581 Y3.4085
G01 X36.4501 Y3.4089
G01 X36.0973 Y3.4089
G01 X36.0880 Y3.4084
G01 X36.0812 Y3.4073
G01 X36.0723 Y3.4048
G01 X35.7192 Y3.2871
G01 X35.7118 Y3.2843
G01 X35.7064 Y3.2816
G01 X35.7013 Y3.2784
G01 X35.6965 Y3.2748
G01 X35.6906 Y3.2694
G01 X35.4555 Y3.0344
G01 X35.4493 Y3.0275
G01 X35.4453 Y3.0219
G01 X35.4407 Y3.0139
G01 X35.3237 Y2.7799
G01 X35.3200 Y2.7713
G01 X35.3172 Y2.7623
G01 X35.1994 Y2.2909
G01 X35.1975 Y2.2805
G01 X35.1968 Y2.2700
G01 X35.1968 Y1.9181
G01 X35.1975 Y1.9076
G01 X35.1994 Y1.8972
G01 X35.3172 Y1.4258
G01 X35.3200 Y1.4168
G01 X35.3237 Y1.4082
G01 X35.4407 Y1.1742
G01 X35.4453 Y1.1662
G01 X35.4493 Y1.1606
G01 X35.4555 Y1.1537
G01 X35.6906 Y0.9187
G01 X35.6965 Y0.9133
G01 X35.7013 Y0.9097
G01 X35.7064 Y0.9065
G01 X35.7118 Y0.9038
G01 X35.7192 Y0.9010
G01 X36.0723 Y0.7833
G01 X36.0812 Y0.7808
G01 X36.0880 Y0.7797
G01 X36.0973 Y0.7792
G01 X36.3308 Y0.7792
G01 X36.3400 Y0.7797
G01 X36.3468 Y0.7808
G01 X36.3557 Y0.7833
G01 X36.7088 Y0.9010
G01 X36.7163 Y0.9038
G01 X36.7217 Y0.9065
G01 X36.7268 Y0.9097
G01 X36.7315 Y0.9133
G01 X36.7374 Y0.9187
G01 X36.8536 Y1.0348
G01 X36.8593 Y1.0411
G01 X36.8631 Y1.0462
G01 X36.8663 Y1.0516
G01 X36.8691 Y1.0574
G01 X36.8712 Y1.0634
G01 X36.8727 Y1.0695
G01 X36.8737 Y1.0758
G01 X36.8741 Y1.0842
G01 X36.8741 Y1.9134
G01 X36.8737 Y1.9218
G01 X36.8727 Y1.9281
G01 X36.8712 Y1.9343
G01 X36.8691 Y1.9402
G01 X36.8663 Y1.9460
G01 X36.8631 Y1.9514
G01 X36.8593 Y1.9565
G01 X36.8550 Y1.9612
G01 X36.8503 Y1.9655
G01 X36.8452 Y1.9693
G01 X36.8398 Y1.9726
G01 X36.8340 Y1.9753
G01 X36.8280 Y1.9774
G01 X36.8219 Y1.9790
G01 X36.8156 Y1.9799
G01 X36.8072 Y1.9803
G01 X36.3352 Y1.9803
G01 X36.3267 Y1.9799
G01 X36.3204 Y1.9790
G01 X36.3143 Y1.9774
G01 X36.3083 Y1.9753
G01 X36.3026 Y1.9726
G01 X36.2971 Y1.9693
G01 X36.2920 Y1.9655
G01 X36.2873 Y1.9612
G01 X36.2830 Y1.9565
G01 X36.2793 Y1.9514
G01 X36.2760 Y1.9460
G01 X36.2733 Y1.9402
G01 X36.2711 Y1.9343
G01 X36.2696 Y1.9281
G01 X36.2687 Y1.9218
G01 X36.2683 Y1.9155
G01 X36.2687 Y1.9091
G01 X36.2696 Y1.9029
G01 X36.2711 Y1.8967
G01 X36.2733 Y1.8907
G01 X36.2760 Y1.8850
G01 X36.2793 Y1.8795
G01 X36.2830 Y1.8744
G01 X36.2873 Y1.8697
G01 X36.2920 Y1.8654
G01 X36.2971 Y1.8617
G01 X36.3026 Y1.8584
G01 X36.3083 Y1.8557
G01 X36.3143 Y1.8535
G01 X36.3204 Y1.8520
G01 X36.3267 Y1.8511
G01 X36.3352 Y1.8507
G01 X36.6592 Y1.8507
G01 X36.6675 Y1.8502
G01 X36.6779 Y1.8486
G01 X36.6879 Y1.8457
G01 X36.6956 Y1.8425
G01 X36.7048 Y1.8374
G01 X36.7133 Y1.8313
G01 X36.7209 Y1.8242
G01 X36.7277 Y1.8162
G01 X36.7334 Y1.8074
G01 X36.7379 Y1.7980
G01 X36.7413 Y1.7881
G01 X36.7435 Y1.7779
G01 X36.7444 Y1.7675
G01 X36.7444 Y1.1443
G01 X36.7442 Y1.1380
G01 X36.7432 Y1.1297
G01 X36.7401 Y1.1176
G01 X36.7362 Y1.1079
G01 X36.7301 Y1.0969
G01 X36.7223 Y1.0871
G01 X36.6651 Y1.0299
G01 X36.6573 Y1.0239
G01 X36.6505 Y1.0197
G01 X36.6435 Y1.0162
G01 X36.6361 Y1.0134
G01 X36.3357 Y0.9132
G01 X36.3246 Y0.9104
G01 X36.3156 Y0.9091
G01 X36.3087 Y0.9089
G01 X36.1193 Y0.9089
G01 X36.1102 Y0.9094
G01 X36.1012 Y0.9108
G01 X36.0924 Y0.9132
G01 X35.7919 Y1.0134
G01 X35.7828 Y1.0171
G01 X35.7741 Y1.0217
G01 X35.7660 Y1.0274
G01 X35.7586 Y1.0340
G01 X35.5628 Y1.2298
G01 X35.5553 Y1.2384
G01 X35.5490 Y1.2479
G01 X35.4460 Y1.4535
G01 X35.4415 Y1.4643
G01 X35.4396 Y1.4710
G01 X35.3284 Y1.9158
G01 X35.3268 Y1.9261
G01 X35.3265 Y1.9340
G01 X35.3265 Y2.2541
G01 X35.3275 Y2.2671
G01 X35.3290 Y2.2748
G01 X35.4396 Y2.7171
G01 X35.4423 Y2.7260
G01 X35.4460 Y2.7346
G01 X35.5468 Y2.9361
G01 X35.5513 Y2.9441
G01 X35.5553 Y2.9497
G01 X35.5628 Y2.9583
G01 X35.7586 Y3.1541
G01 X35.7645 Y3.1594
G01 X35.7724 Y3.1653
G01 X35.7810 Y3.1702
G01 X35.7919 Y3.1747
G01 X36.0924 Y3.2748
G01 X36.1034 Y3.2777
G01 X36.1102 Y3.2787
G01 X36.1170 Y3.2792
G01 X36.4167 Y3.2792
G01 X36.4285 Y3.2784
G01 X36.4401 Y3.2759
G01 X36.4476 Y3.2734
G01 X36.4530 Y3.2711
G01 X36.6593 Y3.1680
G01 X36.6671 Y3.1646
G01 X36.6731 Y3.1626
G01 X36.6793 Y3.1612
G01 X36.6856 Y3.1604
G01 X36.6920 Y3.1603
G01 X36.6983 Y3.1608
G01 X36.7046 Y3.1619
G01 X36.7107 Y3.1636
G01 X36.7166 Y3.1659
G01 X36.7223 Y3.1688
G01 X36.7276 Y3.1722
G01 X36.7326 Y3.1761
G01 X36.7372 Y3.1805
G01 X36.7413 Y3.1853
G01 X36.7450 Y3.1905
G01 X36.7481 Y3.1961
G01 X36.7507 Y3.2019
G01 X36.7526 Y3.2079
G01 X36.7540 Y3.2141
G01 X36.7548 Y3.2204
G01 X36.7549 Y3.2268
G01 X36.7544 Y3.2331
G01 X36.7533 Y3.2393
G01 X36.7516 Y3.2455
G01 X36.7493 Y3.2514
G01 X36.7464 Y3.2571
G01 X36.7430 Y3.2624
G01 X36.7391 Y3.2674
G01 X36.7347 Y3.2720
G01 X36.7299 Y3.2761
G01 X36.7247 Y3.2798
G01 X36.7173 Y3.2839
G01 X36.4829 Y3.4011
G00 X36.4829 Y3.4011
G01 F60.00
G01 Z-0.1999
G01 F100.00
G01 X36.7173 Y3.2839
G01 X36.7247 Y3.2798
G01 X36.7299 Y3.2761
G01 X36.7347 Y3.2720
G01 X36.7391 Y3.2674
G01 X36.7430 Y3.2624
G01 X36.7464 Y3.2571
G01 X36.7493 Y3.2514
G01 X36.7516 Y3.2455
G01 X36.7533 Y3.2393
G01 X36.7544 Y3.2331
G01 X36.7549 Y3.2268
G01 X36.7548 Y3.2204
G01 X36.7540 Y3.2141
G01 X36.7526 Y3.2079
G01 X36.7507 Y3.2019
G01 X36.7481 Y3.1961
G01 X36.7450 Y3.1905
G01 X36.7413 Y3.1853
G01 X36.7372 Y3.1805
G01 X36.7326 Y3.1761
G01 X36.7276 Y3.1722
G01 X36.7223 Y3.1688
G01 X36.7166 Y3.1659
G01 X36.7107 Y3.1636
G01 X36.7046 Y3.1619
G01 X36.6983 Y3.1608
G01 X36.6920 Y3.1603
G01 X36.6856 Y3.1604
G01 X36.6793 Y3.1612
G01 X36.6731 Y3.1626
G01 X36.6671 Y3.1646
G01 X36.6593 Y3.1680
G01 X36.4530 Y3.2711
G01 X36.4476 Y3.2734
G01 X36.4401 Y3.2759
G01 X36.4285 Y3.2784
G01 X36.4167 Y3.2792
G01 X36.1170 Y3.2792
G01 X36.1102 Y3.2787
G01 X36.1034 Y3.2777
G01 X36.0924 Y3.2748
G01 X35.7919 Y3.1747
G01 X35.7810 Y3.1702
G01 X35.7724 Y3.1653
G01 X35.7645 Y3.1594
G01 X35.7586 Y3.1541
G01 X35.5628 Y2.9583
G01 X35.5553 Y2.9497
G01 X35.5513 Y2.9441
G01 X35.5468 Y2.9361
G01 X35.4460 Y2.7346
G01 X35.4423 Y2.7260
G01 X35.4396 Y2.7171
G01 X35.3290 Y2.2748
G01 X35.3275 Y2.2671
G01 X35.3265 Y2.2541
G01 X35.3265 Y1.9340
G01 X35.3268 Y1.9261
G01 X35.3284 Y1.9158
G01 X35.4396 Y1.4710
G01 X35.4415 Y1.4643
G01 X35.4460 Y1.4535
G01 X35.5490 Y1.2479
G01 X35.5553 Y1.2384
G01 X35.5628 Y1.2298
G01 X35.7586 Y1.0340
G01 X35.7660 Y1.0274
G01 X35.7741 Y1.0217
G01 X35.7828 Y1.0171
G01 X35.7919 Y1.0134
G01 X36.0924 Y0.9132
G01 X36.1012 Y0.9108
G01 X36.1102 Y0.9094
G01 X36.1193 Y0.9089
G01 X36.3087 Y0.9089
G01 X36.3156 Y0.9091
G01 X36.3246 Y0.9104
G01 X36.3357 Y0.9132
G01 X36.6361 Y1.0134
G01 X36.6435 Y1.0162
G01 X36.6505 Y1.0197
G01 X36.6573 Y1.0239
G01 X36.6651 Y1.0299
G01 X36.7223 Y1.0871
G01 X36.7301 Y1.0969
G01 X36.7362 Y1.1079
G01 X36.7401 Y1.1176
G01 X36.7432 Y1.1297
G01 X36.7442 Y1.1380
G01 X36.7444 Y1.1443
G01 X36.7444 Y1.7675
G01 X36.7435 Y1.7779
G01 X36.7413 Y1.7881
G01 X36.7379 Y1.7980
G01 X36.7334 Y1.8074
G01 X36.7277 Y1.8162
G01 X36.7209 Y1.8242
G01 X36.7133 Y1.8313
G01 X36.7048 Y1.8374
G01 X36.6956 Y1.8425
G01 X36.6879 Y1.8457
G01 X36.6779 Y1.8486
G01 X36.6675 Y1.8502
G01 X36.6592 Y1.8507
G01 X36.3352 Y1.8507
G01 X36.3267 Y1.8511
G01 X36.3204 Y1.8520
G01 X36.3143 Y1.8535
G01 X36.3083 Y1.8557
G01 X36.3026 Y1.8584
G01 X36.2971 Y1.8617
G01 X36.2920 Y1.8654
G01 X36.2873 Y1.8697
G01 X36.2830 Y1.8744
G01 X36.2793 Y1.8795
G01 X36.2760 Y1.8850
G01 X36.2733 Y1.8907
G01 X36.2711 Y1.8967
G01 X36.2696 Y1.9029
G01 X36.2687 Y1.9091
G01 X36.2683 Y1.9155
G01 X36.2687 Y1.9218
G01 X36.2696 Y1.9281
G01 X36.2711 Y1.9343
G01 X36.2733 Y1.9402
G01 X36.2760 Y1.9460
G01 X36.2793 Y1.9514
G01 X36.2830 Y1.9565
G01 X36.2873 Y1.9612
G01 X36.2920 Y1.9655
G01 X36.2971 Y1.9693
G01 X36.3026 Y1.9726
G01 X36.3083 Y1.9753
G01 X36.3143 Y1.9774
G01 X36.3204 Y1.9790
G01 X36.3267 Y1.9799
G01 X36.3352 Y1.9803
G01 X36.8072 Y1.9803
G01 X36.8156 Y1.9799
G01 X36.8219 Y1.9790
G01 X36.8280 Y1.9774
G01 X36.8340 Y1.9753
G01 X36.8398 Y1.9726
G01 X36.8452 Y1.9693
G01 X36.8503 Y1.9655
G01 X36.8550 Y1.9612
G01 X36.8593 Y1.9565
G01 X36.8631 Y1.9514
G01 X36.8663 Y1.9460
G01 X36.8691 Y1.9402
G01 X36.8712 Y1.9343
G01 X36.8727 Y1.9281
G01 X36.8737 Y1.9218
G01 X36.8741 Y1.9134
G01 X36.8741 Y1.0842
G01 X36.8737 Y1.0758
G01 X36.8727 Y1.0695
G01 X36.8712 Y1.0634
G01 X36.8691 Y1.0574
G01 X36.8663 Y1.0516
G01 X36.8631 Y1.0462
G01 X36.8593 Y1.0411
G01 X36.8536 Y1.0348
G01 X36.7374 Y0.9187
G01 X36.7315 Y0.9133
G01 X36.7268 Y0.9097
G01 X36.7217 Y0.9065
G01 X36.7163 Y0.9038
G01 X36.7088 Y0.9010
G01 X36.3557 Y0.7833
G01 X36.3468 Y0.7808
G01 X36.3400 Y0.7797
G01 X36.3308 Y0.7792
G01 X36.0973 Y0.7792
G01 X36.0880 Y0.7797
G01 X36.0812 Y0.7808
G01 X36.0723 Y0.7833
G01 X35.7192 Y0.9010
G01 X35.7118 Y0.9038
G01 X35.7064 Y0.9065
G01 X35.7013 Y0.9097
G01 X35.6965 Y0.9133
G01 X35.6906 Y0.9187
G01 X35.4555 Y1.1537
G01 X35.4493 Y1.1606
G01 X35.4453 Y1.1662
G01 X35.4407 Y1.1742
G01 X35.3237 Y1.4082
G01 X35.3200 Y1.4168
G01 X35.3172 Y1.4258
G01 X35.1994 Y1.8972
G01 X35.1975 Y1.9076
G01 X35.1968 Y1.9181
G01 X35.1968 Y2.2700
G01 X35.1975 Y2.2805
G01 X35.1994 Y2.2909
G01 X35.3172 Y2.7623
G01 X35.3200 Y2.7713
G01 X35.3237 Y2.7799
G01 X35.4407 Y3.0139
G01 X35.4453 Y3.0219
G01 X35.4493 Y3.0275
G01 X35.4555 Y3.0344
G01 X35.6906 Y3.2694
G01 X35.6965 Y3.2748
G01 X35.7013 Y3.2784
G01 X35.7064 Y3.2816
G01 X35.7118 Y3.2843
G01 X35.7192 Y3.2871
G01 X36.0723 Y3.4048
G01 X36.0812 Y3.4073
G01 X36.0880 Y3.4084
G01 X36.0973 Y3.4089
G01 X36.4501 Y3.4089
G01 X36.4581 Y3.4085
G01 X36.4640 Y3.4077
G01 X36.4699 Y3.4063
G01 X36.4756 Y3.4044
G01 X36.4829 Y3.4011
G00 Z2.0000
G00 X38.0308 Y2.0993
G01 F60.00
G01 Z-0.1000
G01 F100.00
G01 X38.0224 Y2.0998
G01 X38.0141 Y2.1010
G01 X38.0060 Y2.1030
G01 X37.9981 Y2.1058
G01 X37.9906 Y2.1094
G01 X37.9852 Y2.1126
G01 X37.9783 Y2.1174
G01 X37.9720 Y2.1229
G01 X37.9662 Y2.1289
G01 X37.9611 Y2.1355
G01 X37.9566 Y2.1426
G01 X37.9537 Y2.1481
G01 X37.9505 Y2.1559
G01 X37.9481 Y2.1639
G01 X37.9464 Y2.1721
G01 X37.9456 Y2.1804
G01 X37.9455 Y3.1961
G01 X37.9461 Y3.2044
G01 X37.9476 Y3.2127
G01 X37.9498 Y3.2207
G01 X37.9528 Y3.2285
G01 X37.9566 Y3.2360
G01 X37.9611 Y3.2431
G01 X37.9676 Y3.2512
G01 X37.9735 Y3.2571
G01 X37.9800 Y3.2624
G01 X37.9852 Y3.2660
G01 X37.9906 Y3.2692
G01 X37.9981 Y3.2727
G01 X38.0060 Y3.2756
G01 X38.0141 Y3.2776
G01 X38.0224 Y3.2788
G01 X38.0287 Y3.2792
G01 X38.7976 Y3.2792
G01 X38.8055 Y3.2789
G01 X38.8114 Y3.2781
G01 X38.8229 Y3.2754
G01 X38.8340 Y3.2711
G01 X39.0204 Y3.1779
G01 X39.0283 Y3.1734
G01 X39.0357 Y3.1680
G01 X39.0425 Y3.1619
G01 X39.1303 Y3.0740
G01 X39.1373 Y3.0650
G01 X39.1431 Y3.0552
G01 X39.2363 Y2.8688
G01 X39.2400 Y2.8596
G01 X39.2426 Y2.8501
G01 X39.2439 Y2.8423
G01 X39.2444 Y2.8324
G01 X39.2444 Y2.5461
G01 X39.2439 Y2.5363
G01 X39.2430 Y2.5304
G01 X39.2412 Y2.5227
G01 X39.2386 Y2.5152
G01 X39.2363 Y2.5098
G01 X39.1431 Y2.3234
G01 X39.1386 Y2.3154
G01 X39.1333 Y2.3080
G01 X39.1271 Y2.3012
G01 X39.0392 Y2.2135
G01 X39.0302 Y2.2064
G01 X39.0204 Y2.2007
G01 X38.8358 Y2.1083
G01 X38.8285 Y2.1051
G01 X38.8229 Y2.1032
G01 X38.8153 Y2.1012
G01 X38.8075 Y2.0999
G01 X38.7976 Y2.0993
G01 X38.0308 Y2.0993
G00 X38.0308 Y2.0993
G01 F60.00
G01 Z-0.1999
G01 F100.00
G01 X38.7976 Y2.0993
G01 X38.8075 Y2.0999
G01 X38.8153 Y2.1012
G01 X38.8229 Y2.1032
G01 X38.8285 Y2.1051
G01 X38.8358 Y2.1083
G01 X39.0204 Y2.2007
G01 X39.0302 Y2.2064
G01 X39.0392 Y2.2135
G01 X39.1271 Y2.3012
G01 X39.1333 Y2.3080
G01 X39.1386 Y2.3154
G01 X39.1431 Y2.3234
G01 X39.2363 Y2.5098
G01 X39.2386 Y2.5152
G01 X39.2412 Y2.5227
G01 X39.2430 Y2.5304
G01 X39.2439 Y2.5363
G01 X39.2444 Y2.5461
G01 X39.2444 Y2.8324
G01 X39.2439 Y2.8423
G01 X39.2426 Y2.8501
G01 X39.2400 Y2.8596
G01 X39.2363 Y2.8688
G01 X39.1431 Y3.0552
G01 X39.1373 Y3.0650
G01 X39.1303 Y3.0740
G01 X39.0425 Y3.1619
G01 X39.0357 Y3.1680
G01 X39.0283 Y3.1734
G01 X39.0204 Y3.1779
G01 X38.8340 Y3.2711
G01 X38.8229 Y3.2754
G01 X38.8114 Y3.2781
G01 X38.8055 Y3.2789
G01 X38.7976 Y3.2792
G01 X38.0287 Y3.2792
G01 X38.0224 Y3.2788
G01 X38.0141 Y3.2776
G01 X38.0060 Y3.2756
G01 X37.9981 Y3.2727
G01 X37.9906 Y3.2692
G01 X37.9852 Y3.2660
G01 X37.9800 Y3.2624
G01 X37.9735 Y3.2571
G01 X37.9676 Y3.2512
G01 X37.9611 Y3.2431
G01 X37.9566 Y3.2360
G01 X37.9528 Y3.2285
G01 X37.9498 Y3.2207
G01 X37.9476 Y3.2127
G01 X37.9461 Y3.2044
G01 X37.9455 Y3.1961
G01 X37.9456 Y2.1804
G01 X37.9464 Y2.1721
G01 X37.9481 Y2.1639
G01 X37.9505 Y2.1559
G01 X37.9537 Y2.1481
G01 X37.9566 Y2.1426
G01 X37.9611 Y2.1355
G01 X37.9662 Y2.1289
G01 X37.9720 Y2.1229
G01 X37.9783 Y2.1174
G01 X37.9852 Y2.1126
G01 X37.9906 Y2.1094
G01 X37.9981 Y2.1058
G01 X38.0060 Y2.1030
G01 X38.0141 Y2.1010
G01 X38.0224 Y2.0998
G01 X38.0308 Y2.0993
G00 Z2.0000
G00 X38.6943 Y1.8356
G01 F60.00
G01 Z-0.1000
G01 F100.00
G01 X38.6898 Y1.8427
G01 X38.6861 Y1.8503
G01 X38.6831 Y1.8582
G01 X38.6809 Y1.8663
G01 X38.6795 Y1.8747
G01 X38.6789 Y1.8831
G01 X38.6792 Y1.8916
G01 X38.6803 Y1.8999
G01 X38.6823 Y1.9081
G01 X38.6850 Y1.9161
G01 X38.6885 Y1.9238
G01 X38.6928 Y1.9311
G01 X38.6991 Y1.9396
G01 X38.7049 Y1.9457
G01 X38.7113 Y1.9513
G01 X38.7181 Y1.9562
G01 X38.7274 Y1.9614
G01 X38.7352 Y1.9646
G01 X38.7432 Y1.9671
G01 X38.7536 Y1.9690
G01 X38.7642 Y1.9697
G01 X38.8311 Y1.9697
G01 X38.8391 Y1.9701
G01 X38.8450 Y1.9709
G01 X38.8508 Y1.9723
G01 X38.8565 Y1.9742
G01 X38.8638 Y1.9774
G01 X39.0981 Y2.0946
G01 X39.1061 Y2.0991
G01 X39.1118 Y2.1032
G01 X39.1186 Y2.1094
G01 X39.2344 Y2.2252
G01 X39.2406 Y2.2320
G01 X39.2446 Y2.2377
G01 X39.2492 Y2.2457
G01 X39.3664 Y2.4800
G01 X39.3696 Y2.4873
G01 X39.3715 Y2.4929
G01 X39.3729 Y2.4988
G01 X39.3737 Y2.5047
G01 X39.3741 Y2.5127
G01 X39.3741 Y2.8659
G01 X39.3737 Y2.8739
G01 X39.3729 Y2.8798
G01 X39.3715 Y2.8856
G01 X39.3696 Y2.8913
G01 X39.3664 Y2.8986
G01 X39.2492 Y3.1329
G01 X39.2446 Y3.1409
G01 X39.2406 Y3.1465
G01 X39.2344 Y3.1534
G01 X39.1186 Y3.2692
G01 X39.1118 Y3.2754
G01 X39.1061 Y3.2794
G01 X39.0981 Y3.2840
G01 X38.8638 Y3.4011
G01 X38.8565 Y3.4044
G01 X38.8508 Y3.4063
G01 X38.8450 Y3.4077
G01 X38.8391 Y3.4085
G01 X38.8311 Y3.4089
G01 X37.8828 Y3.4089
G01 X37.8743 Y3.4085
G01 X37.8681 Y3.4075
G01 X37.8619 Y3.4060
G01 X37.8559 Y3.4038
G01 X37.8502 Y3.4011
G01 X37.8447 Y3.3979
G01 X37.8396 Y3.3941
G01 X37.8349 Y3.3898
G01 X37.8307 Y3.3851
G01 X37.8269 Y3.3800
G01 X37.8236 Y3.3746
G01 X37.8209 Y3.3688
G01 X37.8187 Y3.3628
G01 X37.8172 Y3.3567
G01 X37.8163 Y3.3504
G01 X37.8159 Y3.3420
G01 X37.8159 Y0.8461
G01 X37.8163 Y0.8377
G01 X37.8172 Y0.8314
G01 X37.8187 Y0.8253
G01 X37.8209 Y0.8193
G01 X37.8236 Y0.8135
G01 X37.8269 Y0.8081
G01 X37.8307 Y0.8030
G01 X37.8349 Y0.7983
G01 X37.8396 Y0.7940
G01 X37.8447 Y0.7902
G01 X37.8502 Y0.7870
G01 X37.8559 Y0.7843
G01 X37.8619 Y0.7821
G01 X37.8681 Y0.7806
G01 X37.8743 Y0.7796
G01 X37.8807 Y0.7793
G01 X37.8870 Y0.7796
G01 X37.8933 Y0.7806
G01 X37.8995 Y0.7821
G01 X37.9055 Y0.7843
G01 X37.9112 Y0.7870
G01 X37.9166 Y0.7902
G01 X37.9217 Y0.7940
G01 X37.9264 Y0.7983
G01 X37.9307 Y0.8030
G01 X37.9345 Y0.8081
G01 X37.9378 Y0.8135
G01 X37.9405 Y0.8193
G01 X37.9426 Y0.8253
G01 X37.9442 Y0.8314
G01 X37.9451 Y0.8377
G01 X37.9455 Y0.8461
G01 X37.9457 Y1.8907
G01 X37.9468 Y1.8990
G01 X37.9481 Y1.9052
G01 X37.9505 Y1.9132
G01 X37.9537 Y1.9209
G01 X37.9576 Y1.9283
G01 X37.9623 Y1.9352
G01 X37.9676 Y1.9417
G01 X37.9735 Y1.9476
G01 X37.9800 Y1.9529
G01 X37.9852 Y1.9565
G01 X37.9924 Y1.9606
G01 X38.0001 Y1.9640
G01 X38.0080 Y1.9666
G01 X38.0162 Y1.9684
G01 X38.0224 Y1.9693
G01 X38.0308 Y1.9697
G01 X38.4019 Y1.9696
G01 X38.4100 Y1.9688
G01 X38.4161 Y1.9677
G01 X38.4220 Y1.9662
G01 X38.4297 Y1.9635
G01 X38.4372 Y1.9601
G01 X38.4425 Y1.9570
G01 X38.4476 Y1.9536
G01 X38.4540 Y1.9485
G01 X38.4613 Y1.9413
G01 X38.4676 Y1.9333
G01 X39.2549 Y0.8086
G01 X39.2601 Y0.8019
G01 X39.2645 Y0.7973
G01 X39.2693 Y0.7931
G01 X39.2745 Y0.7895
G01 X39.2800 Y0.7863
G01 X39.2858 Y0.7837
G01 X39.2918 Y0.7817
G01 X39.2980 Y0.7803
G01 X39.3043 Y0.7795
G01 X39.3107 Y0.7793
G01 X39.3170 Y0.7798
G01 X39.3233 Y0.7809
G01 X39.3294 Y0.7825
G01 X39.3353 Y0.7848
G01 X39.3410 Y0.7876
G01 X39.3464 Y0.7910
G01 X39.3514 Y0.7949
G01 X39.3560 Y0.7993
G01 X39.3602 Y0.8041
G01 X39.3638 Y0.8093
G01 X39.3670 Y0.8148
G01 X39.3696 Y0.8206
G01 X39.3716 Y0.8266
G01 X39.3730 Y0.8328
G01 X39.3738 Y0.8391
G01 X39.3740 Y0.8455
G01 X39.3735 Y0.8518
G01 X39.3724 Y0.8580
G01 X39.3708 Y0.8642
G01 X39.3685 Y0.8701
G01 X39.3657 Y0.8758
G01 X39.3612 Y0.8829
G01 X38.6943 Y1.8356
G00 X38.6943 Y1.8356
G01 F60.00
G01 Z-0.1999
G01 F100.00
G01 X39.3612 Y0.8829
G01 X39.3657 Y0.8758
G01 X39.3685 Y0.8701
G01 X39.3708 Y0.8642
G01 X39.3724 Y0.8580
G01 X39.3735 Y0.8518
G01 X39.3740 Y0.8455
G01 X39.3738 Y0.8391
G01 X39.3730 Y0.8328
G01 X39.3716 Y0.8266
G01 X39.3696 Y0.8206
G01 X39.3670 Y0.8148
G01 X39.3638 Y0.8093
G01 X39.3602 Y0.8041
G01 X39.3560 Y0.7993
G01 X39.3514 Y0.7949
G01 X39.3464 Y0.7910
G01 X39.3410 Y0.7876
G01 X39.3353 Y0.7848
G01 X39.3294 Y0.7825
G01 X39.3233 Y0.7809
G01 X39.3170 Y0.7798
G01 X39.3107 Y0.7793
G01 X39.3043 Y0.7795
G01 X39.2980 Y0.7803
G01 X39.2918 Y0.7817
G01 X39.2858 Y0.7837
G01 X39.2800 Y0.7863
G01 X39.2745 Y0.7895
G01 X39.2693 Y0.7931
G01 X39.2645 Y0.7973
G01 X39.2601 Y0.8019
G01 X39.2549 Y0.8086
G01 X38.4676 Y1.9333
G01 X38.4613 Y1.9413
G01 X38.4540 Y1.9485
G01 X38.4476 Y1.9536
G01 X38.4425 Y1.9570
G01 X38.4372 Y1.9601
G01 X38.4297 Y1.9635
G01 X38.4220 Y1.9662
G01 X38.4161 Y1.9677
G01 X38.4100 Y1.9688
G01 X38.4019 Y1.9696
G01 X38.0308 Y1.9697
G01 X38.0224 Y1.9693
G01 X38.0162 Y1.9684
G01 X38.0080 Y1.9666
G01 X38.0001 Y1.9640
G01 X37.9924 Y1.9606
G01 X37.9852 Y1.9565
G01 X37.9800 Y1.9529
G01 X37.9735 Y1.9476
G01 X37.9676 Y1.9417
G01 X37.9623 Y1.9352
G01 X37.9576 Y1.9283
G01 X37.9537 Y1.9209
G01 X37.9505 Y1.9132
G01 X37.9481 Y1.9052
G01 X37.9468 Y1.8990
G01 X37.9457 Y1.8907
G01 X37.9455 Y0.8461
G01 X37.9451 Y0.8377
G01 X37.9442 Y0.8314
G01 X37.9426 Y0.8253
G01 X37.9405 Y0.8193
G01 X37.9378 Y0.8135
G01 X37.9345 Y0.8081
G01 X37.9307 Y0.8030
G01 X37.9264 Y0.7983
G01 X37.9217 Y0.7940
G01 X37.9166 Y0.7902
G01 X37.9112 Y0.7870
G01 X37.9055 Y0.7843
G01 X37.8995 Y0.7821
G01 X37.8933 Y0.7806
G01 X37.8870 Y0.7796
G01 X37.8807 Y0.7793
G01 X37.8743 Y0.7796
G01 X37.8681 Y0.7806
G01 X37.8619 Y0.7821
G01 X37.8559 Y0.7843
G01 X37.8502 Y0.7870
G01 X37.8447 Y0.7902
G01 X37.8396 Y0.7940
G01 X37.8349 Y0.7983
G01 X37.8307 Y0.8030
G01 X37.8269 Y0.8081
G01 X37.8236 Y0.8135
G01 X37.8209 Y0.8193
G01 X37.8187 Y0.8253
G01 X37.8172 Y0.8314
G01 X37.8163 Y0.8377
G01 X37.8159 Y0.8461
G01 X37.8159 Y3.3420
G01 X37.8163 Y3.3504
G01 X37.8172 Y3.3567
G01 X37.8187 Y3.3628
G01 X37.8209 Y3.3688
G01 X37.8236 Y3.3746
G01 X37.8269 Y3.3800
G01 X37.8307 Y3.3851
G01 X37.8349 Y3.3898
G01 X37.8396 Y3.3941
G01 X37.8447 Y3.3979
G01 X37.8502 Y3.4011
G01 X37.8559 Y3.4038
G01 X37.8619 Y3.4060
G01 X37.8681 Y3.4075
G01 X37.8743 Y3.4085
G01 X37.8828 Y3.4089
G01 X38.8311 Y3.4089
G01 X38.8391 Y3.4085
G01 X38.8450 Y3.4077
G01 X38.8508 Y3.4063
G01 X38.8565 Y3.4044
G01 X38.8638 Y3.4011
G01 X39.0981 Y3.2840
G01 X39.1061 Y3.2794
G01 X39.1118 Y3.2754
G01 X39.1186 Y3.2692
G01 X39.2344 Y3.1534
G01 X39.2406 Y3.1465
G01 X39.2446 Y3.1409
G01 X39.2492 Y3.1329
G01 X39.3664 Y2.8986
G01 X39.3696 Y2.8913
G01 X39.3715 Y2.8856
G01 X39.3729 Y2.8798
G01 X39.3737 Y2.8739
G01 X39.3741 Y2.8659
G01 X39.3741 Y2.5127
G01 X39.3737 Y2.5047
G01 X39.3729 Y2.4988
G01 X39.3715 Y2.4929
G01 X39.3696 Y2.4873
G01 X39.3664 Y2.4800
G01 X39.2492 Y2.2457
G01 X39.2446 Y2.2377
G01 X39.2406 Y2.2320
G01 X39.2344 Y2.2252
G01 X39.1186 Y2.1094
G01 X39.1118 Y2.1032
G01 X39.1061 Y2.0991
G01 X39.0981 Y2.0946
G01 X38.8638 Y1.9774
G01 X38.8565 Y1.9742
G01 X38.8508 Y1.9723
G01 X38.8450 Y1.9709
G01 X38.8391 Y1.9701
G01 X38.8311 Y1.9697
G01 X38.7642 Y1.9697
G01 X38.7536 Y1.9690
G01 X38.7432 Y1.9671
G01 X38.7352 Y1.9646
G01 X38.7274 Y1.9614
G01 X38.7181 Y1.9562
G01 X38.7113 Y1.9513
G01 X38.7049 Y1.9457
G01 X38.6991 Y1.9396
G01 X38.6928 Y1.9311
G01 X38.6885 Y1.9238
G01 X38.6850 Y1.9161
G01 X38.6823 Y1.9081
G01 X38.6803 Y1.8999
G01 X38.6792 Y1.8916
G01 X38.6789 Y1.8831
G01 X38.6795 Y1.8747
G01 X38.6809 Y1.8663
G01 X38.6831 Y1.8582
G01 X38.6861 Y1.8503
G01 X38.6898 Y1.8427
G01 X38.6943 Y1.8356
G00 Z2.0000
G00 X41.2119 Y2.0887
G01 F60.00
G01 Z-0.1000
G01 F100.00
G01 X41.2204 Y2.0892
G01 X41.2266 Y2.0901
G01 X41.2328 Y2.0916
G01 X41.2388 Y2.0938
G01 X41.2445 Y2.0965
G01 X41.2500 Y2.0998
G01 X41.2551 Y2.1035
G01 X41.2598 Y2.1078
G01 X41.2640 Y2.1125
G01 X41.2678 Y2.1176
G01 X41.2711 Y2.1231
G01 X41.2738 Y2.1288
G01 X41.2760 Y2.1348
G01 X41.2775 Y2.1409
G01 X41.2784 Y2.1472
G01 X41.2787 Y2.1536
G01 X41.2784 Y2.1599
G01 X41.2775 Y2.1662
G01 X41.2760 Y2.1724
G01 X41.2738 Y2.1783
G01 X41.2711 Y2.1841
G01 X41.2678 Y2.1895
G01 X41.2640 Y2.1946
G01 X41.2598 Y2.1993
G01 X41.2551 Y2.2036
G01 X41.2500 Y2.2074
G01 X41.2445 Y2.2107
G01 X41.2388 Y2.2134
G01 X41.2328 Y2.2155
G01 X41.2266 Y2.2171
G01 X41.2204 Y2.2180
G01 X41.2119 Y2.2184
G01 X40.5266 Y2.2185
G01 X40.5183 Y2.2193
G01 X40.5080 Y2.2215
G01 X40.4981 Y2.2249
G01 X40.4887 Y2.2295
G01 X40.4817 Y2.2339
G01 X40.4735 Y2.2405
G01 X40.4662 Y2.2480
G01 X40.4599 Y2.2563
G01 X40.4537 Y2.2672
G01 X40.4492 Y2.2789
G01 X40.4464 Y2.2911
G01 X40.4455 Y2.3036
G01 X40.4455 Y3.1940
G01 X40.4457 Y3.2002
G01 X40.4468 Y3.2085
G01 X40.4498 Y3.2207
G01 X40.4546 Y3.2323
G01 X40.4611 Y3.2431
G01 X40.4690 Y3.2528
G01 X40.4735 Y3.2571
G01 X40.4800 Y3.2624
G01 X40.4906 Y3.2692
G01 X40.5020 Y3.2742
G01 X40.5141 Y3.2776
G01 X40.5266 Y3.2791
G01 X41.5691 Y3.2792
G01 X41.5775 Y3.2796
G01 X41.5838 Y3.2806
G01 X41.5899 Y3.2821
G01 X41.5959 Y3.2843
G01 X41.6017 Y3.2870
G01 X41.6071 Y3.2902
G01 X41.6122 Y3.2940
G01 X41.6169 Y3.2983
G01 X41.6212 Y3.3030
G01 X41.6250 Y3.3081
G01 X41.6282 Y3.3135
G01 X41.6310 Y3.3193
G01 X41.6331 Y3.3253
G01 X41.6346 Y3.3314
G01 X41.6356 Y3.3377
G01 X41.6359 Y3.3440
G01 X41.6356 Y3.3504
G01 X41.6346 Y3.3567
G01 X41.6331 Y3.3628
G01 X41.6310 Y3.3688
G01 X41.6282 Y3.3746
G01 X41.6250 Y3.3800
G01 X41.6212 Y3.3851
G01 X41.6169 Y3.3898
G01 X41.6122 Y3.3941
G01 X41.6071 Y3.3979
G01 X41.6017 Y3.4011
G01 X41.5959 Y3.4038
G01 X41.5899 Y3.4060
G01 X41.5838 Y3.4075
G01 X41.5775 Y3.4085
G01 X41.5691 Y3.4089
G01 X40.3828 Y3.4089
G01 X40.3743 Y3.4085
G01 X40.3681 Y3.4075
G01 X40.3619 Y3.4060
G01 X40.3559 Y3.4038
G01 X40.3502 Y3.4011
G01 X40.3447 Y3.3979
G01 X40.3396 Y3.3941
G01 X40.3349 Y3.3898
G01 X40.3307 Y3.3851
G01 X40.3269 Y3.3800
G01 X40.3236 Y3.3746
G01 X40.3209 Y3.3688
G01 X40.3187 Y3.3628
G01 X40.3172 Y3.3567
G01 X40.3163 Y3.3504
G01 X40.3159 Y3.3420
G01 X40.3159 Y0.8461
G01 X40.3163 Y0.8377
G01 X40.3172 Y0.8314
G01 X40.3187 Y0.8253
G01 X40.3209 Y0.8193
G01 X40.3236 Y0.8135
G01 X40.3269 Y0.8081
G01 X40.3307 Y0.8030
G01 X40.3349 Y0.7983
G01 X40.3396 Y0.7940
G01 X40.3447 Y0.7902
G01 X40.3502 Y0.7870
G01 X40.3559 Y0.7843
G01 X40.3619 Y0.7821
G01 X40.3681 Y0.7806
G01 X40.3743 Y0.7796
G01 X40.3828 Y0.7792
G01 X41.5691 Y0.7792
G01 X41.5775 Y0.7796
G01 X41.5838 Y0.7806
G01 X41.5899 Y0.7821
G01 X41.5959 Y0.7843
G01 X41.6017 Y0.7870
G01 X41.6071 Y0.7902
G01 X41.6122 Y0.7940
G01 X41.6169 Y0.7983
G01 X41.6212 Y0.8030
G01 X41.6250 Y0.8081
G01 X41.6282 Y0.8135
G01 X41.6310 Y0.8193
G01 X41.6331 Y0.8253
G01 X41.6346 Y0.8314
G01 X41.6356 Y0.8377
G01 X41.6359 Y0.8440
G01 X41.6356 Y0.8504
G01 X41.6346 Y0.8567
G01 X41.6331 Y0.8628
G01 X41.6310 Y0.8688
G01 X41.6282 Y0.8746
G01 X41.6250 Y0.8800
G01 X41.6212 Y0.8851
G01 X41.6169 Y0.8898
G01 X41.6122 Y0.8941
G01 X41.6071 Y0.8979
G01 X41.6017 Y0.9011
G01 X41.5959 Y0.9038
G01 X41.5899 Y0.9060
G01 X41.5838 Y0.9075
G01 X41.5775 Y0.9085
G01 X41.5691 Y0.9089
G01 X40.5266 Y0.9090
G01 X40.5141 Y0.9105
G01 X40.5020 Y0.9139
G01 X40.4906 Y0.9189
G01 X40.4800 Y0.9256
G01 X40.4705 Y0.9338
G01 X40.4662 Y0.9384
G01 X40.4611 Y0.9450
G01 X40.4546 Y0.9558
G01 X40.4498 Y0.9674
G01 X40.4468 Y0.9795
G01 X40.4457 Y0.9879
G01 X40.4455 Y0.9941
G01 X40.4455 Y2.0035
G01 X40.4464 Y2.0160
G01 X40.4492 Y2.0282
G01 X40.4537 Y2.0399
G01 X40.4599 Y2.0509
G01 X40.4662 Y2.0592
G01 X40.4735 Y2.0667
G01 X40.4817 Y2.0732
G01 X40.4887 Y2.0777
G01 X40.4981 Y2.0823
G01 X40.5080 Y2.0857
G01 X40.5182 Y2.0878
G01 X40.5266 Y2.0886
G01 X41.2119 Y2.0887
G00 X41.2119 Y2.0887
G01 F60.00
G01 Z-0.1999
G01 F100.00
G01 X40.5266 Y2.0886
G01 X40.5182 Y2.0878
G01 X40.5080 Y2.0857
G01 X40.4981 Y2.0823
G01 X40.4887 Y2.0777
G01 X40.4817 Y2.0732
G01 X40.4735 Y2.0667
G01 X40.4662 Y2.0592
G01 X40.4599 Y2.0509
G01 X40.4537 Y2.0399
G01 X40.4492 Y2.0282
G01 X40.4464 Y2.0160
G01 X40.4455 Y2.0035
G01 X40.4455 Y0.9941
G01 X40.4457 Y0.9879
G01 X40.4468 Y0.9795
G01 X40.4498 Y0.9674
G01 X40.4546 Y0.9558
G01 X40.4611 Y0.9450
G01 X40.4662 Y0.9384
G01 X40.4705 Y0.9338
G01 X40.4800 Y0.9256
G01 X40.4906 Y0.9189
G01 X40.5020 Y0.9139
G01 X40.5141 Y0.9105
G01 X40.5266 Y0.9090
G01 X41.5691 Y0.9089
G01 X41.5775 Y0.9085
G01 X41.5838 Y0.9075
G01 X41.5899 Y0.9060
G01 X41.5959 Y0.9038
G01 X41.6017 Y0.9011
G01 X41.6071 Y0.8979
G01 X41.6122 Y0.8941
G01 X41.6169 Y0.8898
G01 X41.6212 Y0.8851
G01 X41.6250 Y0.8800
G01 X41.6282 Y0.8746
G01 X41.6310 Y0.8688
G01 X41.6331 Y0.8628
G01 X41.6346 Y0.8567
G01 X41.6356 Y0.8504
G01 X41.6359 Y0.8440
G01 X41.6356 Y0.8377
G01 X41.6346 Y0.8314
G01 X41.6331 Y0.8253
G01 X41.6310 Y0.8193
G01 X41.6282 Y0.8135
G01 X41.6250 Y0.8081
G01 X41.6212 Y0.8030
G01 X41.6169 Y0.7983
G01 X41.6122 Y0.7940
G01 X41.6071 Y0.7902
G01 X41.6017 Y0.7870
G01 X41.5959 Y0.7843
G01 X41.5899 Y0.7821
G01 X41.5838 Y0.7806
G01 X41.5775 Y0.7796
G01 X41.5691 Y0.7792
G01 X40.3828 Y0.7792
G01 X40.3743 Y0.7796
G01 X40.3681 Y0.7806
G01 X40.3619 Y0.7821
G01 X40.3559 Y0.7843
G01 X40.3502 Y0.7870
G01 X40.3447 Y0.7902
G01 X40.3396 Y0.7940
G01 X40.3349 Y0.7983
G01 X40.3307 Y0.8030
G01 X40.3269 Y0.8081
G01 X40.3236 Y0.8135
G01 X40.3209 Y0.8193
G01 X40.3187 Y0.8253
G01 X40.3172 Y0.8314
G01 X40.3163 Y0.8377
G01 X40.3159 Y0.8461
G01 X40.3159 Y3.3420
G01 X40.3163 Y3.3504
G01 X40.3172 Y3.3567
G01 X40.3187 Y3.3628
G01 X40.3209 Y3.3688
G01 X40.3236 Y3.3746
G01 X40.3269 Y3.3800
G01 X40.3307 Y3.3851
G01 X40.3349 Y3.3898
G01 X40.3396 Y3.3941
G01 X40.3447 Y3.3979
G01 X40.3502 Y3.4011
G01 X40.3559 Y3.4038
G01 X40.3619 Y3.4060
G01 X40.3681 Y3.4075
G01 X40.3743 Y3.4085
G01 X40.3828 Y3.4089
G01 X41.5691 Y3.4089
G01 X41.5775 Y3.4085
G01 X41.5838 Y3.4075
G01 X41.5899 Y3.4060
G01 X41.5959 Y3.4038
G01 X41.6017 Y3.4011
G01 X41.6071 Y3.3979
G01 X41.6122 Y3.3941
G01 X41.6169 Y3.3898
G01 X41.6212 Y3.3851
G01 X41.6250 Y3.3800
G01 X41.6282 Y3.3746
G01 X41.6310 Y3.3688
G01 X41.6331 Y3.3628
G01 X41.6346 Y3.3567
G01 X41.6356 Y3.3504
G01 X41.6359 Y3.3440
G01 X41.6356 Y3.3377
G01 X41.6346 Y3.3314
G01 X41.6331 Y3.3253
G01 X41.6310 Y3.3193
G01 X41.6282 Y3.3135
G01 X41.6250 Y3.3081
G01 X41.6212 Y3.3030
G01 X41.6169 Y3.2983
G01 X41.6122 Y3.2940
G01 X41.6071 Y3.2902
G01 X41.6017 Y3.2870
G01 X41.5959 Y3.2843
G01 X41.5899 Y3.2821
G01 X41.5838 Y3.2806
G01 X41.5775 Y3.2796
G01 X41.5691 Y3.2792
G01 X40.5266 Y3.2791
G01 X40.5141 Y3.2776
G01 X40.5020 Y3.2742
G01 X40.4906 Y3.2692
G01 X40.4800 Y3.2624
G01 X40.4735 Y3.2571
G01 X40.4690 Y3.2528
G01 X40.4611 Y3.2431
G01 X40.4546 Y3.2323
G01 X40.4498 Y3.2207
G01 X40.4468 Y3.2085
G01 X40.4457 Y3.2002
G01 X40.4455 Y3.1940
G01 X40.4455 Y2.3036
G01 X40.4464 Y2.2911
G01 X40.4492 Y2.2789
G01 X40.4537 Y2.2672
G01 X40.4599 Y2.2563
G01 X40.4662 Y2.2480
G01 X40.4735 Y2.2405
G01 X40.4817 Y2.2339
G01 X40.4887 Y2.2295
G01 X40.4981 Y2.2249
G01 X40.5080 Y2.2215
G01 X40.5183 Y2.2193
G01 X40.5266 Y2.2185
G01 X41.2119 Y2.2184
G01 X41.2204 Y2.2180
G01 X41.2266 Y2.2171
G01 X41.2328 Y2.2155
G01 X41.2388 Y2.2134
G01 X41.2445 Y2.2107
G01 X41.2500 Y2.2074
G01 X41.2551 Y2.2036
G01 X41.2598 Y2.1993
G01 X41.2640 Y2.1946
G01 X41.2678 Y2.1895
G01 X41.2711 Y2.1841
G01 X41.2738 Y2.1783
G01 X41.2760 Y2.1724
G01 X41.2775 Y2.1662
G01 X41.2784 Y2.1599
G01 X41.2787 Y2.1536
G01 X41.2784 Y2.1472
G01 X41.2775 Y2.1409
G01 X41.2760 Y2.1348
G01 X41.2738 Y2.1288
G01 X41.2711 Y2.1231
G01 X41.2678 Y2.1176
G01 X41.2640 Y2.1125
G01 X41.2598 Y2.1078
G01 X41.2551 Y2.1035
G01 X41.2500 Y2.0998
G01 X41.2445 Y2.0965
G01 X41.2388 Y2.0938
G01 X41.2328 Y2.0916
G01 X41.2266 Y2.0901
G01 X41.2204 Y2.0892
G01 X41.2119 Y2.0887
G00 Z2.0000
G00 X43.4738 Y2.0887
G01 F60.00
G01 Z-0.1000
G01 F100.00
G01 X43.4823 Y2.0892
G01 X43.4885 Y2.0901
G01 X43.4947 Y2.0916
G01 X43.5007 Y2.0938
G01 X43.5064 Y2.0965
G01 X43.5119 Y2.0998
G01 X43.5170 Y2.1035
G01 X43.5217 Y2.1078
G01 X43.5260 Y2.1125
G01 X43.5297 Y2.1176
G01 X43.5330 Y2.1231
G01 X43.5357 Y2.1288
G01 X43.5379 Y2.1348
G01 X43.5394 Y2.1409
G01 X43.5403 Y2.1472
G01 X43.5406 Y2.1536
G01 X43.5403 Y2.1599
G01 X43.5394 Y2.1662
G01 X43.5379 Y2.1724
G01 X43.5357 Y2.1783
G01 X43.5330 Y2.1841
G01 X43.5297 Y2.1895
G01 X43.5260 Y2.1946
G01 X43.5217 Y2.1993
G01 X43.5170 Y2.2036
G01 X43.5119 Y2.2074
G01 X43.5064 Y2.2107
G01 X43.5007 Y2.2134
G01 X43.4947 Y2.2155
G01 X43.4885 Y2.2171
G01 X43.4823 Y2.2180
G01 X43.4738 Y2.2184
G01 X42.7885 Y2.2185
G01 X42.7802 Y2.2193
G01 X42.7699 Y2.2215
G01 X42.7600 Y2.2249
G01 X42.7506 Y2.2295
G01 X42.7436 Y2.2339
G01 X42.7354 Y2.2405
G01 X42.7281 Y2.2480
G01 X42.7218 Y2.2563
G01 X42.7156 Y2.2672
G01 X42.7111 Y2.2789
G01 X42.7083 Y2.2911
G01 X42.7074 Y2.3036
G01 X42.7074 Y3.1940
G01 X42.7076 Y3.2002
G01 X42.7087 Y3.2085
G01 X42.7117 Y3.2207
G01 X42.7165 Y3.2323
G01 X42.7230 Y3.2431
G01 X42.7309 Y3.2528
G01 X42.7354 Y3.2571
G01 X42.7419 Y3.2624
G01 X42.7525 Y3.2692
G01 X42.7639 Y3.2742
G01 X42.7760 Y3.2776
G01 X42.7885 Y3.2791
G01 X43.8310 Y3.2792
G01 X43.8394 Y3.2796
G01 X43.8457 Y3.2806
G01 X43.8519 Y3.2821
G01 X43.8578 Y3.2843
G01 X43.8636 Y3.2870
G01 X43.8690 Y3.2902
G01 X43.8741 Y3.2940
G01 X43.8788 Y3.2983
G01 X43.8831 Y3.3030
G01 X43.8869 Y3.3081
G01 X43.8901 Y3.3135
G01 X43.8929 Y3.3193
G01 X43.8950 Y3.3253
G01 X43.8965 Y3.3314
G01 X43.8975 Y3.3377
G01 X43.8978 Y3.3440
G01 X43.8975 Y3.3504
G01 X43.8965 Y3.3567
G01 X43.8950 Y3.3628
G01 X43.8929 Y3.3688
G01 X43.8901 Y3.3746
G01 X43.8869 Y3.3800
G01 X43.8831 Y3.3851
G01 X43.8788 Y3.3898
G01 X43.8741 Y3.3941
G01 X43.8690 Y3.3979
G01 X43.8636 Y3.4011
G01 X43.8578 Y3.4038
G01 X43.8519 Y3.4060
G01 X43.8457 Y3.4075
G01 X43.8394 Y3.4085
G01 X43.8310 Y3.4089
G01 X42.6447 Y3.4089
G01 X42.6362 Y3.4085
G01 X42.6300 Y3.4075
G01 X42.6238 Y3.4060
G01 X42.6178 Y3.4038
G01 X42.6121 Y3.4011
G01 X42.6066 Y3.3979
G01 X42.6015 Y3.3941
G01 X42.5968 Y3.3898
G01 X42.5926 Y3.3851
G01 X42.5888 Y3.3800
G01 X42.5855 Y3.3746
G01 X42.5828 Y3.3688
G01 X42.5807 Y3.3628
G01 X42.5791 Y3.3567
G01 X42.5782 Y3.3504
G01 X42.5778 Y3.3420
G01 X42.5778 Y0.8461
G01 X42.5782 Y0.8377
G01 X42.5791 Y0.8314
G01 X42.5807 Y0.8253
G01 X42.5828 Y0.8193
G01 X42.5855 Y0.8135
G01 X42.5888 Y0.8081
G01 X42.5926 Y0.8030
G01 X42.5968 Y0.7983
G01 X42.6015 Y0.7940
G01 X42.6066 Y0.7902
G01 X42.6121 Y0.7870
G01 X42.6178 Y0.7843
G01 X42.6238 Y0.7821
G01 X42.6300 Y0.7806
G01 X42.6362 Y0.7796
G01 X42.6447 Y0.7792
G01 X43.8310 Y0.7792
G01 X43.8394 Y0.7796
G01 X43.8457 Y0.7806
G01 X43.8519 Y0.7821
G01 X43.8578 Y0.7843
G01 X43.8636 Y0.7870
G01 X43.8690 Y0.7902
G01 X43.8741 Y0.7940
G01 X43.8788 Y0.7983
G01 X43.8831 Y0.8030
G01 X43.8869 Y0.8081
G01 X43.8901 Y0.8135
G01 X43.8929 Y0.8193
G01 X43.8950 Y0.8253
G01 X43.8965 Y0.8314
G01 X43.8975 Y0.8377
G01 X43.8978 Y0.8440
G01 X43.8975 Y0.8504
G01 X43.8965 Y0.8567
G01 X43.8950 Y0.8628
G01 X43.8929 Y0.8688
G01 X43.8901 Y0.8746
G01 X43.8869 Y0.8800
G01 X43.8831 Y0.8851
G01 X43.8788 Y0.8898
G01 X43.8741 Y0.8941
G01 X43.8690 Y0.8979
G01 X43.8636 Y0.9011
G01 X43.8578 Y0.9038
G01 X43.8519 Y0.9060
G01 X43.8457 Y0.9075
G01 X43.8394 Y0.9085
G01 X43.8310 Y0.9089
G01 X42.7885 Y0.9090
G01 X42.7760 Y0.9105
G01 X42.7639 Y0.9139
G01 X42.7525 Y0.9189
G01 X42.7419 Y0.9256
G01 X42.7324 Y0.9338
G01 X42.7281 Y0.9384
G01 X42.7230 Y0.9450
G01 X42.7165 Y0.9558
G01 X42.7117 Y0.9674
G01 X42.7087 Y0.9795
G01 X42.7076 Y0.9879
G01 X42.7074 Y0.9941
G01 X42.7074 Y2.0035
G01 X42.7083 Y2.0160
G01 X42.7111 Y2.0282
G01 X42.7156 Y2.0399
G01 X42.7218 Y2.0509
G01 X42.7281 Y2.0592
G01 X42.7354 Y2.0667
G01 X42.7436 Y2.0732
G01 X42.7506 Y2.0777
G01 X42.7600 Y2.0823
G01 X42.7699 Y2.0857
G01 X42.7802 Y2.0878
G01 X42.7885 Y2.0886
G01 X43.4738 Y2.0887
G00 X43.4738 Y2.0887
G01 F60.00
G01 Z-0.1999
G01 F100.00
G01 X42.7885 Y2.0886
G01 X42.7802 Y2.0878
G01 X42.7699 Y2.0857
G01 X42.7600 Y2.0823
G01 X42.7506 Y2.0777
G01 X42.7436 Y2.0732
G01 X42.7354 Y2.0667
G01 X42.7281 Y2.0592
G01 X42.7218 Y2.0509
G01 X42.7156 Y2.0399
G01 X42.7111 Y2.0282
G01 X42.7083 Y2.0160
G01 X42.7074 Y2.0035
G01 X42.7074 Y0.9941
G01 X42.7076 Y0.9879
G01 X42.7087 Y0.9795
G01 X42.7117 Y0.9674
G01 X42.7165 Y0.9558
G01 X42.7230 Y0.9450
G01 X42.7281 Y0.9384
G01 X42.7324 Y0.9338
G01 X42.7419 Y0.9256
G01 X42.7525 Y0.9189
G01 X42.7639 Y0.9139
G01 X42.7760 Y0.9105
G01 X42.7885 Y0.9090
G01 X43.8310 Y0.9089
G01 X43.8394 Y0.9085
G01 X43.8457 Y0.9075
G01 X43.8519 Y0.9060
G01 X43.8578 Y0.9038
G01 X43.8636 Y0.9011
G01 X43.8690 Y0.8979
G01 X43.8741 Y0.8941
G01 X43.8788 Y0.8898
G01 X43.8831 Y0.8851
G01 X43.8869 Y0.8800
G01 X43.8901 Y0.8746
G01 X43.8929 Y0.8688
G01 X43.8950 Y0.8628
G01 X43.8965 Y0.8567
G01 X43.8975 Y0.8504
G01 X43.8978 Y0.8440
G01 X43.8975 Y0.8377
G01 X43.8965 Y0.8314
G01 X43.8950 Y0.8253
G01 X43.8929 Y0.8193
G01 X43.8901 Y0.8135
G01 X43.8869 Y0.8081
G01 X43.8831 Y0.8030
G01 X43.8788 Y0.7983
G01 X43.8741 Y0.7940
G01 X43.8690 Y0.7902
G01 X43.8636 Y0.7870
G01 X43.8578 Y0.7843
G01 X43.8519 Y0.7821
G01 X43.8457 Y0.7806
G01 X43.8394 Y0.7796
G01 X43.8310 Y0.7792
G01 X42.6447 Y0.7792
G01 X42.6362 Y0.7796
G01 X42.6300 Y0.7806
G01 X42.6238 Y0.7821
G01 X42.6178 Y0.7843
G01 X42.6121 Y0.7870
G01 X42.6066 Y0.7902
G01 X42.6015 Y0.7940
G01 X42.5968 Y0.7983
G01 X42.5926 Y0.8030
G01 X42.5888 Y0.8081
G01 X42.5855 Y0.8135
G01 X42.5828 Y0.8193
G01 X42.5807 Y0.8253
G01 X42.5791 Y0.8314
G01 X42.5782 Y0.8377
G01 X42.5778 Y0.8461
G01 X42.5778 Y3.3420
G01 X42.5782 Y3.3504
G01 X42.5791 Y3.3567
G01 X42.5807 Y3.3628
G01 X42.5828 Y3.3688
G01 X42.5855 Y3.3746
G01 X42.5888 Y3.3800
G01 X42.5926 Y3.3851
G01 X42.5968 Y3.3898
G01 X42.6015 Y3.3941
G01 X42.6066 Y3.3979
G01 X42.6121 Y3.4011
G01 X42.6178 Y3.4038
G01 X42.6238 Y3.4060
G01 X42.6300 Y3.4075
G01 X42.6362 Y3.4085
G01 X42.6447 Y3.4089
G01 X43.8310 Y3.4089
G01 X43.8394 Y3.4085
G01 X43.8457 Y3.4075
G01 X43.8519 Y3.4060
G01 X43.8578 Y3.4038
G01 X43.8636 Y3.4011
G01 X43.8690 Y3.3979
G01 X43.8741 Y3.3941
G01 X43.8788 Y3.3898
G01 X43.8831 Y3.3851
G01 X43.8869 Y3.3800
G01 X43.8901 Y3.3746
G01 X43.8929 Y3.3688
G01 X43.8950 Y3.3628
G01 X43.8965 Y3.3567
G01 X43.8975 Y3.3504
G01 X43.8978 Y3.3440
G01 X43.8975 Y3.3377
G01 X43.8965 Y3.3314
G01 X43.8950 Y3.3253
G01 X43.8929 Y3.3193
G01 X43.8901 Y3.3135
G01 X43.8869 Y3.3081
G01 X43.8831 Y3.3030
G01 X43.8788 Y3.2983
G01 X43.8741 Y3.2940
G01 X43.8690 Y3.2902
G01 X43.8636 Y3.2870
G01 X43.8578 Y3.2843
G01 X43.8519 Y3.2821
G01 X43.8457 Y3.2806
G01 X43.8394 Y3.2796
G01 X43.8310 Y3.2792
G01 X42.7885 Y3.2791
G01 X42.7760 Y3.2776
G01 X42.7639 Y3.2742
G01 X42.7525 Y3.2692
G01 X42.7419 Y3.2624
G01 X42.7354 Y3.2571
G01 X42.7309 Y3.2528
G01 X42.7230 Y3.2431
G01 X42.7165 Y3.2323
G01 X42.7117 Y3.2207
G01 X42.7087 Y3.2085
G01 X42.7076 Y3.2002
G01 X42.7074 Y3.1940
G01 X42.7074 Y2.3036
G01 X42.7083 Y2.2911
G01 X42.7111 Y2.2789
G01 X42.7156 Y2.2672
G01 X42.7218 Y2.2563
G01 X42.7281 Y2.2480
G01 X42.7354 Y2.2405
G01 X42.7436 Y2.2339
G01 X42.7506 Y2.2295
G01 X42.7600 Y2.2249
G01 X42.7699 Y2.2215
G01 X42.7802 Y2.2193
G01 X42.7885 Y2.2185
G01 X43.4738 Y2.2184
G01 X43.4823 Y2.2180
G01 X43.4885 Y2.2171
G01 X43.4947 Y2.2155
G01 X43.5007 Y2.2134
G01 X43.5064 Y2.2107
G01 X43.5119 Y2.2074
G01 X43.5170 Y2.2036
G01 X43.5217 Y2.1993
G01 X43.5260 Y2.1946
G01 X43.5297 Y2.1895
G01 X43.5330 Y2.1841
G01 X43.5357 Y2.1783
G01 X43.5379 Y2.1724
G01 X43.5394 Y2.1662
G01 X43.5403 Y2.1599
G01 X43.5406 Y2.1536
G01 X43.5403 Y2.1472
G01 X43.5394 Y2.1409
G01 X43.5379 Y2.1348
G01 X43.5357 Y2.1288
G01 X43.5330 Y2.1231
G01 X43.5297 Y2.1176
G01 X43.5260 Y2.1125
G01 X43.5217 Y2.1078
G01 X43.5170 Y2.1035
G01 X43.5119 Y2.0998
G01 X43.5064 Y2.0965
G01 X43.5007 Y2.0938
G01 X43.4947 Y2.0916
G01 X43.4885 Y2.0901
G01 X43.4823 Y2.0892
G01 X43.4738 Y2.0887
G00 Z2.0000
G00 X44.9693 Y2.7789
G01 F60.00
G01 Z-0.1000
G01 F100.00
G01 X44.9697 Y2.7872
G01 X44.9705 Y2.7934
G01 X44.9735 Y2.8054
G01 X44.9757 Y2.8112
G01 X44.9792 Y2.8187
G01 X44.9858 Y2.8292
G01 X44.9910 Y2.8357
G01 X44.9953 Y2.8402
G01 X45.0048 Y2.8481
G01 X45.0153 Y2.8546
G01 X45.0229 Y2.8581
G01 X45.0287 Y2.8602
G01 X45.0347 Y2.8618
G01 X45.0428 Y2.8634
G01 X45.0552 Y2.8642
G01 X45.0614 Y2.8639
G01 X45.0696 Y2.8628
G01 X45.0816 Y2.8598
G01 X45.0894 Y2.8568
G01 X45.0949 Y2.8540
G01 X45.1054 Y2.8474
G01 X45.1148 Y2.8393
G01 X45.1190 Y2.8347
G01 X45.1241 Y2.8282
G01 X45.1286 Y2.8212
G01 X46.2758 Y0.8137
G01 X46.2802 Y0.8066
G01 X46.2841 Y0.8017
G01 X46.2885 Y0.7971
G01 X46.2932 Y0.7930
G01 X46.2984 Y0.7894
G01 X46.3038 Y0.7863
G01 X46.3096 Y0.7837
G01 X46.3155 Y0.7817
G01 X46.3216 Y0.7803
G01 X46.3279 Y0.7795
G01 X46.3341 Y0.7793
G01 X46.3404 Y0.7797
G01 X46.3466 Y0.7808
G01 X46.3527 Y0.7824
G01 X46.3586 Y0.7846
G01 X46.3642 Y0.7873
G01 X46.3696 Y0.7906
G01 X46.3746 Y0.7944
G01 X46.3792 Y0.7987
G01 X46.3834 Y0.8034
G01 X46.3871 Y0.8084
G01 X46.3903 Y0.8138
G01 X46.3930 Y0.8195
G01 X46.3951 Y0.8255
G01 X46.3966 Y0.8316
G01 X46.3975 Y0.8378
G01 X46.3979 Y0.8461
G01 X46.3979 Y3.3420
G01 X46.3975 Y3.3504
G01 X46.3965 Y3.3567
G01 X46.3950 Y3.3628
G01 X46.3929 Y3.3688
G01 X46.3901 Y3.3746
G01 X46.3869 Y3.3800
G01 X46.3831 Y3.3851
G01 X46.3788 Y3.3898
G01 X46.3741 Y3.3941
G01 X46.3690 Y3.3979
G01 X46.3636 Y3.4011
G01 X46.3578 Y3.4038
G01 X46.3519 Y3.4060
G01 X46.3457 Y3.4075
G01 X46.3394 Y3.4085
G01 X46.3331 Y3.4088
G01 X46.3267 Y3.4085
G01 X46.3204 Y3.4075
G01 X46.3143 Y3.4060
G01 X46.3083 Y3.4038
G01 X46.3026 Y3.4011
G01 X46.2971 Y3.3979
G01 X46.2920 Y3.3941
G01 X46.2873 Y3.3898
G01 X46.2830 Y3.3851
G01 X46.2793 Y3.3800
G01 X46.2760 Y3.3746
G01 X46.2733 Y3.3688
G01 X46.2711 Y3.3628
G01 X46.2696 Y3.3567
G01 X46.2687 Y3.3504
G01 X46.2682 Y3.3420
G01 X46.2681 Y1.4050
G01 X46.2673 Y1.3968
G01 X46.2657 Y1.3887
G01 X46.2640 Y1.3827
G01 X46.2611 Y1.3750
G01 X46.2574 Y1.3676
G01 X46.2530 Y1.3605
G01 X46.2480 Y1.3540
G01 X46.2423 Y1.3479
G01 X46.2361 Y1.3425
G01 X46.2294 Y1.3376
G01 X46.2222 Y1.3335
G01 X46.2147 Y1.3300
G01 X46.2069 Y1.3273
G01 X46.1988 Y1.3254
G01 X46.1906 Y1.3243
G01 X46.1823 Y1.3239
G01 X46.1720 Y1.3246
G01 X46.1599 Y1.3271
G01 X46.1501 Y1.3305
G01 X46.1408 Y1.3351
G01 X46.1322 Y1.3407
G01 X46.1242 Y1.3474
G01 X46.1172 Y1.3550
G01 X46.1100 Y1.3651
G01 X44.9618 Y3.3744
G01 X44.9573 Y3.3815
G01 X44.9534 Y3.3864
G01 X44.9491 Y3.3910
G01 X44.9443 Y3.3951
G01 X44.9392 Y3.3987
G01 X44.9337 Y3.4018
G01 X44.9280 Y3.4044
G01 X44.9220 Y3.4063
G01 X44.9159 Y3.4078
G01 X44.9097 Y3.4086
G01 X44.9034 Y3.4088
G01 X44.8971 Y3.4084
G01 X44.8909 Y3.4073
G01 X44.8849 Y3.4057
G01 X44.8790 Y3.4035
G01 X44.8733 Y3.4008
G01 X44.8680 Y3.3975
G01 X44.8630 Y3.3937
G01 X44.8583 Y3.3894
G01 X44.8542 Y3.3847
G01 X44.8505 Y3.3797
G01 X44.8473 Y3.3743
G01 X44.8446 Y3.3686
G01 X44.8425 Y3.3626
G01 X44.8410 Y3.3565
G01 X44.8401 Y3.3503
G01 X44.8397 Y3.3420
G01 X44.8397 Y0.8461
G01 X44.8401 Y0.8377
G01 X44.8410 Y0.8314
G01 X44.8426 Y0.8253
G01 X44.8447 Y0.8193
G01 X44.8474 Y0.8135
G01 X44.8507 Y0.8081
G01 X44.8545 Y0.8030
G01 X44.8587 Y0.7983
G01 X44.8634 Y0.7940
G01 X44.8685 Y0.7902
G01 X44.8740 Y0.7870
G01 X44.8797 Y0.7843
G01 X44.8857 Y0.7821
G01 X44.8919 Y0.7806
G01 X44.8981 Y0.7796
G01 X44.9045 Y0.7793
G01 X44.9108 Y0.7796
G01 X44.9171 Y0.7806
G01 X44.9233 Y0.7821
G01 X44.9293 Y0.7843
G01 X44.9350 Y0.7870
G01 X44.9405 Y0.7902
G01 X44.9456 Y0.7940
G01 X44.9503 Y0.7983
G01 X44.9545 Y0.8030
G01 X44.9583 Y0.8081
G01 X44.9616 Y0.8135
G01 X44.9643 Y0.8193
G01 X44.9664 Y0.8253
G01 X44.9680 Y0.8314
G01 X44.9689 Y0.8377
G01 X44.9693 Y0.8461
G01 X44.9693 Y2.7789
G00 X44.9693 Y2.7789
G01 F60.00
G01 Z-0.1999
G01 F100.00
G01 X44.9693 Y0.8461
G01 X44.9689 Y0.8377
G01 X44.9680 Y0.8314
G01 X44.9664 Y0.8253
G01 X44.9643 Y0.8193
G01 X44.9616 Y0.8135
G01 X44.9583 Y0.8081
G01 X44.9545 Y0.8030
G01 X44.9503 Y0.7983
G01 X44.9456 Y0.7940
G01 X44.9405 Y0.7902
G01 X44.9350 Y0.7870
G01 X44.9293 Y0.7843
G01 X44.9233 Y0.7821
G01 X44.9171 Y0.7806
G01 X44.9108 Y0.7796
G01 X44.9045 Y0.7793
G01 X44.8981 Y0.7796
G01 X44.8919 Y0.7806
G01 X44.8857 Y0.7821
G01 X44.8797 Y0.7843
G01 X44.8740 Y0.7870
G01 X44.8685 Y0.7902
G01 X44.8634 Y0.7940
G01 X44.8587 Y0.7983
G01 X44.8545 Y0.8030
G01 X44.8507 Y0.8081
G01 X44.8474 Y0.8135
G01 X44.8447 Y0.8193
G01 X44.8426 Y0.8253
G01 X44.8410 Y0.8314
G01 X44.8401 Y0.8377
G01 X44.8397 Y0.8461
G01 X44.8397 Y3.3420
G01 X44.8401 Y3.3503
G01 X44.8410 Y3.3565
G01 X44.8425 Y3.3626
G01 X44.8446 Y3.3686
G01 X44.8473 Y3.3743
G01 X44.8505 Y3.3797
G01 X44.8542 Y3.3847
G01 X44.8583 Y3.3894
G01 X44.8630 Y3.3937
G01 X44.8680 Y3.3975
G01 X44.8733 Y3.4008
G01 X44.8790 Y3.4035
G01 X44.8849 Y3.4057
G01 X44.8909 Y3.4073
G01 X44.8971 Y3.4084
G01 X44.9034 Y3.4088
G01 X44.9097 Y3.4086
G01 X44.9159 Y3.4078
G01 X44.9220 Y3.4063
G01 X44.9280 Y3.4044
G01 X44.9337 Y3.4018
G01 X44.9392 Y3.3987
G01 X44.9443 Y3.3951
G01 X44.9491 Y3.3910
G01 X44.9534 Y3.3864
G01 X44.9573 Y3.3815
G01 X44.9618 Y3.3744
G01 X46.1100 Y1.3651
G01 X46.1172 Y1.3550
G01 X46.1242 Y1.3474
G01 X46.1322 Y1.3407
G01 X46.1408 Y1.3351
G01 X46.1501 Y1.3305
G01 X46.1599 Y1.3271
G01 X46.1720 Y1.3246
G01 X46.1823 Y1.3239
G01 X46.1906 Y1.3243
G01 X46.1988 Y1.3254
G01 X46.2069 Y1.3273
G01 X46.2147 Y1.3300
G01 X46.2222 Y1.3335
G01 X46.2294 Y1.3376
G01 X46.2361 Y1.3425
G01 X46.2423 Y1.3479
G01 X46.2480 Y1.3540
G01 X46.2530 Y1.3605
G01 X46.2574 Y1.3676
G01 X46.2611 Y1.3750
G01 X46.2640 Y1.3827
G01 X46.2657 Y1.3887
G01 X46.2673 Y1.3968
G01 X46.2681 Y1.4050
G01 X46.2682 Y3.3420
G01 X46.2687 Y3.3504
G01 X46.2696 Y3.3567
G01 X46.2711 Y3.3628
G01 X46.2733 Y3.3688
G01 X46.2760 Y3.3746
G01 X46.2793 Y3.3800
G01 X46.2830 Y3.3851
G01 X46.2873 Y3.3898
G01 X46.2920 Y3.3941
G01 X46.2971 Y3.3979
G01 X46.3026 Y3.4011
G01 X46.3083 Y3.4038
G01 X46.3143 Y3.4060
G01 X46.3204 Y3.4075
G01 X46.3267 Y3.4085
G01 X46.3331 Y3.4088
G01 X46.3394 Y3.4085
G01 X46.3457 Y3.4075
G01 X46.3519 Y3.4060
G01 X46.3578 Y3.4038
G01 X46.3636 Y3.4011
G01 X46.3690 Y3.3979
G01 X46.3741 Y3.3941
G01 X46.3788 Y3.3898
G01 X46.3831 Y3.3851
G01 X46.3869 Y3.3800
G01 X46.3901 Y3.3746
G01 X46.3929 Y3.3688
G01 X46.3950 Y3.3628
G01 X46.3965 Y3.3567
G01 X46.3975 Y3.3504
G01 X46.3979 Y3.3420
G01 X46.3979 Y0.8461
G01 X46.3975 Y0.8378
G01 X46.3966 Y0.8316
G01 X46.3951 Y0.8255
G01 X46.3930 Y0.8195
G01 X46.3903 Y0.8138
G01 X46.3871 Y0.8084
G01 X46.3834 Y0.8034
G01 X46.3792 Y0.7987
G01 X46.3746 Y0.7944
G01 X46.3696 Y0.7906
G01 X46.3642 Y0.7873
G01 X46.3586 Y0.7846
G01 X46.3527 Y0.7824
G01 X46.3466 Y0.7808
G01 X46.3404 Y0.7797
G01 X46.3341 Y0.7793
G01 X46.3279 Y0.7795
G01 X46.3216 Y0.7803
G01 X46.3155 Y0.7817
G01 X46.3096 Y0.7837
G01 X46.3038 Y0.7863
G01 X46.2984 Y0.7894
G01 X46.2932 Y0.7930
G01 X46.2885 Y0.7971
G01 X46.2841 Y0.8017
G01 X46.2802 Y0.8066
G01 X46.2758 Y0.8137
G01 X45.1286 Y2.8212
G01 X45.1241 Y2.8282
G01 X45.1190 Y2.8347
G01 X45.1148 Y2.8393
G01 X45.1054 Y2.8474
G01 X45.0949 Y2.8540
G01 X45.0894 Y2.8568
G01 X45.0816 Y2.8598
G01 X45.0696 Y2.8628
G01 X45.0614 Y2.8639
G01 X45.0552 Y2.8642
G01 X45.0428 Y2.8634
G01 X45.0347 Y2.8618
G01 X45.0287 Y2.8602
G01 X45.0229 Y2.8581
G01 X45.0153 Y2.8546
G01 X45.0048 Y2.8481
G01 X44.9953 Y2.8402
G01 X44.9910 Y2.8357
G01 X44.9858 Y2.8292
G01 X44.9792 Y2.8187
G01 X44.9757 Y2.8112
G01 X44.9735 Y2.8054
G01 X44.9705 Y2.7934
G01 X44.9697 Y2.7872
G01 X44.9693 Y2.7789
G00 Z2.0000
G00 X44.9935 Y3.0097
G01 F60.00
G01 Z-0.1000
G01 F100.00
G01 X44.9931 Y3.0103
G01 X44.9931 Y3.0096
G01 X44.9935 Y3.0097
G00 X44.9935 Y3.0097
G01 F60.00
G01 Z-0.1999
G01 F100.00
G01 X44.9931 Y3.0096
G01 X44.9931 Y3.0103
G01 X44.9935 Y3.0097
G00 Z2.0000
G00 X44.6974 Y4.9589
G01 F60.00
G01 Z-0.1000
G01 F100.00
G01 X44.6891 Y4.9593
G01 X44.6829 Y4.9601
G01 X44.6747 Y4.9620
G01 X44.6667 Y4.9646
G01 X44.6591 Y4.9680
G01 X44.6518 Y4.9721
G01 X44.6466 Y4.9756
G01 X44.6402 Y4.9810
G01 X44.6343 Y4.9869
G01 X44.6290 Y4.9933
G01 X44.6243 Y5.0003
G01 X44.6204 Y5.0077
G01 X44.6172 Y5.0154
G01 X44.6147 Y5.0234
G01 X44.6134 Y5.0295
G01 X44.6124 Y5.0379
G01 X44.6122 Y7.3920
G01 X44.6118 Y7.4004
G01 X44.6108 Y7.4067
G01 X44.6093 Y7.4128
G01 X44.6071 Y7.4188
G01 X44.6044 Y7.4246
G01 X44.6012 Y7.4300
G01 X44.5974 Y7.4351
G01 X44.5931 Y7.4398
G01 X44.5884 Y7.4441
G01 X44.5833 Y7.4479
G01 X44.5778 Y7.4511
G01 X44.5721 Y7.4539
G01 X44.5661 Y7.4560
G01 X44.5599 Y7.4575
G01 X44.5537 Y7.4585
G01 X44.5473 Y7.4588
G01 X44.5410 Y7.4585
G01 X44.5347 Y7.4575
G01 X44.5285 Y7.4560
G01 X44.5225 Y7.4538
G01 X44.5168 Y7.4511
G01 X44.5113 Y7.4478
G01 X44.5062 Y7.4440
G01 X44.5015 Y7.4398
G01 X44.4973 Y7.4351
G01 X44.4923 Y7.4283
G01 X44.2636 Y7.0852
G01 X44.2586 Y7.0785
G01 X44.2529 Y7.0722
G01 X44.0425 Y6.8619
G01 X44.0357 Y6.8558
G01 X44.0283 Y6.8504
G01 X44.0204 Y6.8459
G01 X43.8059 Y6.7387
G01 X43.7986 Y6.7345
G01 X43.7934 Y6.7309
G01 X43.7886 Y6.7268
G01 X43.7842 Y6.7222
G01 X43.7802 Y6.7172
G01 X43.7768 Y6.7118
G01 X43.7740 Y6.7061
G01 X43.7717 Y6.7002
G01 X43.7700 Y6.6941
G01 X43.7689 Y6.6879
G01 X43.7684 Y6.6815
G01 X43.7685 Y6.6752
G01 X43.7693 Y6.6689
G01 X43.7706 Y6.6627
G01 X43.7726 Y6.6566
G01 X43.7752 Y6.6508
G01 X43.7783 Y6.6453
G01 X43.7819 Y6.6401
G01 X43.7861 Y6.6353
G01 X43.7907 Y6.6309
G01 X43.7957 Y6.6269
G01 X43.8010 Y6.6235
G01 X43.8067 Y6.6207
G01 X43.8126 Y6.6184
G01 X43.8187 Y6.6167
G01 X43.8250 Y6.6155
G01 X43.8313 Y6.6151
G01 X43.8377 Y6.6152
G01 X43.8440 Y6.6160
G01 X43.8502 Y6.6173
G01 X43.8562 Y6.6193
G01 X43.8639 Y6.6227
G01 X44.0981 Y6.7398
G01 X44.1061 Y6.7444
G01 X44.1118 Y6.7484
G01 X44.1186 Y6.7546
G01 X44.3370 Y6.9730
G01 X44.3465 Y6.9812
G01 X44.3571 Y6.9879
G01 X44.3647 Y6.9914
G01 X44.3725 Y6.9943
G01 X44.3827 Y6.9967
G01 X44.3910 Y6.9977
G01 X44.4015 Y6.9978
G01 X44.4098 Y6.9970
G01 X44.4180 Y6.9954
G01 X44.4260 Y6.9930
G01 X44.4356 Y6.9888
G01 X44.4429 Y6.9847
G01 X44.4497 Y6.9799
G01 X44.4561 Y6.9744
G01 X44.4618 Y6.9684
G01 X44.4670 Y6.9618
G01 X44.4725 Y6.9529
G01 X44.4760 Y6.9453
G01 X44.4789 Y6.9374
G01 X44.4809 Y6.9293
G01 X44.4821 Y6.9210
G01 X44.4825 Y6.9127
G01 X44.4825 Y5.0441
G01 X44.4816 Y5.0316
G01 X44.4789 Y5.0194
G01 X44.4743 Y5.0077
G01 X44.4682 Y4.9968
G01 X44.4604 Y4.9869
G01 X44.4514 Y4.9782
G01 X44.4411 Y4.9710
G01 X44.4299 Y4.9654
G01 X44.4180 Y4.9614
G01 X44.4056 Y4.9593
G01 X44.3973 Y4.9589
G01 X43.8352 Y4.9589
G01 X43.8267 Y4.9585
G01 X43.8204 Y4.9575
G01 X43.8143 Y4.9560
G01 X43.8083 Y4.9538
G01 X43.8026 Y4.9511
G01 X43.7971 Y4.9479
G01 X43.7920 Y4.9441
G01 X43.7873 Y4.9398
G01 X43.7830 Y4.9351
G01 X43.7793 Y4.9300
G01 X43.7760 Y4.9246
G01 X43.7733 Y4.9188
G01 X43.7711 Y4.9128
G01 X43.7696 Y4.9067
G01 X43.7687 Y4.9004
G01 X43.7683 Y4.8940
G01 X43.7687 Y4.8877
G01 X43.7696 Y4.8814
G01 X43.7711 Y4.8753
G01 X43.7733 Y4.8693
G01 X43.7760 Y4.8635
G01 X43.7793 Y4.8581
G01 X43.7830 Y4.8530
G01 X43.7873 Y4.8483
G01 X43.7920 Y4.8440
G01 X43.7971 Y4.8402
G01 X43.8026 Y4.8370
G01 X43.8083 Y4.8343
G01 X43.8143 Y4.8321
G01 X43.8204 Y4.8306
G01 X43.8267 Y4.8296
G01 X43.8352 Y4.8292
G01 X45.2595 Y4.8292
G01 X45.2680 Y4.8296
G01 X45.2743 Y4.8306
G01 X45.2804 Y4.8321
G01 X45.2864 Y4.8343
G01 X45.2921 Y4.8370
G01 X45.2976 Y4.8402
G01 X45.3027 Y4.8440
G01 X45.3074 Y4.8483
G01 X45.3117 Y4.8530
G01 X45.3155 Y4.8581
G01 X45.3187 Y4.8635
G01 X45.3214 Y4.8693
G01 X45.3236 Y4.8753
G01 X45.3251 Y4.8814
G01 X45.3260 Y4.8877
G01 X45.3264 Y4.8940
G01 X45.3260 Y4.9004
G01 X45.3251 Y4.9067
G01 X45.3236 Y4.9128
G01 X45.3214 Y4.9188
G01 X45.3187 Y4.9246
G01 X45.3155 Y4.9300
G01 X45.3117 Y4.9351
G01 X45.3074 Y4.9398
G01 X45.3027 Y4.9441
G01 X45.2976 Y4.9479
G01 X45.2921 Y4.9511
G01 X45.2864 Y4.9538
G01 X45.2804 Y4.9560
G01 X45.2743 Y4.9575
G01 X45.2680 Y4.9585
G01 X45.2595 Y4.9589
G01 X44.6974 Y4.9589
G00 X44.6974 Y4.9589
G01 F60.00
G01 Z-0.1999
G01 F100.00
G01 X45.2595 Y4.9589
G01 X45.2680 Y4.9585
G01 X45.2743 Y4.9575
G01 X45.2804 Y4.9560
G01 X45.2864 Y4.9538
G01 X45.2921 Y4.9511
G01 X45.2976 Y4.9479
G01 X45.3027 Y4.9441
G01 X45.3074 Y4.9398
G01 X45.3117 Y4.9351
G01 X45.3155 Y4.9300
G01 X45.3187 Y4.9246
G01 X45.3214 Y4.9188
G01 X45.3236 Y4.9128
G01 X45.3251 Y4.9067
G01 X45.3260 Y4.9004
G01 X45.3264 Y4.8940
G01 X45.3260 Y4.8877
G01 X45.3251 Y4.8814
G01 X45.3236 Y4.8753
G01 X45.3214 Y4.8693
G01 X45.3187 Y4.8635
G01 X45.3155 Y4.8581
G01 X45.3117 Y4.8530
G01 X45.3074 Y4.8483
G01 X45.3027 Y4.8440
G01 X45.2976 Y4.8402
G01 X45.2921 Y4.8370
G01 X45.2864 Y4.8343
G01 X45.2804 Y4.8321
G01 X45.2743 Y4.8306
G01 X45.2680 Y4.8296
G01 X45.2595 Y4.8292
G01 X43.8352 Y4.8292
G01 X43.8267 Y4.8296
G01 X43.8204 Y4.8306
G01 X43.8143 Y4.8321
G01 X43.8083 Y4.8343
G01 X43.8026 Y4.8370
G01 X43.7971 Y4.8402
G01 X43.7920 Y4.8440
G01 X43.7873 Y4.8483
G01 X43.7830 Y4.8530
G01 X43.7793 Y4.8581
G01 X43.7760 Y4.8635
G01 X43.7733 Y4.8693
G01 X43.7711 Y4.8753
G01 X43.7696 Y4.8814
G01 X43.7687 Y4.8877
G01 X43.7683 Y4.8940
G01 X43.7687 Y4.9004
G01 X43.7696 Y4.9067
G01 X43.7711 Y4.9128
G01 X43.7733 Y4.9188
G01 X43.7760 Y4.9246
G01 X43.7793 Y4.9300
G01 X43.7830 Y4.9351
G01 X43.7873 Y4.9398
G01 X43.7920 Y4.9441
G01 X43.7971 Y4.9479
G01 X43.8026 Y4.9511
G01 X43.8083 Y4.9538
G01 X43.8143 Y4.9560
G01 X43.8204 Y4.9575
G01 X43.8267 Y4.9585
G01 X43.8352 Y4.9589
G01 X44.3973 Y4.9589
G01 X44.4056 Y4.9593
G01 X44.4180 Y4.9614
G01 X44.4299 Y4.9654
G01 X44.4411 Y4.9710
G01 X44.4514 Y4.9782
G01 X44.4604 Y4.9869
G01 X44.4682 Y4.9968
G01 X44.4743 Y5.0077
G01 X44.4789 Y5.0194
G01 X44.4816 Y5.0316
G01 X44.4825 Y5.0441
G01 X44.4825 Y6.9127
G01 X44.4821 Y6.9210
G01 X44.4809 Y6.9293
G01 X44.4789 Y6.9374
G01 X44.4760 Y6.9453
G01 X44.4725 Y6.9529
G01 X44.4670 Y6.9618
G01 X44.4618 Y6.9684
G01 X44.4561 Y6.9744
G01 X44.4497 Y6.9799
G01 X44.4429 Y6.9847
G01 X44.4356 Y6.9888
G01 X44.4260 Y6.9930
G01 X44.4180 Y6.9954
G01 X44.4098 Y6.9970
G01 X44.4015 Y6.9978
G01 X44.3910 Y6.9977
G01 X44.3827 Y6.9967
G01 X44.3725 Y6.9943
G01 X44.3647 Y6.9914
G01 X44.3571 Y6.9879
G01 X44.3465 Y6.9812
G01 X44.3370 Y6.9730
G01 X44.1186 Y6.7546
G01 X44.1118 Y6.7484
G01 X44.1061 Y6.7444
G01 X44.0981 Y6.7398
G01 X43.8639 Y6.6227
G01 X43.8562 Y6.6193
G01 X43.8502 Y6.6173
G01 X43.8440 Y6.6160
G01 X43.8377 Y6.6152
G01 X43.8313 Y6.6151
G01 X43.8250 Y6.6155
G01 X43.8187 Y6.6167
G01 X43.8126 Y6.6184
G01 X43.8067 Y6.6207
G01 X43.8010 Y6.6235
G01 X43.7957 Y6.6269
G01 X43.7907 Y6.6309
G01 X43.7861 Y6.6353
G01 X43.7819 Y6.6401
G01 X43.7783 Y6.6453
G01 X43.7752 Y6.6508
G01 X43.7726 Y6.6566
G01 X43.7706 Y6.6627
G01 X43.7693 Y6.6689
G01 X43.7685 Y6.6752
G01 X43.7684 Y6.6815
G01 X43.7689 Y6.6879
G01 X43.7700 Y6.6941
G01 X43.7717 Y6.7002
G01 X43.7740 Y6.7061
G01 X43.7768 Y6.7118
G01 X43.7802 Y6.7172
G01 X43.7842 Y6.7222
G01 X43.7886 Y6.7268
G01 X43.7934 Y6.7309
G01 X43.7986 Y6.7345
G01 X43.8059 Y6.7387
G01 X44.0204 Y6.8459
G01 X44.0283 Y6.8504
G01 X44.0357 Y6.8558
G01 X44.0425 Y6.8619
G01 X44.2529 Y7.0722
G01 X44.2586 Y7.0785
G01 X44.2636 Y7.0852
G01 X44.4923 Y7.4283
G01 X44.4973 Y7.4351
G01 X44.5015 Y7.4398
G01 X44.5062 Y7.4440
G01 X44.5113 Y7.4478
G01 X44.5168 Y7.4511
G01 X44.5225 Y7.4538
G01 X44.5285 Y7.4560
G01 X44.5347 Y7.4575
G01 X44.5410 Y7.4585
G01 X44.5473 Y7.4588
G01 X44.5537 Y7.4585
G01 X44.5599 Y7.4575
G01 X44.5661 Y7.4560
G01 X44.5721 Y7.4539
G01 X44.5778 Y7.4511
G01 X44.5833 Y7.4479
G01 X44.5884 Y7.4441
G01 X44.5931 Y7.4398
G01 X44.5974 Y7.4351
G01 X44.6012 Y7.4300
G01 X44.6044 Y7.4246
G01 X44.6071 Y7.4188
G01 X44.6093 Y7.4128
G01 X44.6108 Y7.4067
G01 X44.6118 Y7.4004
G01 X44.6122 Y7.3920
G01 X44.6124 Y5.0379
G01 X44.6134 Y5.0295
G01 X44.6147 Y5.0234
G01 X44.6172 Y5.0154
G01 X44.6204 Y5.0077
G01 X44.6243 Y5.0003
G01 X44.6290 Y4.9933
G01 X44.6343 Y4.9869
G01 X44.6402 Y4.9810
G01 X44.6466 Y4.9756
G01 X44.6518 Y4.9721
G01 X44.6591 Y4.9680
G01 X44.6667 Y4.9646
G01 X44.6747 Y4.9620
G01 X44.6829 Y4.9601
G01 X44.6891 Y4.9593
G01 X44.6974 Y4.9589
G00 Z2.0000
G00 X41.5998 Y7.2119
G01 F60.00
G01 Z-0.1000
G01 F100.00
G01 X41.6048 Y7.2166
G01 X41.6102 Y7.2208
G01 X41.6199 Y7.2269
G01 X41.8066 Y7.3202
G01 X41.8119 Y7.3227
G01 X41.8194 Y7.3254
G01 X41.8251 Y7.3269
G01 X41.8329 Y7.3284
G01 X41.8447 Y7.3292
G01 X42.3691 Y7.3292
G01 X42.3770 Y7.3289
G01 X42.3867 Y7.3274
G01 X42.3944 Y7.3254
G01 X42.4018 Y7.3227
G01 X42.5918 Y7.2279
G01 X42.6017 Y7.2221
G01 X42.6072 Y7.2180
G01 X42.6140 Y7.2119
G01 X42.6986 Y7.1273
G01 X42.7047 Y7.1205
G01 X42.7100 Y7.1131
G01 X42.7145 Y7.1052
G01 X42.8069 Y6.9206
G01 X42.8108 Y6.9115
G01 X42.8131 Y6.9039
G01 X42.8150 Y6.8942
G01 X42.8159 Y6.8824
G01 X42.8159 Y6.7041
G01 X42.8151 Y6.6927
G01 X42.8139 Y6.6860
G01 X42.8115 Y6.6772
G01 X42.7107 Y6.3749
G01 X42.7085 Y6.3694
G01 X42.7050 Y6.3623
G01 X42.7008 Y6.3556
G01 X42.6961 Y6.3492
G01 X42.6907 Y6.3434
G01 X41.2887 Y4.9414
G01 X41.2830 Y4.9351
G01 X41.2793 Y4.9300
G01 X41.2760 Y4.9246
G01 X41.2733 Y4.9188
G01 X41.2711 Y4.9128
G01 X41.2696 Y4.9067
G01 X41.2687 Y4.9004
G01 X41.2683 Y4.8940
G01 X41.2687 Y4.8877
G01 X41.2696 Y4.8814
G01 X41.2711 Y4.8753
G01 X41.2733 Y4.8693
G01 X41.2760 Y4.8635
G01 X41.2793 Y4.8581
G01 X41.2830 Y4.8530
G01 X41.2873 Y4.8483
G01 X41.2920 Y4.8440
G01 X41.2971 Y4.8402
G01 X41.3026 Y4.8370
G01 X41.3083 Y4.8343
G01 X41.3143 Y4.8321
G01 X41.3204 Y4.8306
G01 X41.3267 Y4.8296
G01 X41.3352 Y4.8292
G01 X42.8786 Y4.8292
G01 X42.8870 Y4.8296
G01 X42.8933 Y4.8306
G01 X42.8995 Y4.8321
G01 X42.9055 Y4.8343
G01 X42.9112 Y4.8370
G01 X42.9166 Y4.8402
G01 X42.9217 Y4.8440
G01 X42.9264 Y4.8483
G01 X42.9307 Y4.8530
G01 X42.9345 Y4.8581
G01 X42.9378 Y4.8635
G01 X42.9405 Y4.8693
G01 X42.9426 Y4.8753
G01 X42.9442 Y4.8814
G01 X42.9451 Y4.8877
G01 X42.9454 Y4.8940
G01 X42.9451 Y4.9004
G01 X42.9442 Y4.9067
G01 X42.9426 Y4.9128
G01 X42.9405 Y4.9188
G01 X42.9378 Y4.9246
G01 X42.9345 Y4.9300
G01 X42.9307 Y4.9351
G01 X42.9264 Y4.9398
G01 X42.9217 Y4.9441
G01 X42.9166 Y4.9479
G01 X42.9112 Y4.9511
G01 X42.9055 Y4.9538
G01 X42.8995 Y4.9560
G01 X42.8933 Y4.9575
G01 X42.8870 Y4.9585
G01 X42.8786 Y4.9589
G01 X41.6891 Y4.9591
G01 X41.6808 Y4.9601
G01 X41.6747 Y4.9614
G01 X41.6667 Y4.9639
G01 X41.6589 Y4.9671
G01 X41.6516 Y4.9710
G01 X41.6463 Y4.9744
G01 X41.6397 Y4.9796
G01 X41.6336 Y4.9853
G01 X41.6282 Y4.9917
G01 X41.6245 Y4.9968
G01 X41.6212 Y5.0021
G01 X41.6174 Y5.0096
G01 X41.6144 Y5.0174
G01 X41.6122 Y5.0254
G01 X41.6111 Y5.0316
G01 X41.6102 Y5.0399
G01 X41.6102 Y5.0483
G01 X41.6111 Y5.0566
G01 X41.6127 Y5.0648
G01 X41.6151 Y5.0728
G01 X41.6183 Y5.0806
G01 X41.6223 Y5.0880
G01 X41.6282 Y5.0966
G01 X41.6336 Y5.1029
G01 X42.8061 Y6.2754
G01 X42.8115 Y6.2813
G01 X42.8151 Y6.2861
G01 X42.8182 Y6.2912
G01 X42.8209 Y6.2966
G01 X42.8238 Y6.3040
G01 X42.9415 Y6.6571
G01 X42.9439 Y6.6660
G01 X42.9450 Y6.6728
G01 X42.9455 Y6.6820
G01 X42.9455 Y6.9159
G01 X42.9451 Y6.9239
G01 X42.9443 Y6.9298
G01 X42.9429 Y6.9356
G01 X42.9410 Y6.9413
G01 X42.9378 Y6.9486
G01 X42.8206 Y7.1829
G01 X42.8161 Y7.1909
G01 X42.8120 Y7.1965
G01 X42.8059 Y7.2034
G01 X42.6900 Y7.3192
G01 X42.6832 Y7.3254
G01 X42.6776 Y7.3294
G01 X42.6695 Y7.3340
G01 X42.4353 Y7.4511
G01 X42.4280 Y7.4544
G01 X42.4223 Y7.4563
G01 X42.4164 Y7.4577
G01 X42.4105 Y7.4585
G01 X42.4025 Y7.4589
G01 X41.8112 Y7.4589
G01 X41.8033 Y7.4585
G01 X41.7973 Y7.4577
G01 X41.7915 Y7.4563
G01 X41.7858 Y7.4544
G01 X41.7785 Y7.4511
G01 X41.5442 Y7.3340
G01 X41.5362 Y7.3294
G01 X41.5306 Y7.3254
G01 X41.5237 Y7.3192
G01 X41.4078 Y7.2033
G01 X41.4021 Y7.1970
G01 X41.3983 Y7.1919
G01 X41.3950 Y7.1865
G01 X41.3923 Y7.1807
G01 X41.3902 Y7.1747
G01 X41.3886 Y7.1686
G01 X41.3877 Y7.1623
G01 X41.3874 Y7.1560
G01 X41.3877 Y7.1496
G01 X41.3886 Y7.1433
G01 X41.3902 Y7.1372
G01 X41.3923 Y7.1312
G01 X41.3950 Y7.1254
G01 X41.3983 Y7.1200
G01 X41.4021 Y7.1149
G01 X41.4063 Y7.1102
G01 X41.4111 Y7.1059
G01 X41.4162 Y7.1021
G01 X41.4216 Y7.0989
G01 X41.4273 Y7.0962
G01 X41.4333 Y7.0940
G01 X41.4395 Y7.0925
G01 X41.4458 Y7.0915
G01 X41.4521 Y7.0912
G01 X41.4585 Y7.0915
G01 X41.4647 Y7.0925
G01 X41.4709 Y7.0940
G01 X41.4769 Y7.0962
G01 X41.4826 Y7.0989
G01 X41.4881 Y7.1021
G01 X41.4932 Y7.1059
G01 X41.4994 Y7.1116
G01 X41.5998 Y7.2119
G00 X41.5998 Y7.2119
G01 F60.00
G01 Z-0.1999
G01 F100.00
G01 X41.4994 Y7.1116
G01 X41.4932 Y7.1059
G01 X41.4881 Y7.1021
G01 X41.4826 Y7.0989
G01 X41.4769 Y7.0962
G01 X41.4709 Y7.0940
G01 X41.4647 Y7.0925
G01 X41.4585 Y7.0915
G01 X41.4521 Y7.0912
G01 X41.4458 Y7.0915
G01 X41.4395 Y7.0925
G01 X41.4333 Y7.0940
G01 X41.4273 Y7.0962
G01 X41.4216 Y7.0989
G01 X41.4162 Y7.1021
G01 X41.4111 Y7.1059
G01 X41.4063 Y7.1102
G01 X41.4021 Y7.1149
G01 X41.3983 Y7.1200
G01 X41.3950 Y7.1254
G01 X41.3923 Y7.1312
G01 X41.3902 Y7.1372
G01 X41.3886 Y7.1433
G01 X41.3877 Y7.1496
G01 X41.3874 Y7.1560
G01 X41.3877 Y7.1623
G01 X41.3886 Y7.1686
G01 X41.3902 Y7.1747
G01 X41.3923 Y7.1807
G01 X41.3950 Y7.1865
G01 X41.3983 Y7.1919
G01 X41.4021 Y7.1970
G01 X41.4078 Y7.2033
G01 X41.5237 Y7.3192
G01 X41.5306 Y7.3254
G01 X41.5362 Y7.3294
G01 X41.5442 Y7.3340
G01 X41.7785 Y7.4511
G01 X41.7858 Y7.4544
G01 X41.7915 Y7.4563
G01 X41.7973 Y7.4577
G01 X41.8033 Y7.4585
G01 X41.8112 Y7.4589
G01 X42.4025 Y7.4589
G01 X42.4105 Y7.4585
G01 X42.4164 Y7.4577
G01 X42.4223 Y7.4563
G01 X42.4280 Y7.4544
G01 X42.4353 Y7.4511
G01 X42.6695 Y7.3340
G01 X42.6776 Y7.3294
G01 X42.6832 Y7.3254
G01 X42.6900 Y7.3192
G01 X42.8059 Y7.2034
G01 X42.8120 Y7.1965
G01 X42.8161 Y7.1909
G01 X42.8206 Y7.1829
G01 X42.9378 Y6.9486
G01 X42.9410 Y6.9413
G01 X42.9429 Y6.9356
G01 X42.9443 Y6.9298
G01 X42.9451 Y6.9239
G01 X42.9455 Y6.9159
G01 X42.9455 Y6.6820
G01 X42.9450 Y6.6728
G01 X42.9439 Y6.6660
G01 X42.9415 Y6.6571
G01 X42.8238 Y6.3040
G01 X42.8209 Y6.2966
G01 X42.8182 Y6.2912
G01 X42.8151 Y6.2861
G01 X42.8115 Y6.2813
G01 X42.8061 Y6.2754
G01 X41.6336 Y5.1029
G01 X41.6282 Y5.0966
G01 X41.6223 Y5.0880
G01 X41.6183 Y5.0806
G01 X41.6151 Y5.0728
G01 X41.6127 Y5.0648
G01 X41.6111 Y5.0566
G01 X41.6102 Y5.0483
G01 X41.6102 Y5.0399
G01 X41.6111 Y5.0316
G01 X41.6122 Y5.0254
G01 X41.6144 Y5.0174
G01 X41.6174 Y5.0096
G01 X41.6212 Y5.0021
G01 X41.6245 Y4.9968
G01 X41.6282 Y4.9917
G01 X41.6336 Y4.9853
G01 X41.6397 Y4.9796
G01 X41.6463 Y4.9744
G01 X41.6516 Y4.9710
G01 X41.6589 Y4.9671
G01 X41.6667 Y4.9639
G01 X41.6747 Y4.9614
G01 X41.6808 Y4.9601
G01 X41.6891 Y4.9591
G01 X42.8786 Y4.9589
G01 X42.8870 Y4.9585
G01 X42.8933 Y4.9575
G01 X42.8995 Y4.9560
G01 X42.9055 Y4.9538
G01 X42.9112 Y4.9511
G01 X42.9166 Y4.9479
G01 X42.9217 Y4.9441
G01 X42.9264 Y4.9398
G01 X42.9307 Y4.9351
G01 X42.9345 Y4.9300
G01 X42.9378 Y4.9246
G01 X42.9405 Y4.9188
G01 X42.9426 Y4.9128
G01 X42.9442 Y4.9067
G01 X42.9451 Y4.9004
G01 X42.9454 Y4.8940
G01 X42.9451 Y4.8877
G01 X42.9442 Y4.8814
G01 X42.9426 Y4.8753
G01 X42.9405 Y4.8693
G01 X42.9378 Y4.8635
G01 X42.9345 Y4.8581
G01 X42.9307 Y4.8530
G01 X42.9264 Y4.8483
G01 X42.9217 Y4.8440
G01 X42.9166 Y4.8402
G01 X42.9112 Y4.8370
G01 X42.9055 Y4.8343
G01 X42.8995 Y4.8321
G01 X42.8933 Y4.8306
G01 X42.8870 Y4.8296
G01 X42.8786 Y4.8292
G01 X41.3352 Y4.8292
G01 X41.3267 Y4.8296
G01 X41.3204 Y4.8306
G01 X41.3143 Y4.8321
G01 X41.3083 Y4.8343
G01 X41.3026 Y4.8370
G01 X41.2971 Y4.8402
G01 X41.2920 Y4.8440
G01 X41.2873 Y4.8483
G01 X41.2830 Y4.8530
G01 X41.2793 Y4.8581
G01 X41.2760 Y4.8635
G01 X41.2733 Y4.8693
G01 X41.2711 Y4.8753
G01 X41.2696 Y4.8814
G01 X41.2687 Y4.8877
G01 X41.2683 Y4.8940
G01 X41.2687 Y4.9004
G01 X41.2696 Y4.9067
G01 X41.2711 Y4.9128
G01 X41.2733 Y4.9188
G01 X41.2760 Y4.9246
G01 X41.2793 Y4.9300
G01 X41.2830 Y4.9351
G01 X41.2887 Y4.9414
G01 X42.6907 Y6.3434
G01 X42.6961 Y6.3492
G01 X42.7008 Y6.3556
G01 X42.7050 Y6.3623
G01 X42.7085 Y6.3694
G01 X42.7107 Y6.3749
G01 X42.8115 Y6.6772
G01 X42.8139 Y6.6860
G01 X42.8151 Y6.6927
G01 X42.8159 Y6.7041
G01 X42.8159 Y6.8824
G01 X42.8150 Y6.8942
G01 X42.8131 Y6.9039
G01 X42.8108 Y6.9115
G01 X42.8069 Y6.9206
G01 X42.7145 Y7.1052
G01 X42.7100 Y7.1131
G01 X42.7047 Y7.1205
G01 X42.6986 Y7.1273
G01 X42.6140 Y7.2119
G01 X42.6072 Y7.2180
G01 X42.6017 Y7.2221
G01 X42.5918 Y7.2279
G01 X42.4018 Y7.3227
G01 X42.3944 Y7.3254
G01 X42.3867 Y7.3274
G01 X42.3770 Y7.3289
G01 X42.3691 Y7.3292
G01 X41.8447 Y7.3292
G01 X41.8329 Y7.3284
G01 X41.8251 Y7.3269
G01 X41.8194 Y7.3254
G01 X41.8119 Y7.3227
G01 X41.8066 Y7.3202
G01 X41.6199 Y7.2269
G01 X41.6102 Y7.2208
G01 X41.6048 Y7.2166
G01 X41.5998 Y7.2119
G00 Z2.0000
G00 X39.8691 Y7.3292
G01 F60.00
G01 Z-0.1000
G01 F100.00
G01 X39.8789 Y7.3287
G01 X39.8887 Y7.3269
G01 X39.8963 Y7.3248
G01 X39.9054 Y7.3211
G01 X40.0918 Y7.2279
G01 X40.0998 Y7.2234
G01 X40.1054 Y7.2195
G01 X40.1123 Y7.2135
G01 X40.1986 Y7.1273
G01 X40.2047 Y7.1205
G01 X40.2100 Y7.1131
G01 X40.2145 Y7.1052
G01 X40.3153 Y6.9036
G01 X40.3198 Y6.8929
G01 X40.3218 Y6.8862
G01 X40.4324 Y6.4439
G01 X40.4345 Y6.4310
G01 X40.4349 Y6.4232
G01 X40.4349 Y5.8649
G01 X40.4343 Y5.8545
G01 X40.4324 Y5.8442
G01 X40.3218 Y5.4019
G01 X40.3198 Y5.3952
G01 X40.3173 Y5.3887
G01 X40.2145 Y5.1829
G01 X40.2100 Y5.1750
G01 X40.2047 Y5.1676
G01 X40.1986 Y5.1608
G01 X40.1140 Y5.0762
G01 X40.1072 Y5.0700
G01 X40.0998 Y5.0647
G01 X40.0918 Y5.0602
G01 X39.9072 Y4.9679
G01 X39.9000 Y4.9647
G01 X39.8925 Y4.9622
G01 X39.8828 Y4.9600
G01 X39.8710 Y4.9589
G01 X39.7018 Y4.9589
G01 X39.6920 Y4.9594
G01 X39.6842 Y4.9607
G01 X39.6746 Y4.9633
G01 X39.6655 Y4.9670
G01 X39.4791 Y5.0602
G01 X39.4711 Y5.0647
G01 X39.4637 Y5.0700
G01 X39.4569 Y5.0762
G01 X39.3723 Y5.1608
G01 X39.3662 Y5.1676
G01 X39.3609 Y5.1750
G01 X39.3563 Y5.1829
G01 X39.2556 Y5.3845
G01 X39.2527 Y5.3909
G01 X39.2491 Y5.4019
G01 X39.1385 Y5.8442
G01 X39.1363 Y5.8571
G01 X39.1360 Y5.8649
G01 X39.1360 Y6.4232
G01 X39.1366 Y6.4336
G01 X39.1385 Y6.4439
G01 X39.2491 Y6.8862
G01 X39.2519 Y6.8951
G01 X39.2556 Y6.9036
G01 X39.3563 Y7.1052
G01 X39.3621 Y7.1150
G01 X39.3662 Y7.1205
G01 X39.3723 Y7.1273
G01 X39.4569 Y7.2119
G01 X39.4637 Y7.2180
G01 X39.4692 Y7.2221
G01 X39.4791 Y7.2279
G01 X39.6637 Y7.3202
G01 X39.6709 Y7.3234
G01 X39.6803 Y7.3265
G01 X39.6900 Y7.3284
G01 X39.6999 Y7.3292
G01 X39.8691 Y7.3292
G01 X39.6653 Y7.4587
G01 X39.6605 Y7.4585
G01 X39.6542 Y7.4576
G01 X39.6489 Y7.4564
G01 X39.6429 Y7.4544
G01 X39.6355 Y7.4511
G01 X39.4014 Y7.3340
G01 X39.3933 Y7.3294
G01 X39.3877 Y7.3254
G01 X39.3808 Y7.3192
G01 X39.2650 Y7.2034
G01 X39.2589 Y7.1965
G01 X39.2548 Y7.1909
G01 X39.2503 Y7.1829
G01 X39.1333 Y6.9489
G01 X39.1295 Y6.9403
G01 X39.1268 Y6.9313
G01 X39.0089 Y6.4599
G01 X39.0070 Y6.4496
G01 X39.0063 Y6.4391
G01 X39.0063 Y5.8490
G01 X39.0070 Y5.8385
G01 X39.0089 Y5.8282
G01 X39.1268 Y5.3568
G01 X39.1295 Y5.3478
G01 X39.1333 Y5.3392
G01 X39.2503 Y5.1052
G01 X39.2548 Y5.0972
G01 X39.2589 Y5.0916
G01 X39.2650 Y5.0847
G01 X39.3808 Y4.9689
G01 X39.3877 Y4.9627
G01 X39.3933 Y4.9587
G01 X39.4014 Y4.9541
G01 X39.6356 Y4.8370
G01 X39.6429 Y4.8337
G01 X39.6486 Y4.8318
G01 X39.6545 Y4.8304
G01 X39.6604 Y4.8296
G01 X39.6684 Y4.8292
G01 X39.9025 Y4.8292
G01 X39.9105 Y4.8296
G01 X39.9164 Y4.8304
G01 X39.9223 Y4.8318
G01 X39.9280 Y4.8337
G01 X39.9353 Y4.8370
G01 X40.1695 Y4.9541
G01 X40.1776 Y4.9587
G01 X40.1832 Y4.9627
G01 X40.1900 Y4.9689
G01 X40.3059 Y5.0847
G01 X40.3120 Y5.0916
G01 X40.3161 Y5.0972
G01 X40.3206 Y5.1052
G01 X40.4376 Y5.3392
G01 X40.4414 Y5.3478
G01 X40.4441 Y5.3568
G01 X40.5620 Y5.8282
G01 X40.5639 Y5.8385
G01 X40.5646 Y5.8490
G01 X40.5646 Y6.4391
G01 X40.5639 Y6.4496
G01 X40.5620 Y6.4599
G01 X40.4441 Y6.9313
G01 X40.4414 Y6.9403
G01 X40.4376 Y6.9489
G01 X40.3206 Y7.1829
G01 X40.3161 Y7.1909
G01 X40.3120 Y7.1965
G01 X40.3059 Y7.2034
G01 X40.1900 Y7.3192
G01 X40.1832 Y7.3254
G01 X40.1776 Y7.3294
G01 X40.1695 Y7.3340
G01 X39.9353 Y7.4511
G01 X39.9280 Y7.4544
G01 X39.9223 Y7.4563
G01 X39.9164 Y7.4577
G01 X39.9105 Y7.4585
G01 X39.9025 Y7.4589
G01 X39.6653 Y7.4587
G00 X39.6653 Y7.4587
G01 F60.00
G01 Z-0.1999
G01 F100.00
G01 X39.9025 Y7.4589
G01 X39.9105 Y7.4585
G01 X39.9164 Y7.4577
G01 X39.9223 Y7.4563
G01 X39.9280 Y7.4544
G01 X39.9353 Y7.4511
G01 X40.1695 Y7.3340
G01 X40.1776 Y7.3294
G01 X40.1832 Y7.3254
G01 X40.1900 Y7.3192
G01 X40.3059 Y7.2034
G01 X40.3120 Y7.1965
G01 X40.3161 Y7.1909
G01 X40.3206 Y7.1829
G01 X40.4376 Y6.9489
G01 X40.4414 Y6.9403
G01 X40.4441 Y6.9313
G01 X40.5620 Y6.4599
G01 X40.5639 Y6.4496
G01 X40.5646 Y6.4391
G01 X40.5646 Y5.8490
G01 X40.5639 Y5.8385
G01 X40.5620 Y5.8282
G01 X40.4441 Y5.3568
G01 X40.4414 Y5.3478
G01 X40.4376 Y5.3392
G01 X40.3206 Y5.1052
G01 X40.3161 Y5.0972
G01 X40.3120 Y5.0916
G01 X40.3059 Y5.0847
G01 X40.1900 Y4.9689
G01 X40.1832 Y4.9627
G01 X40.1776 Y4.9587
G01 X40.1695 Y4.9541
G01 X39.9353 Y4.8370
G01 X39.9280 Y4.8337
G01 X39.9223 Y4.8318
G01 X39.9164 Y4.8304
G01 X39.9105 Y4.8296
G01 X39.9025 Y4.8292
G01 X39.6684 Y4.8292
G01 X39.6604 Y4.8296
G01 X39.6545 Y4.8304
G01 X39.6486 Y4.8318
G01 X39.6429 Y4.8337
G01 X39.6356 Y4.8370
G01 X39.4014 Y4.9541
G01 X39.3933 Y4.9587
G01 X39.3877 Y4.9627
G01 X39.3808 Y4.9689
G01 X39.2650 Y5.0847
G01 X39.2589 Y5.0916
G01 X39.2548 Y5.0972
G01 X39.2503 Y5.1052
G01 X39.1333 Y5.3392
G01 X39.1295 Y5.3478
G01 X39.1268 Y5.3568
G01 X39.0089 Y5.8282
G01 X39.0070 Y5.8385
G01 X39.0063 Y5.8490
G01 X39.0063 Y6.4391
G01 X39.0070 Y6.4496
G01 X39.0089 Y6.4599
G01 X39.1268 Y6.9313
G01 X39.1295 Y6.9403
G01 X39.1333 Y6.9489
G01 X39.2503 Y7.1829
G01 X39.2548 Y7.1909
G01 X39.2589 Y7.1965
G01 X39.2650 Y7.2034
G01 X39.3808 Y7.3192
G01 X39.3877 Y7.3254
G01 X39.3933 Y7.3294
G01 X39.4014 Y7.3340
G01 X39.6355 Y7.4511
G01 X39.6429 Y7.4544
G01 X39.6489 Y7.4564
G01 X39.6542 Y7.4576
G01 X39.6605 Y7.4585
G01 X39.6653 Y7.4587
G01 X39.8691 Y7.3292
G01 X39.6999 Y7.3292
G01 X39.6900 Y7.3284
G01 X39.6803 Y7.3265
G01 X39.6709 Y7.3234
G01 X39.6637 Y7.3202
G01 X39.4791 Y7.2279
G01 X39.4692 Y7.2221
G01 X39.4637 Y7.2180
G01 X39.4569 Y7.2119
G01 X39.3723 Y7.1273
G01 X39.3662 Y7.1205
G01 X39.3621 Y7.1150
G01 X39.3563 Y7.1052
G01 X39.2556 Y6.9036
G01 X39.2519 Y6.8951
G01 X39.2491 Y6.8862
G01 X39.1385 Y6.4439
G01 X39.1366 Y6.4336
G01 X39.1360 Y6.4232
G01 X39.1360 Y5.8649
G01 X39.1363 Y5.8571
G01 X39.1385 Y5.8442
G01 X39.2491 Y5.4019
G01 X39.2527 Y5.3909
G01 X39.2556 Y5.3845
G01 X39.3563 Y5.1829
G01 X39.3609 Y5.1750
G01 X39.3662 Y5.1676
G01 X39.3723 Y5.1608
G01 X39.4569 Y5.0762
G01 X39.4637 Y5.0700
G01 X39.4711 Y5.0647
G01 X39.4791 Y5.0602
G01 X39.6655 Y4.9670
G01 X39.6746 Y4.9633
G01 X39.6842 Y4.9607
G01 X39.6920 Y4.9594
G01 X39.7018 Y4.9589
G01 X39.8710 Y4.9589
G01 X39.8828 Y4.9600
G01 X39.8925 Y4.9622
G01 X39.9000 Y4.9647
G01 X39.9072 Y4.9679
G01 X40.0918 Y5.0602
G01 X40.0998 Y5.0647
G01 X40.1072 Y5.0700
G01 X40.1140 Y5.0762
G01 X40.1986 Y5.1608
G01 X40.2047 Y5.1676
G01 X40.2100 Y5.1750
G01 X40.2145 Y5.1829
G01 X40.3173 Y5.3887
G01 X40.3198 Y5.3952
G01 X40.3218 Y5.4019
G01 X40.4324 Y5.8442
G01 X40.4343 Y5.8545
G01 X40.4349 Y5.8649
G01 X40.4349 Y6.4232
G01 X40.4345 Y6.4310
G01 X40.4324 Y6.4439
G01 X40.3218 Y6.8862
G01 X40.3198 Y6.8929
G01 X40.3153 Y6.9036
G01 X40.2145 Y7.1052
G01 X40.2100 Y7.1131
G01 X40.2047 Y7.1205
G01 X40.1986 Y7.1273
G01 X40.1123 Y7.2135
G01 X40.1054 Y7.2195
G01 X40.0998 Y7.2234
G01 X40.0918 Y7.2279
G01 X39.9054 Y7.3211
G01 X39.8963 Y7.3248
G01 X39.8887 Y7.3269
G01 X39.8789 Y7.3287
G01 X39.8691 Y7.3292
G00 Z2.0000
G00 X36.8379 Y7.2119
G01 F60.00
G01 Z-0.1000
G01 F100.00
G01 X36.8429 Y7.2166
G01 X36.8483 Y7.2208
G01 X36.8580 Y7.2269
G01 X37.0447 Y7.3202
G01 X37.0500 Y7.3227
G01 X37.0575 Y7.3254
G01 X37.0632 Y7.3269
G01 X37.0710 Y7.3284
G01 X37.0828 Y7.3292
G01 X37.6072 Y7.3292
G01 X37.6151 Y7.3289
G01 X37.6248 Y7.3274
G01 X37.6325 Y7.3254
G01 X37.6399 Y7.3227
G01 X37.8299 Y7.2279
G01 X37.8398 Y7.2221
G01 X37.8453 Y7.2180
G01 X37.8521 Y7.2119
G01 X37.9367 Y7.1273
G01 X37.9428 Y7.1205
G01 X37.9481 Y7.1131
G01 X37.9526 Y7.1052
G01 X38.0450 Y6.9206
G01 X38.0482 Y6.9133
G01 X38.0512 Y6.9039
G01 X38.0531 Y6.8942
G01 X38.0540 Y6.8824
G01 X38.0540 Y6.7041
G01 X38.0532 Y6.6927
G01 X38.0520 Y6.6860
G01 X38.0496 Y6.6772
G01 X37.9488 Y6.3749
G01 X37.9458 Y6.3676
G01 X37.9421 Y6.3606
G01 X37.9378 Y6.3539
G01 X37.9342 Y6.3492
G01 X37.9288 Y6.3434
G01 X36.5268 Y4.9414
G01 X36.5211 Y4.9351
G01 X36.5173 Y4.9300
G01 X36.5141 Y4.9246
G01 X36.5114 Y4.9188
G01 X36.5092 Y4.9128
G01 X36.5077 Y4.9067
G01 X36.5068 Y4.9004
G01 X36.5064 Y4.8940
G01 X36.5068 Y4.8877
G01 X36.5077 Y4.8814
G01 X36.5092 Y4.8753
G01 X36.5114 Y4.8693
G01 X36.5141 Y4.8635
G01 X36.5173 Y4.8581
G01 X36.5211 Y4.8530
G01 X36.5254 Y4.8483
G01 X36.5301 Y4.8440
G01 X36.5352 Y4.8402
G01 X36.5407 Y4.8370
G01 X36.5464 Y4.8343
G01 X36.5524 Y4.8321
G01 X36.5585 Y4.8306
G01 X36.5648 Y4.8296
G01 X36.5733 Y4.8292
G01 X38.1167 Y4.8292
G01 X38.1251 Y4.8296
G01 X38.1314 Y4.8306
G01 X38.1376 Y4.8321
G01 X38.1435 Y4.8343
G01 X38.1493 Y4.8370
G01 X38.1547 Y4.8402
G01 X38.1598 Y4.8440
G01 X38.1645 Y4.8483
G01 X38.1688 Y4.8530
G01 X38.1726 Y4.8581
G01 X38.1759 Y4.8635
G01 X38.1786 Y4.8693
G01 X38.1807 Y4.8753
G01 X38.1823 Y4.8814
G01 X38.1832 Y4.8877
G01 X38.1835 Y4.8940
G01 X38.1832 Y4.9004
G01 X38.1823 Y4.9067
G01 X38.1807 Y4.9128
G01 X38.1786 Y4.9188
G01 X38.1759 Y4.9246
G01 X38.1726 Y4.9300
G01 X38.1688 Y4.9351
G01 X38.1645 Y4.9398
G01 X38.1598 Y4.9441
G01 X38.1547 Y4.9479
G01 X38.1493 Y4.9511
G01 X38.1435 Y4.9538
G01 X38.1376 Y4.9560
G01 X38.1314 Y4.9575
G01 X38.1251 Y4.9585
G01 X38.1167 Y4.9589
G01 X36.9272 Y4.9591
G01 X36.9210 Y4.9598
G01 X36.9128 Y4.9614
G01 X36.9048 Y4.9639
G01 X36.8970 Y4.9671
G01 X36.8915 Y4.9699
G01 X36.8844 Y4.9744
G01 X36.8778 Y4.9796
G01 X36.8732 Y4.9838
G01 X36.8676 Y4.9900
G01 X36.8626 Y4.9968
G01 X36.8583 Y5.0039
G01 X36.8555 Y5.0096
G01 X36.8525 Y5.0174
G01 X36.8508 Y5.0234
G01 X36.8491 Y5.0316
G01 X36.8483 Y5.0399
G01 X36.8483 Y5.0483
G01 X36.8491 Y5.0566
G01 X36.8508 Y5.0648
G01 X36.8532 Y5.0728
G01 X36.8564 Y5.0806
G01 X36.8614 Y5.0897
G01 X36.8663 Y5.0966
G01 X36.8717 Y5.1029
G01 X38.0442 Y6.2754
G01 X38.0495 Y6.2813
G01 X38.0532 Y6.2861
G01 X38.0563 Y6.2912
G01 X38.0590 Y6.2966
G01 X38.0619 Y6.3040
G01 X38.1796 Y6.6571
G01 X38.1820 Y6.6660
G01 X38.1831 Y6.6728
G01 X38.1836 Y6.6820
G01 X38.1836 Y6.9159
G01 X38.1832 Y6.9239
G01 X38.1824 Y6.9298
G01 X38.1810 Y6.9356
G01 X38.1791 Y6.9413
G01 X38.1759 Y6.9486
G01 X38.0587 Y7.1829
G01 X38.0542 Y7.1909
G01 X38.0501 Y7.1965
G01 X38.0440 Y7.2034
G01 X37.9281 Y7.3192
G01 X37.9213 Y7.3254
G01 X37.9156 Y7.3294
G01 X37.9076 Y7.3340
G01 X37.6733 Y7.4511
G01 X37.6661 Y7.4544
G01 X37.6604 Y7.4563
G01 X37.6545 Y7.4577
G01 X37.6486 Y7.4585
G01 X37.6406 Y7.4589
G01 X37.0493 Y7.4589
G01 X37.0414 Y7.4585
G01 X37.0354 Y7.4577
G01 X37.0296 Y7.4563
G01 X37.0239 Y7.4544
G01 X37.0166 Y7.4511
G01 X36.7823 Y7.3340
G01 X36.7743 Y7.3294
G01 X36.7687 Y7.3254
G01 X36.7618 Y7.3192
G01 X36.6458 Y7.2033
G01 X36.6402 Y7.1970
G01 X36.6364 Y7.1919
G01 X36.6331 Y7.1865
G01 X36.6304 Y7.1807
G01 X36.6283 Y7.1747
G01 X36.6267 Y7.1686
G01 X36.6258 Y7.1623
G01 X36.6255 Y7.1560
G01 X36.6258 Y7.1496
G01 X36.6267 Y7.1433
G01 X36.6283 Y7.1372
G01 X36.6304 Y7.1312
G01 X36.6331 Y7.1254
G01 X36.6364 Y7.1200
G01 X36.6402 Y7.1149
G01 X36.6444 Y7.1102
G01 X36.6491 Y7.1059
G01 X36.6542 Y7.1021
G01 X36.6597 Y7.0989
G01 X36.6654 Y7.0962
G01 X36.6714 Y7.0940
G01 X36.6776 Y7.0925
G01 X36.6839 Y7.0915
G01 X36.6902 Y7.0912
G01 X36.6966 Y7.0915
G01 X36.7028 Y7.0925
G01 X36.7090 Y7.0940
G01 X36.7150 Y7.0962
G01 X36.7207 Y7.0989
G01 X36.7262 Y7.1021
G01 X36.7313 Y7.1059
G01 X36.7375 Y7.1116
G01 X36.8379 Y7.2119
G00 X36.8379 Y7.2119
G01 F60.00
G01 Z-0.1999
G01 F100.00
G01 X36.7375 Y7.1116
G01 X36.7313 Y7.1059
G01 X36.7262 Y7.1021
G01 X36.7207 Y7.0989
G01 X36.7150 Y7.0962
G01 X36.7090 Y7.0940
G01 X36.7028 Y7.0925
G01 X36.6966 Y7.0915
G01 X36.6902 Y7.0912
G01 X36.6839 Y7.0915
G01 X36.6776 Y7.0925
G01 X36.6714 Y7.0940
G01 X36.6654 Y7.0962
G01 X36.6597 Y7.0989
G01 X36.6542 Y7.1021
G01 X36.6491 Y7.1059
G01 X36.6444 Y7.1102
G01 X36.6402 Y7.1149
G01 X36.6364 Y7.1200
G01 X36.6331 Y7.1254
G01 X36.6304 Y7.1312
G01 X36.6283 Y7.1372
G01 X36.6267 Y7.1433
G01 X36.6258 Y7.1496
G01 X36.6255 Y7.1560
G01 X36.6258 Y7.1623
G01 X36.6267 Y7.1686
G01 X36.6283 Y7.1747
G01 X36.6304 Y7.1807
G01 X36.6331 Y7.1865
G01 X36.6364 Y7.1919
G01 X36.6402 Y7.1970
G01 X36.6458 Y7.2033
G01 X36.7618 Y7.3192
G01 X36.7687 Y7.3254
G01 X36.7743 Y7.3294
G01 X36.7823 Y7.3340
G01 X37.0166 Y7.4511
G01 X37.0239 Y7.4544
G01 X37.0296 Y7.4563
G01 X37.0354 Y7.4577
G01 X37.0414 Y7.4585
G01 X37.0493 Y7.4589
G01 X37.6406 Y7.4589
G01 X37.6486 Y7.4585
G01 X37.6545 Y7.4577
G01 X37.6604 Y7.4563
G01 X37.6661 Y7.4544
G01 X37.6733 Y7.4511
G01 X37.9076 Y7.3340
G01 X37.9156 Y7.3294
G01 X37.9213 Y7.3254
G01 X37.9281 Y7.3192
G01 X38.0440 Y7.2034
G01 X38.0501 Y7.1965
G01 X38.0542 Y7.1909
G01 X38.0587 Y7.1829
G01 X38.1759 Y6.9486
G01 X38.1791 Y6.9413
G01 X38.1810 Y6.9356
G01 X38.1824 Y6.9298
G01 X38.1832 Y6.9239
G01 X38.1836 Y6.9159
G01 X38.1836 Y6.6820
G01 X38.1831 Y6.6728
G01 X38.1820 Y6.6660
G01 X38.1796 Y6.6571
G01 X38.0619 Y6.3040
G01 X38.0590 Y6.2966
G01 X38.0563 Y6.2912
G01 X38.0532 Y6.2861
G01 X38.0495 Y6.2813
G01 X38.0442 Y6.2754
G01 X36.8717 Y5.1029
G01 X36.8663 Y5.0966
G01 X36.8614 Y5.0897
G01 X36.8564 Y5.0806
G01 X36.8532 Y5.0728
G01 X36.8508 Y5.0648
G01 X36.8491 Y5.0566
G01 X36.8483 Y5.0483
G01 X36.8483 Y5.0399
G01 X36.8491 Y5.0316
G01 X36.8508 Y5.0234
G01 X36.8525 Y5.0174
G01 X36.8555 Y5.0096
G01 X36.8583 Y5.0039
G01 X36.8626 Y4.9968
G01 X36.8676 Y4.9900
G01 X36.8732 Y4.9838
G01 X36.8778 Y4.9796
G01 X36.8844 Y4.9744
G01 X36.8915 Y4.9699
G01 X36.8970 Y4.9671
G01 X36.9048 Y4.9639
G01 X36.9128 Y4.9614
G01 X36.9210 Y4.9598
G01 X36.9272 Y4.9591
G01 X38.1167 Y4.9589
G01 X38.1251 Y4.9585
G01 X38.1314 Y4.9575
G01 X38.1376 Y4.9560
G01 X38.1435 Y4.9538
G01 X38.1493 Y4.9511
G01 X38.1547 Y4.9479
G01 X38.1598 Y4.9441
G01 X38.1645 Y4.9398
G01 X38.1688 Y4.9351
G01 X38.1726 Y4.9300
G01 X38.1759 Y4.9246
G01 X38.1786 Y4.9188
G01 X38.1807 Y4.9128
G01 X38.1823 Y4.9067
G01 X38.1832 Y4.9004
G01 X38.1835 Y4.8940
G01 X38.1832 Y4.8877
G01 X38.1823 Y4.8814
G01 X38.1807 Y4.8753
G01 X38.1786 Y4.8693
G01 X38.1759 Y4.8635
G01 X38.1726 Y4.8581
G01 X38.1688 Y4.8530
G01 X38.1645 Y4.8483
G01 X38.1598 Y4.8440
G01 X38.1547 Y4.8402
G01 X38.1493 Y4.8370
G01 X38.1435 Y4.8343
G01 X38.1376 Y4.8321
G01 X38.1314 Y4.8306
G01 X38.1251 Y4.8296
G01 X38.1167 Y4.8292
G01 X36.5733 Y4.8292
G01 X36.5648 Y4.8296
G01 X36.5585 Y4.8306
G01 X36.5524 Y4.8321
G01 X36.5464 Y4.8343
G01 X36.5407 Y4.8370
G01 X36.5352 Y4.8402
G01 X36.5301 Y4.8440
G01 X36.5254 Y4.8483
G01 X36.5211 Y4.8530
G01 X36.5173 Y4.8581
G01 X36.5141 Y4.8635
G01 X36.5114 Y4.8693
G01 X36.5092 Y4.8753
G01 X36.5077 Y4.8814
G01 X36.5068 Y4.8877
G01 X36.5064 Y4.8940
G01 X36.5068 Y4.9004
G01 X36.5077 Y4.9067
G01 X36.5092 Y4.9128
G01 X36.5114 Y4.9188
G01 X36.5141 Y4.9246
G01 X36.5173 Y4.9300
