(G-CODE GENERATED BY FLATCAM v8.994 - www.flatcam.org - Version Date: 2020/11/7)

(Name: copper_back_cnc)
(Type: G-code from Geometry)
(Units: MM)

(Created on Friday, 12 February 2021 at 22:58)

(This preprocessor is the default preprocessor used by FlatCAM.)
(It is made to work with MACH3 compatible motion controllers.)

(TOOL DIAMETER: 0.6 mm)
(Feedrate_XY: 100.0 mm/min)
(Feedrate_Z: 60.0 mm/min)
(Feedrate rapids 150.0 mm/min)

(Z_Cut: -0.15 mm)
(Z_Move: 2.0 mm)
(Z Start: None mm)
(Z End: 20.0 mm)
(X,Y End: None mm)
(Steps per circle: 64)
(Preprocessor Geometry: default)

(X range:    0.4749 ...   67.5251  mm)
(Y range:    0.4749 ...   63.5251  mm)

(Spindle Speed: 12000.0 RPM)
G21
G90
G94

G01 F100.00

M5
G00 Z20.0000
G00 X0.0000 Y0.0000
T1
M6    
(MSG, Change to Tool Dia = 0.6000)
M0
G00 Z20.0000

M03 S12000.0
G01 F100.00
G00 X6.7397 Y12.8254
G01 F60.00
G01 Z-0.1500
G01 F100.00
G01 X6.7268 Y12.8132
G01 X6.7167 Y12.8025
G01 X6.6607 Y12.7407
G01 X6.6510 Y12.7296
G01 X6.6420 Y12.7179
G01 X6.5923 Y12.6509
G01 X6.5838 Y12.6389
G01 X6.5759 Y12.6265
G01 X6.5330 Y12.5549
G01 X6.5258 Y12.5421
G01 X6.5192 Y12.5290
G01 X6.4835 Y12.4535
G01 X6.4775 Y12.4401
G01 X6.4722 Y12.4263
G01 X6.4441 Y12.3478
G01 X6.4395 Y12.3338
G01 X6.4356 Y12.3196
G01 X6.4153 Y12.2387
G01 X6.4121 Y12.2244
G01 X6.4096 Y12.2098
G01 X6.3973 Y12.1273
G01 X6.3955 Y12.1127
G01 X6.3945 Y12.0980
G01 X6.3904 Y12.0147
G01 X6.3900 Y12.0000
G01 X6.3904 Y11.9853
G01 X6.3945 Y11.9020
G01 X6.3955 Y11.8873
G01 X6.3973 Y11.8727
G01 X6.4096 Y11.7902
G01 X6.4121 Y11.7756
G01 X6.4153 Y11.7613
G01 X6.4356 Y11.6804
G01 X6.4395 Y11.6662
G01 X6.4441 Y11.6522
G01 X6.4722 Y11.5737
G01 X6.4775 Y11.5599
G01 X6.4835 Y11.5465
G01 X6.5192 Y11.4710
G01 X6.5258 Y11.4579
G01 X6.5330 Y11.4451
G01 X6.5759 Y11.3735
G01 X6.5838 Y11.3611
G01 X6.5923 Y11.3491
G01 X6.6420 Y11.2821
G01 X6.6510 Y11.2704
G01 X6.6607 Y11.2593
G01 X6.7167 Y11.1975
G01 X6.7268 Y11.1868
G01 X6.7375 Y11.1767
G01 X6.7993 Y11.1207
G01 X6.8104 Y11.1110
G01 X6.8221 Y11.1020
G01 X6.8891 Y11.0523
G01 X6.9011 Y11.0438
G01 X6.9135 Y11.0359
G01 X6.9851 Y10.9930
G01 X6.9979 Y10.9858
G01 X7.0110 Y10.9792
G01 X7.0865 Y10.9435
G01 X7.0999 Y10.9375
G01 X7.1137 Y10.9322
G01 X7.1922 Y10.9041
G01 X7.2062 Y10.8995
G01 X7.2204 Y10.8956
G01 X7.3013 Y10.8753
G01 X7.3156 Y10.8721
G01 X7.3302 Y10.8696
G01 X7.4127 Y10.8573
G01 X7.4273 Y10.8555
G01 X7.4420 Y10.8545
G01 X7.5253 Y10.8504
G01 X7.5400 Y10.8500
G01 X7.5547 Y10.8504
G01 X7.6380 Y10.8545
G01 X7.6527 Y10.8555
G01 X7.6673 Y10.8573
G01 X7.7498 Y10.8696
G01 X7.7644 Y10.8721
G01 X7.7787 Y10.8753
G01 X7.8596 Y10.8956
G01 X7.8738 Y10.8995
G01 X7.8878 Y10.9041
G01 X7.9663 Y10.9322
G01 X7.9801 Y10.9375
G01 X7.9935 Y10.9435
G01 X8.0690 Y10.9792
G01 X8.0821 Y10.9858
G01 X8.0949 Y10.9930
G01 X8.1665 Y11.0359
G01 X8.1789 Y11.0438
G01 X8.1909 Y11.0523
G01 X8.2579 Y11.1020
G01 X8.2696 Y11.1110
G01 X8.2807 Y11.1207
G01 X8.3479 Y11.1817
G01 X8.3633 Y11.1975
G01 X8.4193 Y11.2593
G01 X8.4290 Y11.2704
G01 X8.4380 Y11.2821
G01 X8.4877 Y11.3491
G01 X8.4962 Y11.3611
G01 X8.5041 Y11.3735
G01 X8.5470 Y11.4451
G01 X8.5542 Y11.4579
G01 X8.5608 Y11.4710
G01 X8.5965 Y11.5465
G01 X8.6025 Y11.5599
G01 X8.6078 Y11.5737
G01 X8.6359 Y11.6522
G01 X8.6405 Y11.6662
G01 X8.6444 Y11.6804
G01 X8.6647 Y11.7613
G01 X8.6679 Y11.7756
G01 X8.6704 Y11.7902
G01 X8.6827 Y11.8727
G01 X8.6845 Y11.8873
G01 X8.6855 Y11.9020
G01 X8.6896 Y11.9853
G01 X8.6900 Y12.0000
G01 X8.6896 Y12.0147
G01 X8.6855 Y12.0980
G01 X8.6845 Y12.1127
G01 X8.6827 Y12.1273
G01 X8.6704 Y12.2098
G01 X8.6679 Y12.2244
G01 X8.6647 Y12.2387
G01 X8.6444 Y12.3196
G01 X8.6405 Y12.3338
G01 X8.6359 Y12.3478
G01 X8.6078 Y12.4263
G01 X8.6025 Y12.4401
G01 X8.5965 Y12.4535
G01 X8.5608 Y12.5290
G01 X8.5542 Y12.5421
G01 X8.5470 Y12.5549
G01 X8.5041 Y12.6265
G01 X8.4962 Y12.6389
G01 X8.4877 Y12.6509
G01 X8.4380 Y12.7179
G01 X8.4290 Y12.7296
G01 X8.4193 Y12.7407
G01 X8.3633 Y12.8025
G01 X8.3532 Y12.8132
G01 X8.3403 Y12.8254
G01 X8.3403 Y14.2085
G01 X11.3315 Y17.1997
G01 X27.0164 Y17.1997
G01 X27.0610 Y17.1593
G01 X27.0722 Y17.1497
G01 X27.0838 Y17.1406
G01 X27.1468 Y17.0939
G01 X27.1650 Y17.0814
G01 X27.2387 Y17.0371
G01 X27.2515 Y17.0299
G01 X27.2646 Y17.0233
G01 X27.3423 Y16.9866
G01 X27.3628 Y16.9784
G01 X27.4367 Y16.9520
G01 X27.4507 Y16.9474
G01 X27.4649 Y16.9434
G01 X27.5410 Y16.9244
G01 X27.5554 Y16.9211
G01 X27.5699 Y16.9186
G01 X27.6549 Y16.9061
G01 X27.6769 Y16.9042
G01 X27.7553 Y16.9004
G01 X27.7700 Y16.9000
G01 X27.7847 Y16.9004
G01 X27.8631 Y16.9042
G01 X27.8778 Y16.9053
G01 X27.8924 Y16.9071
G01 X27.9701 Y16.9186
G01 X27.9846 Y16.9211
G01 X27.9990 Y16.9244
G01 X28.0751 Y16.9434
G01 X28.0893 Y16.9474
G01 X28.1033 Y16.9520
G01 X28.1772 Y16.9784
G01 X28.1910 Y16.9837
G01 X28.2044 Y16.9897
G01 X28.2754 Y17.0233
G01 X28.2885 Y17.0299
G01 X28.3013 Y17.0371
G01 X28.3687 Y17.0775
G01 X28.3811 Y17.0854
G01 X28.3932 Y17.0939
G01 X28.4562 Y17.1406
G01 X28.4678 Y17.1497
G01 X28.4790 Y17.1593
G01 X28.5372 Y17.2120
G01 X28.5478 Y17.2222
G01 X28.5580 Y17.2328
G01 X28.6107 Y17.2910
G01 X28.6203 Y17.3022
G01 X28.6294 Y17.3138
G01 X28.6761 Y17.3768
G01 X28.6846 Y17.3889
G01 X28.6925 Y17.4013
G01 X28.7329 Y17.4687
G01 X28.7435 Y17.4880
G01 X28.7803 Y17.5656
G01 X28.7863 Y17.5790
G01 X28.7916 Y17.5928
G01 X28.8180 Y17.6667
G01 X28.8226 Y17.6807
G01 X28.8266 Y17.6949
G01 X28.8473 Y17.7782
G01 X28.8514 Y17.7999
G01 X28.8629 Y17.8776
G01 X28.8647 Y17.8922
G01 X28.8658 Y17.9069
G01 X28.8696 Y17.9853
G01 X28.8700 Y18.0000
G01 X28.8696 Y18.0147
G01 X28.8658 Y18.0931
G01 X28.8647 Y18.1078
G01 X28.8629 Y18.1224
G01 X28.8514 Y18.2001
G01 X28.8489 Y18.2146
G01 X28.8456 Y18.2290
G01 X28.8266 Y18.3051
G01 X28.8226 Y18.3193
G01 X28.8180 Y18.3333
G01 X28.7916 Y18.4072
G01 X28.7863 Y18.4210
G01 X28.7803 Y18.4344
G01 X28.7467 Y18.5054
G01 X28.7401 Y18.5185
G01 X28.7329 Y18.5313
G01 X28.6925 Y18.5987
G01 X28.6805 Y18.6172
G01 X28.6294 Y18.6862
G01 X28.6203 Y18.6978
G01 X28.6107 Y18.7090
G01 X28.5580 Y18.7672
G01 X28.5478 Y18.7778
G01 X28.5372 Y18.7880
G01 X28.4790 Y18.8407
G01 X28.4678 Y18.8503
G01 X28.4562 Y18.8594
G01 X28.3932 Y18.9061
G01 X28.3811 Y18.9146
G01 X28.3687 Y18.9225
G01 X28.3013 Y18.9629
G01 X28.2885 Y18.9701
G01 X28.2754 Y18.9767
G01 X28.1977 Y19.0134
G01 X28.1772 Y19.0216
G01 X28.1033 Y19.0480
G01 X28.0893 Y19.0526
G01 X28.0751 Y19.0566
G01 X27.9990 Y19.0756
G01 X27.9846 Y19.0789
G01 X27.9701 Y19.0814
G01 X27.8924 Y19.0929
G01 X27.8778 Y19.0947
G01 X27.8631 Y19.0958
G01 X27.7774 Y19.0999
G01 X27.7553 Y19.0996
G01 X27.6769 Y19.0958
G01 X27.6622 Y19.0947
G01 X27.6476 Y19.0929
G01 X27.5699 Y19.0814
G01 X27.5554 Y19.0789
G01 X27.5410 Y19.0756
G01 X27.4649 Y19.0566
G01 X27.4507 Y19.0526
G01 X27.4367 Y19.0480
G01 X27.3559 Y19.0190
G01 X27.3356 Y19.0103
G01 X27.2646 Y18.9767
G01 X27.2515 Y18.9701
G01 X27.2387 Y18.9629
G01 X27.1650 Y18.9186
G01 X27.1468 Y18.9061
G01 X27.0779 Y18.8549
G01 X27.0610 Y18.8407
G01 X27.0164 Y18.8003
G01 X11.0000 Y18.8003
G01 X10.9853 Y18.7999
G01 X10.9362 Y18.7975
G01 X10.9216 Y18.7964
G01 X10.9069 Y18.7946
G01 X10.8584 Y18.7874
G01 X10.8439 Y18.7849
G01 X10.8295 Y18.7816
G01 X10.7819 Y18.7697
G01 X10.7677 Y18.7658
G01 X10.7537 Y18.7612
G01 X10.7075 Y18.7446
G01 X10.6938 Y18.7393
G01 X10.6803 Y18.7334
G01 X10.6359 Y18.7124
G01 X10.6228 Y18.7058
G01 X10.6100 Y18.6985
G01 X10.5678 Y18.6733
G01 X10.5554 Y18.6654
G01 X10.5434 Y18.6569
G01 X10.5039 Y18.6277
G01 X10.4923 Y18.6186
G01 X10.4812 Y18.6090
G01 X10.4394 Y18.5710
G01 X6.9741 Y15.1059
G01 X6.9640 Y15.0952
G01 X6.9310 Y15.0588
G01 X6.9214 Y15.0477
G01 X6.9123 Y15.0361
G01 X6.8788 Y14.9907
G01 X6.8667 Y14.9722
G01 X6.8415 Y14.9300
G01 X6.8342 Y14.9172
G01 X6.8276 Y14.9041
G01 X6.8066 Y14.8597
G01 X6.8007 Y14.8462
G01 X6.7954 Y14.8325
G01 X6.7788 Y14.7863
G01 X6.7742 Y14.7723
G01 X6.7703 Y14.7581
G01 X6.7567 Y14.7033
G01 X6.7526 Y14.6816
G01 X6.7454 Y14.6331
G01 X6.7430 Y14.6111
G01 X6.7401 Y14.5547
G01 X6.7397 Y14.5400
G01 X6.7397 Y12.8254
G00 Z2.0000
G00 X17.7976 Y13.1500
G01 F60.00
G01 Z-0.1500
G01 F100.00
G01 X17.7754 Y13.1590
G01 X17.6367 Y13.2086
G01 X17.6227 Y13.2132
G01 X17.6085 Y13.2171
G01 X17.4657 Y13.2529
G01 X17.4513 Y13.2561
G01 X17.4368 Y13.2587
G01 X17.2911 Y13.2803
G01 X17.2765 Y13.2821
G01 X17.2618 Y13.2832
G01 X17.1147 Y13.2904
G01 X17.1000 Y13.2907
G01 X17.0853 Y13.2904
G01 X16.9382 Y13.2832
G01 X16.9235 Y13.2821
G01 X16.9089 Y13.2803
G01 X16.7632 Y13.2587
G01 X16.7487 Y13.2561
G01 X16.7343 Y13.2529
G01 X16.5915 Y13.2171
G01 X16.5773 Y13.2132
G01 X16.5633 Y13.2086
G01 X16.4246 Y13.1590
G01 X16.4109 Y13.1537
G01 X16.3974 Y13.1477
G01 X16.2643 Y13.0847
G01 X16.2511 Y13.0781
G01 X16.2383 Y13.0709
G01 X16.1120 Y12.9951
G01 X16.0996 Y12.9873
G01 X16.0875 Y12.9788
G01 X15.9692 Y12.8911
G01 X15.9576 Y12.8820
G01 X15.9465 Y12.8724
G01 X15.8373 Y12.7735
G01 X15.8267 Y12.7633
G01 X12.8641 Y9.8008
G01 X7.7719 Y9.8008
G01 X6.2907 Y11.2819
G01 X6.2907 Y29.7441
G01 X6.9433 Y30.3967
G01 X6.9535 Y30.4073
G01 X7.0573 Y30.5220
G01 X7.0711 Y30.5392
G01 X7.1588 Y30.6575
G01 X7.1713 Y30.6757
G01 X7.2546 Y30.8147
G01 X7.2647 Y30.8343
G01 X7.2936 Y30.8954
G01 X19.6175 Y43.2192
G01 X29.7792 Y43.2192
G01 X29.7793 Y33.5826
G01 X29.7868 Y33.4282
G01 X29.7879 Y33.4135
G01 X29.7897 Y33.3989
G01 X29.8113 Y33.2532
G01 X29.8139 Y33.2387
G01 X29.8171 Y33.2243
G01 X29.8529 Y33.0815
G01 X29.8568 Y33.0673
G01 X29.8614 Y33.0533
G01 X29.9110 Y32.9146
G01 X29.9163 Y32.9009
G01 X29.9223 Y32.8874
G01 X29.9885 Y32.7477
G01 X29.9991 Y32.7283
G01 X30.0749 Y32.6020
G01 X30.0827 Y32.5896
G01 X30.0912 Y32.5775
G01 X30.1789 Y32.4592
G01 X30.1880 Y32.4476
G01 X30.1976 Y32.4365
G01 X30.2965 Y32.3273
G01 X30.3067 Y32.3167
G01 X35.3867 Y27.2367
G01 X35.3973 Y27.2265
G01 X35.5065 Y27.1276
G01 X35.5176 Y27.1180
G01 X35.5292 Y27.1089
G01 X35.6535 Y27.0169
G01 X35.6720 Y27.0049
G01 X35.7983 Y26.9291
G01 X35.8111 Y26.9219
G01 X35.8243 Y26.9153
G01 X35.9574 Y26.8523
G01 X35.9709 Y26.8463
G01 X35.9846 Y26.8410
G01 X36.1233 Y26.7914
G01 X36.1373 Y26.7868
G01 X36.1515 Y26.7829
G01 X36.2943 Y26.7471
G01 X36.3087 Y26.7439
G01 X36.3232 Y26.7413
G01 X36.4689 Y26.7197
G01 X36.4835 Y26.7179
G01 X36.4982 Y26.7168
G01 X36.6453 Y26.7096
G01 X36.6600 Y26.7092
G01 X36.6747 Y26.7096
G01 X36.8218 Y26.7168
G01 X36.8365 Y26.7179
G01 X36.8511 Y26.7197
G01 X36.9968 Y26.7413
G01 X37.0113 Y26.7439
G01 X37.0257 Y26.7471
G01 X37.1685 Y26.7829
G01 X37.1827 Y26.7868
G01 X37.1967 Y26.7914
G01 X37.3354 Y26.8410
G01 X37.3491 Y26.8463
G01 X37.3626 Y26.8523
G01 X37.4957 Y26.9153
G01 X37.5089 Y26.9219
G01 X37.5217 Y26.9291
G01 X37.6480 Y27.0049
G01 X37.6604 Y27.0127
G01 X37.6725 Y27.0212
G01 X37.7908 Y27.1089
G01 X37.8024 Y27.1180
G01 X37.8135 Y27.1276
G01 X37.9227 Y27.2265
G01 X37.9333 Y27.2367
G01 X37.9435 Y27.2473
G01 X38.0424 Y27.3565
G01 X38.0520 Y27.3676
G01 X38.0611 Y27.3792
G01 X38.1488 Y27.4975
G01 X38.1573 Y27.5096
G01 X38.1651 Y27.5220
G01 X38.2409 Y27.6483
G01 X38.2481 Y27.6611
G01 X38.2547 Y27.6743
G01 X38.3177 Y27.8074
G01 X38.3237 Y27.8209
G01 X38.3290 Y27.8346
G01 X38.3786 Y27.9733
G01 X38.3832 Y27.9873
G01 X38.3871 Y28.0015
G01 X38.4229 Y28.1443
G01 X38.4261 Y28.1587
G01 X38.4287 Y28.1732
G01 X38.4503 Y28.3189
G01 X38.4521 Y28.3335
G01 X38.4532 Y28.3482
G01 X38.4604 Y28.4953
G01 X38.4608 Y28.5100
G01 X38.4604 Y28.5247
G01 X38.4532 Y28.6718
G01 X38.4521 Y28.6865
G01 X38.4503 Y28.7011
G01 X38.4287 Y28.8468
G01 X38.4261 Y28.8613
G01 X38.4229 Y28.8757
G01 X38.3871 Y29.0185
G01 X38.3832 Y29.0327
G01 X38.3786 Y29.0467
G01 X38.3290 Y29.1854
G01 X38.3237 Y29.1991
G01 X38.3177 Y29.2126
G01 X38.2547 Y29.3457
G01 X38.2481 Y29.3589
G01 X38.2409 Y29.3717
G01 X38.1613 Y29.5043
G01 X38.1488 Y29.5225
G01 X38.0611 Y29.6408
G01 X38.0520 Y29.6524
G01 X38.0424 Y29.6635
G01 X37.9435 Y29.7727
G01 X37.9333 Y29.7833
G01 X33.3808 Y34.3359
G01 X33.3808 Y53.1641
G01 X35.2733 Y55.0567
G01 X35.2835 Y55.0673
G01 X35.3824 Y55.1765
G01 X35.3966 Y55.1934
G01 X35.4888 Y55.3175
G01 X35.4973 Y55.3296
G01 X35.5051 Y55.3420
G01 X35.5809 Y55.4683
G01 X35.5881 Y55.4811
G01 X35.5947 Y55.4943
G01 X35.6577 Y55.6274
G01 X35.6637 Y55.6409
G01 X35.6690 Y55.6546
G01 X35.7186 Y55.7933
G01 X35.7232 Y55.8073
G01 X35.7271 Y55.8215
G01 X35.7629 Y55.9643
G01 X35.7661 Y55.9787
G01 X35.7687 Y55.9932
G01 X35.7903 Y56.1389
G01 X35.7921 Y56.1535
G01 X35.7932 Y56.1682
G01 X35.8004 Y56.3153
G01 X35.8008 Y56.3300
G01 X35.8007 Y58.9974
G01 X35.7932 Y59.1518
G01 X35.7921 Y59.1665
G01 X35.7903 Y59.1811
G01 X35.7687 Y59.3268
G01 X35.7661 Y59.3413
G01 X35.7629 Y59.3557
G01 X35.7253 Y59.5057
G01 X35.7186 Y59.5267
G01 X35.6690 Y59.6654
G01 X35.6637 Y59.6791
G01 X35.6577 Y59.6926
G01 X35.5947 Y59.8257
G01 X35.5881 Y59.8389
G01 X35.5809 Y59.8517
G01 X35.5051 Y59.9780
G01 X35.4973 Y59.9904
G01 X35.4888 Y60.0025
G01 X35.4011 Y60.1208
G01 X35.3920 Y60.1324
G01 X35.3824 Y60.1435
G01 X35.2835 Y60.2527
G01 X35.2733 Y60.2633
G01 X35.2627 Y60.2735
G01 X35.1535 Y60.3724
G01 X35.1424 Y60.3820
G01 X35.1308 Y60.3911
G01 X35.0125 Y60.4788
G01 X35.0004 Y60.4873
G01 X34.9880 Y60.4951
G01 X34.8617 Y60.5709
G01 X34.8489 Y60.5781
G01 X34.8357 Y60.5847
G01 X34.7026 Y60.6477
G01 X34.6891 Y60.6537
G01 X34.6754 Y60.6590
G01 X34.5367 Y60.7086
G01 X34.5227 Y60.7132
G01 X34.5085 Y60.7171
G01 X34.3657 Y60.7529
G01 X34.3513 Y60.7561
G01 X34.3368 Y60.7587
G01 X34.1911 Y60.7803
G01 X34.1765 Y60.7821
G01 X34.1618 Y60.7832
G01 X34.0147 Y60.7904
G01 X34.0000 Y60.7908
G01 X33.9853 Y60.7904
G01 X33.8382 Y60.7832
G01 X33.8235 Y60.7821
G01 X33.8089 Y60.7803
G01 X33.6632 Y60.7587
G01 X33.6487 Y60.7561
G01 X33.6343 Y60.7529
G01 X33.4915 Y60.7171
G01 X33.4773 Y60.7132
G01 X33.4633 Y60.7086
G01 X33.3246 Y60.6590
G01 X33.3109 Y60.6537
G01 X33.2974 Y60.6477
G01 X33.1643 Y60.5847
G01 X33.1511 Y60.5781
G01 X33.1383 Y60.5709
G01 X33.0120 Y60.4951
G01 X32.9996 Y60.4873
G01 X32.9875 Y60.4788
G01 X32.8692 Y60.3911
G01 X32.8576 Y60.3820
G01 X32.8465 Y60.3724
G01 X32.7373 Y60.2735
G01 X32.7267 Y60.2633
G01 X32.7165 Y60.2527
G01 X32.6176 Y60.1435
G01 X32.6080 Y60.1324
G01 X32.5989 Y60.1208
G01 X32.5112 Y60.0025
G01 X32.5027 Y59.9904
G01 X32.4949 Y59.9780
G01 X32.4191 Y59.8517
G01 X32.4119 Y59.8389
G01 X32.4053 Y59.8257
G01 X32.3423 Y59.6926
G01 X32.3363 Y59.6791
G01 X32.3310 Y59.6654
G01 X32.2814 Y59.5267
G01 X32.2768 Y59.5127
G01 X32.2729 Y59.4985
G01 X32.2371 Y59.3557
G01 X32.2339 Y59.3413
G01 X32.2313 Y59.3268
G01 X32.2087 Y59.1738
G01 X32.2068 Y59.1518
G01 X32.1996 Y59.0047
G01 X32.1992 Y58.9900
G01 X32.1992 Y57.0759
G01 X30.3067 Y55.1833
G01 X30.2965 Y55.1727
G01 X30.1976 Y55.0635
G01 X30.1880 Y55.0524
G01 X30.1789 Y55.0408
G01 X30.0912 Y54.9225
G01 X30.0827 Y54.9104
G01 X30.0749 Y54.8980
G01 X29.9991 Y54.7717
G01 X29.9919 Y54.7589
G01 X29.9853 Y54.7457
G01 X29.9223 Y54.6126
G01 X29.9163 Y54.5991
G01 X29.9110 Y54.5854
G01 X29.8590 Y54.4397
G01 X29.8529 Y54.4185
G01 X29.8171 Y54.2757
G01 X29.8139 Y54.2613
G01 X29.8113 Y54.2468
G01 X29.7897 Y54.1011
G01 X29.7879 Y54.0865
G01 X29.7868 Y54.0718
G01 X29.7796 Y53.9247
G01 X29.7792 Y53.9100
G01 X29.7792 Y46.8208
G01 X18.8642 Y46.8207
G01 X18.7098 Y46.8132
G01 X18.6951 Y46.8121
G01 X18.6805 Y46.8103
G01 X18.5348 Y46.7887
G01 X18.5203 Y46.7861
G01 X18.5059 Y46.7829
G01 X18.3631 Y46.7471
G01 X18.3489 Y46.7432
G01 X18.3349 Y46.7386
G01 X18.1962 Y46.6890
G01 X18.1825 Y46.6837
G01 X18.1690 Y46.6777
G01 X18.0359 Y46.6147
G01 X18.0227 Y46.6081
G01 X18.0099 Y46.6009
G01 X17.8836 Y46.5251
G01 X17.8712 Y46.5173
G01 X17.8591 Y46.5088
G01 X17.7408 Y46.4211
G01 X17.7292 Y46.4120
G01 X17.7181 Y46.4024
G01 X17.6090 Y46.3035
G01 X17.5983 Y46.2933
G01 X4.3967 Y33.0917
G01 X4.3865 Y33.0810
G01 X4.2876 Y32.9719
G01 X4.2780 Y32.9608
G01 X4.2689 Y32.9492
G01 X4.1769 Y32.8249
G01 X4.1649 Y32.8064
G01 X4.0854 Y32.6737
G01 X4.0753 Y32.6541
G01 X4.0464 Y32.5930
G01 X3.2167 Y31.7633
G01 X3.2065 Y31.7527
G01 X3.1076 Y31.6435
G01 X3.0934 Y31.6266
G01 X3.0012 Y31.5025
G01 X2.9927 Y31.4904
G01 X2.9849 Y31.4780
G01 X2.9091 Y31.3517
G01 X2.9019 Y31.3389
G01 X2.8953 Y31.3257
G01 X2.8323 Y31.1926
G01 X2.8263 Y31.1791
G01 X2.8210 Y31.1654
G01 X2.7714 Y31.0267
G01 X2.7668 Y31.0127
G01 X2.7629 Y30.9985
G01 X2.7271 Y30.8557
G01 X2.7238 Y30.8413
G01 X2.7213 Y30.8268
G01 X2.6997 Y30.6811
G01 X2.6979 Y30.6665
G01 X2.6968 Y30.6518
G01 X2.6896 Y30.5047
G01 X2.6892 Y30.4900
G01 X2.6893 Y10.5286
G01 X2.6968 Y10.3742
G01 X2.6979 Y10.3595
G01 X2.6997 Y10.3449
G01 X2.7213 Y10.1992
G01 X2.7238 Y10.1847
G01 X2.7271 Y10.1703
G01 X2.7629 Y10.0275
G01 X2.7668 Y10.0133
G01 X2.7714 Y9.9993
G01 X2.8210 Y9.8606
G01 X2.8263 Y9.8469
G01 X2.8323 Y9.8334
G01 X2.8953 Y9.7003
G01 X2.9019 Y9.6871
G01 X2.9091 Y9.6743
G01 X2.9849 Y9.5480
G01 X2.9927 Y9.5356
G01 X3.0012 Y9.5235
G01 X3.0889 Y9.4052
G01 X3.0980 Y9.3936
G01 X3.1076 Y9.3825
G01 X3.2065 Y9.2733
G01 X3.2167 Y9.2627
G01 X5.7527 Y6.7267
G01 X5.7633 Y6.7165
G01 X5.8725 Y6.6176
G01 X5.8836 Y6.6080
G01 X5.8952 Y6.5989
G01 X6.0135 Y6.5112
G01 X6.0256 Y6.5027
G01 X6.0380 Y6.4949
G01 X6.1643 Y6.4191
G01 X6.1771 Y6.4119
G01 X6.1903 Y6.4053
G01 X6.3234 Y6.3423
G01 X6.3369 Y6.3363
G01 X6.3506 Y6.3310
G01 X6.4893 Y6.2814
G01 X6.5103 Y6.2747
G01 X6.6603 Y6.2371
G01 X6.6747 Y6.2339
G01 X6.6892 Y6.2313
G01 X6.8349 Y6.2097
G01 X6.8495 Y6.2079
G01 X6.8642 Y6.2068
G01 X7.0113 Y6.1996
G01 X7.0260 Y6.1992
G01 X13.6100 Y6.1992
G01 X13.6247 Y6.1996
G01 X13.7718 Y6.2068
G01 X13.7865 Y6.2079
G01 X13.8011 Y6.2097
G01 X13.9468 Y6.2313
G01 X13.9613 Y6.2339
G01 X13.9757 Y6.2371
G01 X14.1185 Y6.2729
G01 X14.1327 Y6.2768
G01 X14.1467 Y6.2814
G01 X14.2854 Y6.3310
G01 X14.2991 Y6.3363
G01 X14.3126 Y6.3423
G01 X14.4457 Y6.4053
G01 X14.4589 Y6.4119
G01 X14.4717 Y6.4191
G01 X14.5980 Y6.4949
G01 X14.6104 Y6.5027
G01 X14.6225 Y6.5112
G01 X14.7408 Y6.5989
G01 X14.7524 Y6.6080
G01 X14.7635 Y6.6176
G01 X14.8781 Y6.7215
G01 X18.3785 Y10.2219
G01 X18.4824 Y10.3365
G01 X18.4920 Y10.3476
G01 X18.5011 Y10.3592
G01 X18.5888 Y10.4775
G01 X18.5973 Y10.4896
G01 X18.6051 Y10.5020
G01 X18.6809 Y10.6283
G01 X18.6881 Y10.6411
G01 X18.6947 Y10.6543
G01 X18.7577 Y10.7874
G01 X18.7637 Y10.8009
G01 X18.7690 Y10.8146
G01 X18.8186 Y10.9533
G01 X18.8232 Y10.9673
G01 X18.8271 Y10.9815
G01 X18.8629 Y11.1243
G01 X18.8661 Y11.1387
G01 X18.8687 Y11.1532
G01 X18.8903 Y11.2989
G01 X18.8921 Y11.3135
G01 X18.8932 Y11.3282
G01 X18.9007 Y11.4826
G01 X18.9004 Y11.5047
G01 X18.8932 Y11.6518
G01 X18.8921 Y11.6665
G01 X18.8903 Y11.6811
G01 X18.8687 Y11.8268
G01 X18.8661 Y11.8413
G01 X18.8629 Y11.8557
G01 X18.8271 Y11.9985
G01 X18.8232 Y12.0127
G01 X18.8186 Y12.0267
G01 X18.7690 Y12.1654
G01 X18.7600 Y12.1876
G01 X18.7599 Y12.8574
G01 X18.7586 Y12.8794
G01 X18.7556 Y12.9013
G01 X18.7527 Y12.9157
G01 X18.7491 Y12.9300
G01 X18.7425 Y12.9511
G01 X18.7343 Y12.9716
G01 X18.7280 Y12.9849
G01 X18.7173 Y13.0042
G01 X18.7053 Y13.0227
G01 X18.6965 Y13.0346
G01 X18.6823 Y13.0515
G01 X18.6721 Y13.0621
G01 X18.6560 Y13.0772
G01 X18.6446 Y13.0865
G01 X18.6267 Y13.0994
G01 X18.6079 Y13.1110
G01 X18.5949 Y13.1180
G01 X18.5816 Y13.1243
G01 X18.5611 Y13.1325
G01 X18.5400 Y13.1391
G01 X18.5185 Y13.1442
G01 X18.5040 Y13.1468
G01 X18.4894 Y13.1486
G01 X18.4747 Y13.1496
G01 X18.4600 Y13.1500
G01 X17.7976 Y13.1500
G00 Z2.0000
G00 X19.3497 Y11.1746
G01 F60.00
G01 Z-0.1500
G01 F100.00
G01 X19.3497 Y8.4656
G01 X19.3388 Y8.4507
G01 X19.3306 Y8.4384
G01 X19.3015 Y8.3900
G01 X19.2909 Y8.3707
G01 X19.2666 Y8.3197
G01 X19.2607 Y8.3062
G01 X19.2554 Y8.2925
G01 X19.2364 Y8.2393
G01 X19.2303 Y8.2181
G01 X19.2184 Y8.1705
G01 X19.2151 Y8.1561
G01 X19.2126 Y8.1416
G01 X19.2054 Y8.0931
G01 X19.2030 Y8.0711
G01 X19.2001 Y8.0147
G01 X19.1998 Y7.9926
G01 X19.2025 Y7.9362
G01 X19.2036 Y7.9216
G01 X19.2054 Y7.9069
G01 X19.2126 Y7.8584
G01 X19.2151 Y7.8439
G01 X19.2184 Y7.8295
G01 X19.2303 Y7.7819
G01 X19.2342 Y7.7677
G01 X19.2388 Y7.7537
G01 X19.2554 Y7.7075
G01 X19.2607 Y7.6938
G01 X19.2666 Y7.6803
G01 X19.2876 Y7.6359
G01 X19.2942 Y7.6228
G01 X19.3015 Y7.6100
G01 X19.3267 Y7.5678
G01 X19.3346 Y7.5554
G01 X19.3431 Y7.5434
G01 X19.3723 Y7.5039
G01 X19.3814 Y7.4923
G01 X19.3910 Y7.4812
G01 X19.4290 Y7.4394
G01 X19.4448 Y7.4240
G01 X19.4812 Y7.3910
G01 X19.4923 Y7.3814
G01 X19.5039 Y7.3723
G01 X19.5493 Y7.3388
G01 X19.5678 Y7.3267
G01 X19.6163 Y7.2978
G01 X19.6359 Y7.2876
G01 X19.6803 Y7.2666
G01 X19.7006 Y7.2579
G01 X19.7607 Y7.2364
G01 X19.7819 Y7.2303
G01 X19.8295 Y7.2184
G01 X19.8439 Y7.2151
G01 X19.8584 Y7.2126
G01 X19.9142 Y7.2044
G01 X19.9362 Y7.2025
G01 X19.9853 Y7.2001
G01 X20.0000 Y7.1997
G01 X23.0000 Y7.1997
G01 X23.0147 Y7.2001
G01 X23.0638 Y7.2025
G01 X23.0784 Y7.2036
G01 X23.0931 Y7.2054
G01 X23.1416 Y7.2126
G01 X23.1561 Y7.2151
G01 X23.1705 Y7.2184
G01 X23.2181 Y7.2303
G01 X23.2323 Y7.2342
G01 X23.2463 Y7.2388
G01 X23.2925 Y7.2554
G01 X23.3062 Y7.2607
G01 X23.3197 Y7.2666
G01 X23.3641 Y7.2876
G01 X23.3772 Y7.2942
G01 X23.3900 Y7.3015
G01 X23.4322 Y7.3267
G01 X23.4446 Y7.3346
G01 X23.4566 Y7.3431
G01 X23.4961 Y7.3723
G01 X23.5077 Y7.3814
G01 X23.5188 Y7.3910
G01 X23.5606 Y7.4290
G01 X28.0330 Y11.9013
G01 X28.0931 Y11.9042
G01 X28.1151 Y11.9061
G01 X28.2001 Y11.9186
G01 X28.2218 Y11.9227
G01 X28.3051 Y11.9434
G01 X28.3193 Y11.9474
G01 X28.3333 Y11.9520
G01 X28.4072 Y11.9784
G01 X28.4277 Y11.9866
G01 X28.5054 Y12.0233
G01 X28.5185 Y12.0299
G01 X28.5313 Y12.0371
G01 X28.5987 Y12.0775
G01 X28.6111 Y12.0854
G01 X28.6232 Y12.0939
G01 X28.6862 Y12.1406
G01 X28.6978 Y12.1497
G01 X28.7090 Y12.1593
G01 X28.7672 Y12.2120
G01 X28.7778 Y12.2222
G01 X28.7880 Y12.2328
G01 X28.8407 Y12.2910
G01 X28.8503 Y12.3022
G01 X28.8594 Y12.3138
G01 X28.9061 Y12.3768
G01 X28.9146 Y12.3889
G01 X28.9225 Y12.4013
G01 X28.9629 Y12.4687
G01 X28.9701 Y12.4815
G01 X28.9767 Y12.4946
G01 X29.0103 Y12.5656
G01 X29.0163 Y12.5790
G01 X29.0216 Y12.5928
G01 X29.0480 Y12.6667
G01 X29.0526 Y12.6807
G01 X29.0566 Y12.6949
G01 X29.0756 Y12.7710
G01 X29.0789 Y12.7854
G01 X29.0814 Y12.7999
G01 X29.0929 Y12.8776
G01 X29.0947 Y12.8922
G01 X29.0958 Y12.9069
G01 X29.0996 Y12.9853
G01 X29.1000 Y13.0000
G01 X29.0996 Y13.0147
G01 X29.0958 Y13.0931
G01 X29.0947 Y13.1078
G01 X29.0929 Y13.1224
G01 X29.0814 Y13.2001
G01 X29.0789 Y13.2146
G01 X29.0756 Y13.2290
G01 X29.0566 Y13.3051
G01 X29.0526 Y13.3193
G01 X29.0480 Y13.3333
G01 X29.0216 Y13.4072
G01 X29.0163 Y13.4210
G01 X29.0103 Y13.4344
G01 X28.9767 Y13.5054
G01 X28.9701 Y13.5185
G01 X28.9629 Y13.5313
G01 X28.9225 Y13.5987
G01 X28.9146 Y13.6111
G01 X28.9061 Y13.6232
G01 X28.8594 Y13.6862
G01 X28.8503 Y13.6978
G01 X28.8407 Y13.7090
G01 X28.7880 Y13.7672
G01 X28.7778 Y13.7778
G01 X28.7672 Y13.7880
G01 X28.7090 Y13.8407
G01 X28.6978 Y13.8503
G01 X28.6862 Y13.8594
G01 X28.6232 Y13.9061
G01 X28.6111 Y13.9146
G01 X28.5987 Y13.9225
G01 X28.5313 Y13.9629
G01 X28.5185 Y13.9701
G01 X28.5054 Y13.9767
G01 X28.4344 Y14.0103
G01 X28.4210 Y14.0163
G01 X28.4072 Y14.0216
G01 X28.3333 Y14.0480
G01 X28.3193 Y14.0526
G01 X28.3051 Y14.0566
G01 X28.2290 Y14.0756
G01 X28.2146 Y14.0789
G01 X28.2001 Y14.0814
G01 X28.1224 Y14.0929
G01 X28.1078 Y14.0947
G01 X28.0931 Y14.0958
G01 X28.0147 Y14.0996
G01 X28.0000 Y14.1000
G01 X27.9853 Y14.0996
G01 X27.9069 Y14.0958
G01 X27.8922 Y14.0947
G01 X27.8776 Y14.0929
G01 X27.7999 Y14.0814
G01 X27.7854 Y14.0789
G01 X27.7710 Y14.0756
G01 X27.6949 Y14.0566
G01 X27.6807 Y14.0526
G01 X27.6667 Y14.0480
G01 X27.5928 Y14.0216
G01 X27.5790 Y14.0163
G01 X27.5656 Y14.0103
G01 X27.4946 Y13.9767
G01 X27.4815 Y13.9701
G01 X27.4687 Y13.9629
G01 X27.4013 Y13.9225
G01 X27.3828 Y13.9105
G01 X27.3138 Y13.8594
G01 X27.3022 Y13.8503
G01 X27.2910 Y13.8407
G01 X27.2328 Y13.7880
G01 X27.2222 Y13.7778
G01 X27.2120 Y13.7672
G01 X27.1593 Y13.7090
G01 X27.1497 Y13.6978
G01 X27.1406 Y13.6862
G01 X27.0939 Y13.6232
G01 X27.0854 Y13.6111
G01 X27.0775 Y13.5987
G01 X27.0371 Y13.5313
G01 X27.0299 Y13.5185
G01 X27.0233 Y13.5054
G01 X26.9897 Y13.4344
G01 X26.9837 Y13.4210
G01 X26.9784 Y13.4072
G01 X26.9520 Y13.3333
G01 X26.9453 Y13.3122
G01 X26.9244 Y13.2290
G01 X26.9211 Y13.2146
G01 X26.9186 Y13.2001
G01 X26.9071 Y13.1224
G01 X26.9053 Y13.1078
G01 X26.9042 Y13.0931
G01 X26.9013 Y13.0330
G01 X22.6685 Y8.8003
G01 X20.9503 Y8.8003
G01 X20.9503 Y11.1746
G01 X20.9632 Y11.1868
G01 X20.9733 Y11.1975
G01 X21.0293 Y11.2593
G01 X21.0390 Y11.2704
G01 X21.0480 Y11.2821
G01 X21.0977 Y11.3491
G01 X21.1062 Y11.3611
G01 X21.1141 Y11.3735
G01 X21.1570 Y11.4451
G01 X21.1642 Y11.4579
G01 X21.1708 Y11.4710
G01 X21.2065 Y11.5465
G01 X21.2125 Y11.5599
G01 X21.2178 Y11.5737
G01 X21.2459 Y11.6522
G01 X21.2505 Y11.6662
G01 X21.2544 Y11.6804
G01 X21.2747 Y11.7613
G01 X21.2779 Y11.7756
G01 X21.2804 Y11.7902
G01 X21.2927 Y11.8727
G01 X21.2945 Y11.8873
G01 X21.2955 Y11.9020
G01 X21.2996 Y11.9853
G01 X21.3000 Y12.0000
G01 X21.2996 Y12.0147
G01 X21.2951 Y12.1054
G01 X21.2927 Y12.1273
G01 X21.2804 Y12.2098
G01 X21.2779 Y12.2244
G01 X21.2747 Y12.2387
G01 X21.2544 Y12.3196
G01 X21.2505 Y12.3338
G01 X21.2459 Y12.3478
G01 X21.2178 Y12.4263
G01 X21.2125 Y12.4401
G01 X21.2065 Y12.4535
G01 X21.1708 Y12.5290
G01 X21.1642 Y12.5421
G01 X21.1570 Y12.5549
G01 X21.1141 Y12.6265
G01 X21.1062 Y12.6389
G01 X21.0977 Y12.6509
G01 X21.0480 Y12.7179
G01 X21.0390 Y12.7296
G01 X21.0293 Y12.7407
G01 X20.9733 Y12.8025
G01 X20.9632 Y12.8132
G01 X20.9525 Y12.8233
G01 X20.8907 Y12.8793
G01 X20.8796 Y12.8890
G01 X20.8679 Y12.8980
G01 X20.7950 Y12.9520
G01 X20.7765 Y12.9641
G01 X20.7049 Y13.0070
G01 X20.6921 Y13.0142
G01 X20.6790 Y13.0208
G01 X20.6035 Y13.0565
G01 X20.5901 Y13.0625
G01 X20.5763 Y13.0678
G01 X20.4978 Y13.0959
G01 X20.4838 Y13.1005
G01 X20.4696 Y13.1044
G01 X20.3887 Y13.1247
G01 X20.3671 Y13.1293
G01 X20.2773 Y13.1427
G01 X20.2627 Y13.1445
G01 X20.2480 Y13.1455
G01 X20.1647 Y13.1496
G01 X20.1426 Y13.1499
G01 X20.0520 Y13.1455
G01 X20.0373 Y13.1445
G01 X20.0227 Y13.1427
G01 X19.9402 Y13.1304
G01 X19.9256 Y13.1279
G01 X19.9113 Y13.1247
G01 X19.8304 Y13.1044
G01 X19.8162 Y13.1005
G01 X19.8022 Y13.0959
G01 X19.7237 Y13.0678
G01 X19.7099 Y13.0625
G01 X19.6965 Y13.0565
G01 X19.6210 Y13.0208
G01 X19.6079 Y13.0142
G01 X19.5951 Y13.0070
G01 X19.5235 Y12.9641
G01 X19.5111 Y12.9562
G01 X19.4991 Y12.9477
G01 X19.4321 Y12.8980
G01 X19.4204 Y12.8890
G01 X19.4093 Y12.8793
G01 X19.3475 Y12.8233
G01 X19.3368 Y12.8132
G01 X19.3267 Y12.8025
G01 X19.2707 Y12.7407
G01 X19.2610 Y12.7296
G01 X19.2520 Y12.7179
G01 X19.2023 Y12.6509
G01 X19.1938 Y12.6389
G01 X19.1859 Y12.6265
G01 X19.1430 Y12.5549
G01 X19.1358 Y12.5421
G01 X19.1292 Y12.5290
G01 X19.0935 Y12.4535
G01 X19.0875 Y12.4401
G01 X19.0822 Y12.4263
G01 X19.0541 Y12.3478
G01 X19.0495 Y12.3338
G01 X19.0456 Y12.3196
G01 X19.0253 Y12.2387
G01 X19.0221 Y12.2244
G01 X19.0196 Y12.2098
G01 X19.0073 Y12.1273
G01 X19.0055 Y12.1127
G01 X19.0045 Y12.0980
G01 X19.0004 Y12.0147
G01 X19.0000 Y12.0000
G01 X19.0004 Y11.9853
G01 X19.0045 Y11.9020
G01 X19.0055 Y11.8873
G01 X19.0073 Y11.8727
G01 X19.0196 Y11.7902
G01 X19.0221 Y11.7756
G01 X19.0253 Y11.7613
G01 X19.0475 Y11.6732
G01 X19.0541 Y11.6522
G01 X19.0822 Y11.5737
G01 X19.0875 Y11.5599
G01 X19.0935 Y11.5465
G01 X19.1292 Y11.4710
G01 X19.1358 Y11.4579
G01 X19.1430 Y11.4451
G01 X19.1898 Y11.3673
G01 X19.2023 Y11.3491
G01 X19.2520 Y11.2821
G01 X19.2658 Y11.2648
G01 X19.3267 Y11.1975
G01 X19.3368 Y11.1868
G01 X19.3497 Y11.1746
G00 Z2.0000
G00 X12.9997 Y24.4535
G01 F60.00
G01 Z-0.1500
G01 F100.00
G01 X12.9810 Y24.4395
G01 X12.9641 Y24.4253
G01 X12.8914 Y24.3594
G01 X12.8808 Y24.3492
G01 X12.8706 Y24.3386
G01 X12.8047 Y24.2659
G01 X12.7951 Y24.2547
G01 X12.7860 Y24.2431
G01 X12.7276 Y24.1643
G01 X12.7151 Y24.1461
G01 X12.6608 Y24.0556
G01 X12.6535 Y24.0428
G01 X12.6469 Y24.0297
G01 X12.6049 Y23.9409
G01 X12.5990 Y23.9275
G01 X12.5937 Y23.9138
G01 X12.5606 Y23.8214
G01 X12.5560 Y23.8074
G01 X12.5521 Y23.7932
G01 X12.5300 Y23.7051
G01 X12.5079 Y23.7932
G01 X12.5040 Y23.8074
G01 X12.4994 Y23.8214
G01 X12.4663 Y23.9138
G01 X12.4610 Y23.9275
G01 X12.4551 Y23.9409
G01 X12.4131 Y24.0297
G01 X12.4065 Y24.0428
G01 X12.3992 Y24.0556
G01 X12.3449 Y24.1461
G01 X12.3324 Y24.1643
G01 X12.2740 Y24.2431
G01 X12.2649 Y24.2547
G01 X12.2553 Y24.2659
G01 X12.1894 Y24.3386
G01 X12.1792 Y24.3492
G01 X12.1686 Y24.3594
G01 X12.0959 Y24.4253
G01 X12.0790 Y24.4395
G01 X12.0603 Y24.4535
G01 X12.0603 Y32.7897
G01 X22.2911 Y32.7897
G01 X35.1297 Y19.9511
G01 X35.1297 Y7.7915
G01 X34.4504 Y7.1121
G01 X34.4198 Y7.1197
G01 X34.4054 Y7.1225
G01 X34.2743 Y7.1420
G01 X34.2523 Y7.1439
G01 X34.1347 Y7.1496
G01 X34.1200 Y7.1500
G01 X34.1053 Y7.1496
G01 X33.9877 Y7.1439
G01 X33.9730 Y7.1428
G01 X33.9584 Y7.1410
G01 X33.8419 Y7.1237
G01 X33.8274 Y7.1212
G01 X33.8130 Y7.1180
G01 X33.6988 Y7.0893
G01 X33.6846 Y7.0854
G01 X33.6706 Y7.0808
G01 X33.5597 Y7.0411
G01 X33.5460 Y7.0358
G01 X33.5325 Y7.0299
G01 X33.4261 Y6.9795
G01 X33.4129 Y6.9729
G01 X33.4001 Y6.9656
G01 X33.2991 Y6.9051
G01 X33.2866 Y6.8972
G01 X33.2746 Y6.8887
G01 X33.1800 Y6.8186
G01 X33.1628 Y6.8048
G01 X33.0700 Y6.7208
G01 X33.0593 Y6.7107
G01 X33.0492 Y6.7000
G01 X32.9701 Y6.6127
G01 X32.9605 Y6.6016
G01 X32.9514 Y6.5900
G01 X32.8813 Y6.4954
G01 X32.8728 Y6.4834
G01 X32.8649 Y6.4709
G01 X32.8044 Y6.3699
G01 X32.7971 Y6.3571
G01 X32.7905 Y6.3439
G01 X32.7401 Y6.2375
G01 X32.7342 Y6.2240
G01 X32.7289 Y6.2103
G01 X32.6892 Y6.0994
G01 X32.6846 Y6.0854
G01 X32.6807 Y6.0712
G01 X32.6520 Y5.9570
G01 X32.6488 Y5.9426
G01 X32.6463 Y5.9281
G01 X32.6290 Y5.8116
G01 X32.6272 Y5.7970
G01 X32.6261 Y5.7823
G01 X32.6204 Y5.6647
G01 X32.6200 Y5.6500
G01 X32.6204 Y5.6353
G01 X32.6261 Y5.5177
G01 X32.6272 Y5.5030
G01 X32.6290 Y5.4884
G01 X32.6463 Y5.3719
G01 X32.6488 Y5.3574
G01 X32.6520 Y5.3430
G01 X32.6807 Y5.2288
G01 X32.6846 Y5.2146
G01 X32.6892 Y5.2006
G01 X32.7289 Y5.0897
G01 X32.7342 Y5.0760
G01 X32.7401 Y5.0625
G01 X32.7905 Y4.9561
G01 X32.7971 Y4.9429
G01 X32.8044 Y4.9301
G01 X32.8649 Y4.8291
G01 X32.8728 Y4.8166
G01 X32.8813 Y4.8046
G01 X32.9514 Y4.7100
G01 X32.9605 Y4.6984
G01 X32.9701 Y4.6873
G01 X33.0492 Y4.6000
G01 X33.0593 Y4.5893
G01 X33.0700 Y4.5792
G01 X33.1573 Y4.5001
G01 X33.1684 Y4.4905
G01 X33.1800 Y4.4814
G01 X33.2746 Y4.4113
G01 X33.2866 Y4.4028
G01 X33.2991 Y4.3949
G01 X33.4001 Y4.3344
G01 X33.4129 Y4.3271
G01 X33.4261 Y4.3205
G01 X33.5325 Y4.2701
G01 X33.5460 Y4.2642
G01 X33.5597 Y4.2589
G01 X33.6706 Y4.2192
G01 X33.6846 Y4.2146
G01 X33.6988 Y4.2107
G01 X33.8130 Y4.1820
G01 X33.8274 Y4.1788
G01 X33.8419 Y4.1763
G01 X33.9584 Y4.1590
G01 X33.9730 Y4.1572
G01 X33.9877 Y4.1561
G01 X34.1053 Y4.1504
G01 X34.1200 Y4.1500
G01 X34.1347 Y4.1504
G01 X34.2523 Y4.1561
G01 X34.2670 Y4.1572
G01 X34.2816 Y4.1590
G01 X34.3981 Y4.1763
G01 X34.4126 Y4.1788
G01 X34.4270 Y4.1820
G01 X34.5412 Y4.2107
G01 X34.5554 Y4.2146
G01 X34.5694 Y4.2192
G01 X34.6803 Y4.2589
G01 X34.6940 Y4.2642
G01 X34.7075 Y4.2701
G01 X34.8139 Y4.3205
G01 X34.8271 Y4.3271
G01 X34.8399 Y4.3344
G01 X34.9409 Y4.3949
G01 X34.9534 Y4.4028
G01 X34.9654 Y4.4113
G01 X35.0600 Y4.4814
G01 X35.0716 Y4.4905
G01 X35.0827 Y4.5001
G01 X35.1700 Y4.5792
G01 X35.1807 Y4.5893
G01 X35.1908 Y4.6000
G01 X35.2699 Y4.6873
G01 X35.2795 Y4.6984
G01 X35.2886 Y4.7100
G01 X35.3587 Y4.8046
G01 X35.3672 Y4.8166
G01 X35.3751 Y4.8291
G01 X35.4356 Y4.9301
G01 X35.4429 Y4.9429
G01 X35.4495 Y4.9561
G01 X35.4999 Y5.0625
G01 X35.5058 Y5.0760
G01 X35.5111 Y5.0897
G01 X35.5508 Y5.2006
G01 X35.5554 Y5.2146
G01 X35.5593 Y5.2288
G01 X35.5880 Y5.3430
G01 X35.5912 Y5.3574
G01 X35.5937 Y5.3719
G01 X35.6110 Y5.4884
G01 X35.6128 Y5.5030
G01 X35.6139 Y5.5177
G01 X35.6196 Y5.6353
G01 X35.6200 Y5.6500
G01 X35.6196 Y5.6647
G01 X35.6139 Y5.7823
G01 X35.6120 Y5.8043
G01 X35.5925 Y5.9354
G01 X35.5897 Y5.9498
G01 X35.5821 Y5.9804
G01 X36.4959 Y6.8941
G01 X36.5060 Y6.9048
G01 X36.5390 Y6.9412
G01 X36.5486 Y6.9523
G01 X36.5577 Y6.9639
G01 X36.5869 Y7.0034
G01 X36.5954 Y7.0154
G01 X36.6033 Y7.0278
G01 X36.6285 Y7.0700
G01 X36.6358 Y7.0828
G01 X36.6424 Y7.0959
G01 X36.6634 Y7.1403
G01 X36.6693 Y7.1538
G01 X36.6746 Y7.1675
G01 X36.6912 Y7.2137
G01 X36.6958 Y7.2277
G01 X36.6997 Y7.2419
G01 X36.7116 Y7.2895
G01 X36.7149 Y7.3039
G01 X36.7174 Y7.3184
G01 X36.7246 Y7.3669
G01 X36.7264 Y7.3816
G01 X36.7275 Y7.3962
G01 X36.7299 Y7.4453
G01 X36.7302 Y7.4600
G01 X36.7302 Y20.2825
G01 X36.7299 Y20.2973
G01 X36.7275 Y20.3463
G01 X36.7264 Y20.3610
G01 X36.7246 Y20.3756
G01 X36.7174 Y20.4241
G01 X36.7149 Y20.4387
G01 X36.7116 Y20.4530
G01 X36.6997 Y20.5006
G01 X36.6958 Y20.5148
G01 X36.6912 Y20.5288
G01 X36.6746 Y20.5750
G01 X36.6693 Y20.5888
G01 X36.6634 Y20.6022
G01 X36.6424 Y20.6466
G01 X36.6358 Y20.6598
G01 X36.6285 Y20.6726
G01 X36.6033 Y20.7147
G01 X36.5954 Y20.7271
G01 X36.5869 Y20.7392
G01 X36.5577 Y20.7786
G01 X36.5486 Y20.7902
G01 X36.5390 Y20.8014
G01 X36.5060 Y20.8377
G01 X36.4959 Y20.8484
G01 X23.1884 Y34.1559
G01 X23.1777 Y34.1660
G01 X23.1414 Y34.1990
G01 X23.1302 Y34.2086
G01 X23.1186 Y34.2177
G01 X23.0792 Y34.2469
G01 X23.0671 Y34.2554
G01 X23.0547 Y34.2633
G01 X23.0126 Y34.2885
G01 X22.9998 Y34.2958
G01 X22.9866 Y34.3024
G01 X22.9422 Y34.3234
G01 X22.9288 Y34.3293
G01 X22.9150 Y34.3346
G01 X22.8688 Y34.3512
G01 X22.8548 Y34.3558
G01 X22.8406 Y34.3597
G01 X22.7930 Y34.3716
G01 X22.7714 Y34.3762
G01 X22.7156 Y34.3846
G01 X22.7010 Y34.3864
G01 X22.6863 Y34.3875
G01 X22.6373 Y34.3899
G01 X22.6225 Y34.3903
G01 X11.2526 Y34.3902
G01 X11.1962 Y34.3875
G01 X11.1816 Y34.3864
G01 X11.1669 Y34.3846
G01 X11.1184 Y34.3774
G01 X11.1039 Y34.3749
G01 X11.0895 Y34.3716
G01 X11.0419 Y34.3597
G01 X11.0277 Y34.3558
G01 X11.0137 Y34.3512
G01 X10.9675 Y34.3346
G01 X10.9538 Y34.3293
G01 X10.9403 Y34.3234
G01 X10.8959 Y34.3024
G01 X10.8828 Y34.2958
G01 X10.8700 Y34.2885
G01 X10.8278 Y34.2633
G01 X10.8154 Y34.2554
G01 X10.8034 Y34.2469
G01 X10.7639 Y34.2177
G01 X10.7523 Y34.2086
G01 X10.7412 Y34.1990
G01 X10.7048 Y34.1660
G01 X10.6941 Y34.1559
G01 X10.6840 Y34.1452
G01 X10.6510 Y34.1088
G01 X10.6414 Y34.0977
G01 X10.6323 Y34.0861
G01 X10.5988 Y34.0407
G01 X10.5867 Y34.0222
G01 X10.5615 Y33.9800
G01 X10.5509 Y33.9607
G01 X10.5236 Y33.9030
G01 X10.5154 Y33.8825
G01 X10.4988 Y33.8363
G01 X10.4942 Y33.8223
G01 X10.4903 Y33.8081
G01 X10.4784 Y33.7605
G01 X10.4751 Y33.7461
G01 X10.4726 Y33.7316
G01 X10.4654 Y33.6831
G01 X10.4636 Y33.6684
G01 X10.4625 Y33.6538
G01 X10.4601 Y33.6047
G01 X10.4597 Y33.5900
G01 X10.4597 Y24.4535
G01 X10.4410 Y24.4395
G01 X10.4241 Y24.4253
G01 X10.3514 Y24.3594
G01 X10.3408 Y24.3492
G01 X10.3306 Y24.3386
G01 X10.2647 Y24.2659
G01 X10.2551 Y24.2547
G01 X10.2460 Y24.2431
G01 X10.1876 Y24.1643
G01 X10.1751 Y24.1461
G01 X10.1208 Y24.0556
G01 X10.1135 Y24.0428
G01 X10.1069 Y24.0297
G01 X10.0649 Y23.9409
G01 X10.0590 Y23.9275
G01 X10.0537 Y23.9138
G01 X10.0206 Y23.8214
G01 X10.0160 Y23.8074
G01 X10.0121 Y23.7932
G01 X9.9865 Y23.6908
G01 X9.9825 Y23.6691
G01 X9.9681 Y23.5720
G01 X9.9663 Y23.5574
G01 X9.9652 Y23.5427
G01 X9.9604 Y23.4447
G01 X9.9600 Y23.4300
G01 X9.9604 Y23.4153
G01 X9.9652 Y23.3173
G01 X9.9663 Y23.3026
G01 X9.9681 Y23.2880
G01 X9.9825 Y23.1909
G01 X9.9850 Y23.1764
G01 X9.9882 Y23.1620
G01 X10.0121 Y23.0668
G01 X10.0160 Y23.0526
G01 X10.0206 Y23.0386
G01 X10.0537 Y22.9462
G01 X10.0590 Y22.9325
G01 X10.0649 Y22.9191
G01 X10.1101 Y22.8237
G01 X10.1208 Y22.8044
G01 X10.1712 Y22.7202
G01 X10.1791 Y22.7078
G01 X10.1876 Y22.6957
G01 X10.2460 Y22.6169
G01 X10.2551 Y22.6053
G01 X10.2647 Y22.5941
G01 X10.3306 Y22.5214
G01 X10.3408 Y22.5108
G01 X10.3514 Y22.5006
G01 X10.4241 Y22.4347
G01 X10.4353 Y22.4251
G01 X10.4469 Y22.4160
G01 X10.5257 Y22.3576
G01 X10.5378 Y22.3491
G01 X10.5502 Y22.3412
G01 X10.6344 Y22.2908
G01 X10.6472 Y22.2835
G01 X10.6603 Y22.2769
G01 X10.7491 Y22.2349
G01 X10.7625 Y22.2290
G01 X10.7762 Y22.2237
G01 X10.8686 Y22.1906
G01 X10.8826 Y22.1860
G01 X10.8968 Y22.1821
G01 X10.9920 Y22.1582
G01 X11.0064 Y22.1550
G01 X11.0209 Y22.1525
G01 X11.1180 Y22.1381
G01 X11.1326 Y22.1363
G01 X11.1473 Y22.1352
G01 X11.2453 Y22.1304
G01 X11.2600 Y22.1300
G01 X11.2747 Y22.1304
G01 X11.3727 Y22.1352
G01 X11.3874 Y22.1363
G01 X11.4020 Y22.1381
G01 X11.4991 Y22.1525
G01 X11.5136 Y22.1550
G01 X11.5280 Y22.1582
G01 X11.6232 Y22.1821
G01 X11.6374 Y22.1860
G01 X11.6514 Y22.1906
G01 X11.7438 Y22.2237
G01 X11.7575 Y22.2290
G01 X11.7709 Y22.2349
G01 X11.8597 Y22.2769
G01 X11.8728 Y22.2835
G01 X11.8856 Y22.2908
G01 X11.9698 Y22.3412
G01 X11.9822 Y22.3491
G01 X11.9943 Y22.3576
G01 X12.0731 Y22.4160
G01 X12.0847 Y22.4251
G01 X12.0959 Y22.4347
G01 X12.1686 Y22.5006
G01 X12.1792 Y22.5108
G01 X12.1894 Y22.5214
G01 X12.2553 Y22.5941
G01 X12.2649 Y22.6053
G01 X12.2740 Y22.6169
G01 X12.3324 Y22.6957
G01 X12.3409 Y22.7078
G01 X12.3488 Y22.7202
G01 X12.3992 Y22.8044
G01 X12.4065 Y22.8172
G01 X12.4131 Y22.8303
G01 X12.4551 Y22.9191
G01 X12.4610 Y22.9325
G01 X12.4663 Y22.9462
G01 X12.4994 Y23.0386
G01 X12.5040 Y23.0526
G01 X12.5079 Y23.0668
G01 X12.5300 Y23.1549
G01 X12.5521 Y23.0668
G01 X12.5560 Y23.0526
G01 X12.5606 Y23.0386
G01 X12.5937 Y22.9462
G01 X12.5990 Y22.9325
G01 X12.6049 Y22.9191
G01 X12.6469 Y22.8303
G01 X12.6535 Y22.8172
G01 X12.6608 Y22.8044
G01 X12.7112 Y22.7202
G01 X12.7191 Y22.7078
G01 X12.7276 Y22.6957
G01 X12.7860 Y22.6169
G01 X12.7951 Y22.6053
G01 X12.8047 Y22.5941
G01 X12.8706 Y22.5214
G01 X12.8808 Y22.5108
G01 X12.8914 Y22.5006
G01 X12.9641 Y22.4347
G01 X12.9753 Y22.4251
G01 X12.9869 Y22.4160
G01 X13.0657 Y22.3576
G01 X13.0778 Y22.3491
G01 X13.0902 Y22.3412
G01 X13.1744 Y22.2908
G01 X13.1872 Y22.2835
G01 X13.2003 Y22.2769
G01 X13.2891 Y22.2349
G01 X13.3025 Y22.2290
G01 X13.3162 Y22.2237
G01 X13.4086 Y22.1906
G01 X13.4226 Y22.1860
G01 X13.4368 Y22.1821
G01 X13.5320 Y22.1582
G01 X13.5464 Y22.1550
G01 X13.5609 Y22.1525
G01 X13.6580 Y22.1381
G01 X13.6726 Y22.1363
G01 X13.6873 Y22.1352
G01 X13.7853 Y22.1304
G01 X13.8000 Y22.1300
G01 X13.8147 Y22.1304
G01 X13.9201 Y22.1356
G01 X13.9420 Y22.1381
G01 X14.0391 Y22.1525
G01 X14.0536 Y22.1550
G01 X14.0680 Y22.1582
G01 X14.1632 Y22.1821
G01 X14.1774 Y22.1860
G01 X14.1914 Y22.1906
G01 X14.2838 Y22.2237
G01 X14.2975 Y22.2290
G01 X14.3109 Y22.2349
G01 X14.3997 Y22.2769
G01 X14.4128 Y22.2835
G01 X14.4256 Y22.2908
G01 X14.5098 Y22.3412
G01 X14.5222 Y22.3491
G01 X14.5343 Y22.3576
G01 X14.6131 Y22.4160
G01 X14.6247 Y22.4251
G01 X14.6359 Y22.4347
G01 X14.7086 Y22.5006
G01 X14.7192 Y22.5108
G01 X14.7294 Y22.5214
G01 X14.7953 Y22.5941
G01 X14.8049 Y22.6053
G01 X14.8140 Y22.6169
G01 X14.8724 Y22.6957
G01 X14.8809 Y22.7078
G01 X14.8888 Y22.7202
G01 X14.9392 Y22.8044
G01 X14.9465 Y22.8172
G01 X14.9531 Y22.8303
G01 X14.9951 Y22.9191
G01 X15.0010 Y22.9325
G01 X15.0063 Y22.9462
G01 X15.0394 Y23.0386
G01 X15.0440 Y23.0526
G01 X15.0479 Y23.0668
G01 X15.0700 Y23.1549
G01 X15.0921 Y23.0668
G01 X15.0960 Y23.0526
G01 X15.1006 Y23.0386
G01 X15.1337 Y22.9462
G01 X15.1390 Y22.9325
G01 X15.1449 Y22.9191
G01 X15.1869 Y22.8303
G01 X15.1935 Y22.8172
G01 X15.2008 Y22.8044
G01 X15.2512 Y22.7202
G01 X15.2591 Y22.7078
G01 X15.2676 Y22.6957
G01 X15.3260 Y22.6169
G01 X15.3351 Y22.6053
G01 X15.3447 Y22.5941
G01 X15.4106 Y22.5214
G01 X15.4208 Y22.5108
G01 X15.4314 Y22.5006
G01 X15.5041 Y22.4347
G01 X15.5210 Y22.4205
G01 X15.6057 Y22.3576
G01 X15.6178 Y22.3491
G01 X15.6302 Y22.3412
G01 X15.7144 Y22.2908
G01 X15.7272 Y22.2835
G01 X15.7403 Y22.2769
G01 X15.8291 Y22.2349
G01 X15.8425 Y22.2290
G01 X15.8562 Y22.2237
G01 X15.9486 Y22.1906
G01 X15.9626 Y22.1860
G01 X15.9768 Y22.1821
G01 X16.0720 Y22.1582
G01 X16.0864 Y22.1550
G01 X16.1009 Y22.1525
G01 X16.1980 Y22.1381
G01 X16.2126 Y22.1363
G01 X16.2273 Y22.1352
G01 X16.3253 Y22.1304
G01 X16.3400 Y22.1300
G01 X16.3547 Y22.1304
G01 X16.4527 Y22.1352
G01 X16.4674 Y22.1363
G01 X16.4820 Y22.1381
G01 X16.5791 Y22.1525
G01 X16.5936 Y22.1550
G01 X16.6080 Y22.1582
G01 X16.7032 Y22.1821
G01 X16.7174 Y22.1860
G01 X16.7314 Y22.1906
G01 X16.8238 Y22.2237
G01 X16.8375 Y22.2290
G01 X16.8509 Y22.2349
G01 X16.9397 Y22.2769
G01 X16.9528 Y22.2835
G01 X16.9656 Y22.2908
G01 X17.0498 Y22.3412
G01 X17.0622 Y22.3491
G01 X17.0743 Y22.3576
G01 X17.1531 Y22.4160
G01 X17.1647 Y22.4251
G01 X17.1759 Y22.4347
G01 X17.2486 Y22.5006
G01 X17.2592 Y22.5108
G01 X17.2694 Y22.5214
G01 X17.3353 Y22.5941
G01 X17.3449 Y22.6053
G01 X17.3540 Y22.6169
G01 X17.4124 Y22.6957
G01 X17.4209 Y22.7078
G01 X17.4288 Y22.7202
G01 X17.4792 Y22.8044
G01 X17.4865 Y22.8172
G01 X17.4931 Y22.8303
G01 X17.5351 Y22.9191
G01 X17.5410 Y22.9325
G01 X17.5463 Y22.9462
G01 X17.5794 Y23.0386
G01 X17.5840 Y23.0526
G01 X17.5879 Y23.0668
G01 X17.6100 Y23.1549
G01 X17.6321 Y23.0668
G01 X17.6360 Y23.0526
G01 X17.6406 Y23.0386
G01 X17.6650 Y22.9705
G01 X17.5268 Y22.6370
G01 X17.1330 Y22.2432
G01 X16.6185 Y22.0301
G01 X16.0615 Y22.0301
G01 X15.5470 Y22.2432
G01 X15.3667 Y22.4234
G01 X15.3466 Y22.4416
G01 X15.3352 Y22.4510
G01 X15.3133 Y22.4672
G01 X15.3011 Y22.4753
G01 X15.2713 Y22.4929
G01 X15.2469 Y22.5048
G01 X15.2266 Y22.5135
G01 X15.1940 Y22.5249
G01 X15.1605 Y22.5336
G01 X15.1388 Y22.5376
G01 X15.1119 Y22.5412
G01 X15.0774 Y22.5432
G01 X15.0553 Y22.5429
G01 X15.0281 Y22.5412
G01 X15.0012 Y22.5376
G01 X14.9795 Y22.5336
G01 X14.9460 Y22.5249
G01 X14.9203 Y22.5161
G01 X14.8998 Y22.5079
G01 X14.8752 Y22.4963
G01 X14.8559 Y22.4856
G01 X14.8327 Y22.4713
G01 X14.8048 Y22.4510
G01 X14.7879 Y22.4367
G01 X14.7680 Y22.4182
G01 X14.5930 Y22.2432
G01 X14.0785 Y22.0301
G01 X13.5215 Y22.0301
G01 X13.0070 Y22.2432
G01 X12.8267 Y22.4234
G01 X12.8009 Y22.4464
G01 X12.7793 Y22.4628
G01 X12.7673 Y22.4713
G01 X12.7378 Y22.4893
G01 X12.7182 Y22.4995
G01 X12.6934 Y22.5108
G01 X12.6610 Y22.5227
G01 X12.6398 Y22.5288
G01 X12.6133 Y22.5351
G01 X12.5792 Y22.5404
G01 X12.5572 Y22.5423
G01 X12.5300 Y22.5433
G01 X12.4955 Y22.5419
G01 X12.4735 Y22.5394
G01 X12.4467 Y22.5351
G01 X12.4131 Y22.5270
G01 X12.3920 Y22.5203
G01 X12.3666 Y22.5108
G01 X12.3352 Y22.4963
G01 X12.3159 Y22.4856
G01 X12.2927 Y22.4713
G01 X12.2648 Y22.4510
G01 X12.2479 Y22.4367
G01 X12.2280 Y22.4182
G01 X12.0530 Y22.2432
G01 X11.5385 Y22.0301
G01 X10.9815 Y22.0301
G01 X10.4670 Y22.2432
G01 X10.0732 Y22.6370
G01 X9.8601 Y23.1515
G01 X9.8601 Y23.7085
G01 X10.0732 Y24.2230
G01 X10.2401 Y24.3901
G01 X10.2584 Y24.4102
G01 X10.2677 Y24.4216
G01 X10.2839 Y24.4434
G01 X10.2921 Y24.4557
G01 X10.3096 Y24.4855
G01 X10.3216 Y24.5099
G01 X10.3303 Y24.5302
G01 X10.3417 Y24.5628
G01 X10.3486 Y24.5891
G01 X10.3532 Y24.6107
G01 X10.3580 Y24.6449
G01 X10.3597 Y24.6720
G01 X10.3601 Y24.6868
G01 X10.3601 Y32.7905
G01 X10.3586 Y32.8250
G01 X10.3572 Y32.8397
G01 X10.3544 Y32.8593
G01 X10.3519 Y32.8738
G01 X10.3486 Y32.8882
G01 X10.3437 Y32.9074
G01 X10.3395 Y32.9215
G01 X10.3276 Y32.9539
G01 X10.3216 Y32.9674
G01 X10.3096 Y32.9918
G01 X10.2921 Y33.0216
G01 X10.2839 Y33.0339
G01 X10.2722 Y33.0498
G01 X10.2584 Y33.0671
G01 X10.2401 Y33.0872
G01 X10.2297 Y33.0976
G01 X10.2096 Y33.1159
G01 X10.1982 Y33.1252
G01 X10.1763 Y33.1414
G01 X10.1641 Y33.1496
G01 X10.1408 Y33.1636
G01 X10.1278 Y33.1705
G01 X10.1032 Y33.1822
G01 X10.0896 Y33.1878
G01 X10.0640 Y33.1970
G01 X10.0499 Y33.2012
G01 X10.0235 Y33.2078
G01 X10.0091 Y33.2107
G01 X9.9822 Y33.2147
G01 X9.9675 Y33.2162
G01 X9.9404 Y33.2175
G01 X9.9256 Y33.2175
G01 X9.8985 Y33.2162
G01 X9.8838 Y33.2147
G01 X9.8569 Y33.2107
G01 X9.8425 Y33.2078
G01 X9.8161 Y33.2012
G01 X9.8020 Y33.1970
G01 X9.7764 Y33.1878
G01 X9.7628 Y33.1822
G01 X9.7382 Y33.1705
G01 X9.7252 Y33.1636
G01 X9.7019 Y33.1496
G01 X9.6897 Y33.1414
G01 X9.6737 Y33.1297
G01 X9.6564 Y33.1159
G01 X9.6310 Y33.0925
G01 X7.4743 Y30.9358
G01 X7.4509 Y30.9104
G01 X7.4371 Y30.8931
G01 X7.4212 Y30.8711
G01 X7.0398 Y30.3002
G01 X6.9100 Y30.2134
G01 X6.8825 Y30.1926
G01 X6.8621 Y30.1746
G01 X6.8514 Y30.1645
G01 X6.5150 Y29.8281
G01 X6.4965 Y29.8082
G01 X6.4823 Y29.7913
G01 X6.4619 Y29.7634
G01 X6.4439 Y29.7339
G01 X6.4337 Y29.7143
G01 X6.4253 Y29.6963
G01 X6.4197 Y29.6827
G01 X6.4083 Y29.6501
G01 X6.3997 Y29.6166
G01 X6.3956 Y29.5949
G01 X6.3928 Y29.5753
G01 X6.3914 Y29.5606
G01 X6.3899 Y29.5261
G01 X6.3899 Y15.6937
G01 X6.3909 Y15.6665
G01 X6.3920 Y15.6518
G01 X6.3968 Y15.6176
G01 X6.3997 Y15.6031
G01 X6.4044 Y15.5839
G01 X6.4083 Y15.5697
G01 X6.4129 Y15.5557
G01 X6.4224 Y15.5302
G01 X6.4337 Y15.5055
G01 X6.4439 Y15.4859
G01 X6.4579 Y15.4626
G01 X6.4704 Y15.4444
G01 X6.4869 Y15.4227
G01 X6.4965 Y15.4116
G01 X6.5150 Y15.3917
G01 X6.5349 Y15.3732
G01 X6.5518 Y15.3589
G01 X6.5737 Y15.3427
G01 X6.5922 Y15.3307
G01 X6.6157 Y15.3170
G01 X6.6401 Y15.3051
G01 X6.6604 Y15.2964
G01 X6.6860 Y15.2872
G01 X6.7072 Y15.2811
G01 X6.7337 Y15.2748
G01 X6.7605 Y15.2705
G01 X6.7825 Y15.2680
G01 X6.8096 Y15.2667
G01 X6.8317 Y15.2670
G01 X6.8589 Y15.2687
G01 X6.8858 Y15.2723
G01 X6.9075 Y15.2763
G01 X6.9339 Y15.2829
G01 X6.9549 Y15.2896
G01 X6.9804 Y15.2991
G01 X7.0052 Y15.3104
G01 X7.0248 Y15.3206
G01 X7.0481 Y15.3346
G01 X7.0663 Y15.3470
G01 X7.0822 Y15.3589
G01 X7.0936 Y15.3683
G01 X7.1190 Y15.3917
G01 X10.2712 Y18.5439
G01 X10.2898 Y18.5638
G01 X10.3040 Y18.5807
G01 X10.3202 Y18.6026
G01 X10.3512 Y18.6488
G01 X10.6489 Y18.8477
G01 X11.0000 Y18.9176
G01 X11.0546 Y18.9068
G01 X11.0815 Y18.9028
G01 X11.1035 Y18.9009
G01 X11.1307 Y18.8999
G01 X26.8034 Y18.9000
G01 X26.8379 Y18.9020
G01 X26.8649 Y18.9056
G01 X26.8794 Y18.9081
G01 X26.8938 Y18.9114
G01 X26.9200 Y18.9183
G01 X26.9458 Y18.9271
G01 X26.9595 Y18.9324
G01 X26.9730 Y18.9384
G01 X26.9974 Y18.9504
G01 X27.0272 Y18.9679
G01 X27.0394 Y18.9761
G01 X27.0613 Y18.9923
G01 X27.0726 Y19.0016
G01 X27.0897 Y19.0170
G01 X27.5313 Y19.1999
G01 X28.0087 Y19.1999
G01 X28.4497 Y19.0173
G01 X28.7873 Y18.6797
G01 X28.9699 Y18.2387
G01 X28.9699 Y17.7613
G01 X28.7873 Y17.3203
G01 X28.4497 Y16.9827
G01 X28.0091 Y16.8002
G01 X27.5309 Y16.8002
G01 X27.0897 Y16.9830
G01 X27.0726 Y16.9984
G01 X27.0613 Y17.0077
G01 X27.0394 Y17.0239
G01 X27.0272 Y17.0321
G01 X26.9974 Y17.0496
G01 X26.9730 Y17.0616
G01 X26.9595 Y17.0676
G01 X26.9458 Y17.0729
G01 X26.9200 Y17.0817
G01 X26.8938 Y17.0886
G01 X26.8794 Y17.0919
G01 X26.8649 Y17.0944
G01 X26.8379 Y17.0980
G01 X26.8034 Y17.1000
G01 X11.5497 Y17.1001
G01 X11.5151 Y17.0986
G01 X11.5005 Y17.0972
G01 X11.4809 Y17.0944
G01 X11.4663 Y17.0919
G01 X11.4520 Y17.0886
G01 X11.4328 Y17.0837
G01 X11.4187 Y17.0795
G01 X11.3931 Y17.0703
G01 X11.3728 Y17.0616
G01 X11.3483 Y17.0496
G01 X11.3248 Y17.0360
G01 X11.3063 Y17.0239
G01 X11.2845 Y17.0077
G01 X11.2676 Y16.9935
G01 X11.2477 Y16.9750
G01 X8.5650 Y14.2923
G01 X8.5416 Y14.2669
G01 X8.5278 Y14.2497
G01 X8.5119 Y14.2276
G01 X8.4939 Y14.1981
G01 X8.4837 Y14.1785
G01 X8.4724 Y14.1538
G01 X8.4629 Y14.1283
G01 X8.4563 Y14.1072
G01 X8.4497 Y14.0809
G01 X8.4456 Y14.0591
G01 X8.4420 Y14.0322
G01 X8.4403 Y14.0051
G01 X8.4399 Y13.9903
G01 X8.4399 Y13.0325
G01 X8.4414 Y12.9980
G01 X8.4438 Y12.9761
G01 X8.4481 Y12.9492
G01 X8.4544 Y12.9227
G01 X8.4583 Y12.9086
G01 X8.4629 Y12.8946
G01 X8.4724 Y12.8691
G01 X8.4837 Y12.8444
G01 X8.4904 Y12.8312
G01 X8.5040 Y12.8077
G01 X8.5119 Y12.7953
G01 X8.7174 Y12.4877
G01 X8.7938 Y12.1039
G01 X8.7899 Y12.0247
G01 X8.7895 Y12.0100
G01 X8.7899 Y11.9953
G01 X8.7945 Y11.9000
G01 X8.7174 Y11.5123
G01 X8.4412 Y11.0988
G01 X8.0277 Y10.8226
G01 X7.8555 Y10.7882
G01 X7.8220 Y10.7796
G01 X7.7894 Y10.7682
G01 X7.7691 Y10.7595
G01 X7.7447 Y10.7475
G01 X7.7318 Y10.7403
G01 X7.7087 Y10.7260
G01 X7.6867 Y10.7101
G01 X7.6750 Y10.7010
G01 X7.6547 Y10.6830
G01 X7.6389 Y10.6676
G01 X7.6158 Y10.6418
G01 X7.5994 Y10.6202
G01 X7.5869 Y10.6020
G01 X7.5693 Y10.5722
G01 X7.5574 Y10.5478
G01 X7.5487 Y10.5275
G01 X7.5373 Y10.4949
G01 X7.5303 Y10.4686
G01 X7.5258 Y10.4470
G01 X7.5210 Y10.4128
G01 X7.5193 Y10.3856
G01 X7.5190 Y10.3635
G01 X7.5210 Y10.3290
G01 X7.5246 Y10.3021
G01 X7.5286 Y10.2804
G01 X7.5352 Y10.2540
G01 X7.5395 Y10.2399
G01 X7.5461 Y10.2212
G01 X7.5514 Y10.2075
G01 X7.5574 Y10.1940
G01 X7.5659 Y10.1761
G01 X7.5729 Y10.1631
G01 X7.5869 Y10.1398
G01 X7.5950 Y10.1276
G01 X7.6158 Y10.1000
G01 X7.6389 Y10.0742
G01 X7.6932 Y10.0199
G01 X7.7189 Y9.9969
G01 X7.7465 Y9.9761
G01 X7.7650 Y9.9640
G01 X7.7821 Y9.9539
G01 X7.7951 Y9.9470
G01 X7.8264 Y9.9324
G01 X7.8589 Y9.9205
G01 X7.8730 Y9.9163
G01 X7.8922 Y9.9114
G01 X7.9066 Y9.9081
G01 X7.9211 Y9.9056
G01 X7.9407 Y9.9028
G01 X7.9553 Y9.9014
G01 X7.9899 Y9.8999
G01 X12.6461 Y9.8999
G01 X12.6608 Y9.9003
G01 X12.6880 Y9.9020
G01 X12.7149 Y9.9056
G01 X12.7366 Y9.9097
G01 X12.7701 Y9.9183
G01 X12.7958 Y9.9271
G01 X12.8163 Y9.9353
G01 X12.8474 Y9.9504
G01 X12.8772 Y9.9679
G01 X12.8954 Y9.9804
G01 X12.9171 Y9.9969
G01 X12.9428 Y10.0199
G01 X15.8889 Y12.9658
G01 X16.3587 Y13.2797
G01 X17.1000 Y13.4272
G01 X17.8682 Y13.2743
G01 X17.9024 Y13.2690
G01 X17.9244 Y13.2671
G01 X17.9516 Y13.2661
G01 X18.4179 Y13.2661
G01 X18.6160 Y13.2267
G01 X18.7483 Y13.1383
G01 X18.7793 Y13.0922
G01 X18.7910 Y13.0762
G01 X18.8048 Y13.0590
G01 X18.8231 Y13.0388
G01 X18.8389 Y13.0234
G01 X18.8593 Y13.0054
G01 X18.8809 Y12.9889
G01 X18.8991 Y12.9764
G01 X18.9289 Y12.9589
G01 X18.9533 Y12.9469
G01 X18.9736 Y12.9382
G01 X19.0062 Y12.9268
G01 X19.0397 Y12.9182
G01 X19.0614 Y12.9141
G01 X19.0810 Y12.9113
G01 X19.0957 Y12.9099
G01 X19.1302 Y12.9084
G01 X19.1574 Y12.9094
G01 X19.1794 Y12.9113
G01 X19.2063 Y12.9153
G01 X19.2279 Y12.9199
G01 X19.2542 Y12.9268
G01 X19.2799 Y12.9357
G01 X19.3004 Y12.9439
G01 X19.3250 Y12.9555
G01 X19.3443 Y12.9661
G01 X19.3675 Y12.9804
G01 X19.6623 Y13.1774
G01 X20.0269 Y13.2499
G01 X20.2731 Y13.2499
G01 X20.6377 Y13.1774
G01 X21.0512 Y12.9012
G01 X21.3274 Y12.4877
G01 X21.4244 Y12.0000
G01 X21.3274 Y11.5123
G01 X21.1219 Y11.2047
G01 X21.1076 Y11.1816
G01 X21.1004 Y11.1688
G01 X21.0884 Y11.1444
G01 X21.0824 Y11.1309
G01 X21.0771 Y11.1172
G01 X21.0683 Y11.0914
G01 X21.0614 Y11.0652
G01 X21.0581 Y11.0508
G01 X21.0538 Y11.0239
G01 X21.0514 Y11.0020
G01 X21.0499 Y10.9675
G01 X21.0500 Y9.3196
G01 X21.0514 Y9.2925
G01 X21.0538 Y9.2705
G01 X21.0581 Y9.2437
G01 X21.0644 Y9.2172
G01 X21.0705 Y9.1960
G01 X21.0797 Y9.1704
G01 X21.0853 Y9.1568
G01 X21.0970 Y9.1322
G01 X21.1076 Y9.1129
G01 X21.1219 Y9.0897
G01 X21.1378 Y9.0677
G01 X21.1469 Y9.0561
G01 X21.1649 Y9.0357
G01 X21.1803 Y9.0199
G01 X21.2004 Y9.0016
G01 X21.2177 Y8.9878
G01 X21.2397 Y8.9719
G01 X21.2629 Y8.9576
G01 X21.2822 Y8.9470
G01 X21.3068 Y8.9353
G01 X21.3273 Y8.9271
G01 X21.3530 Y8.9183
G01 X21.3793 Y8.9114
G01 X21.4009 Y8.9068
G01 X21.4351 Y8.9020
G01 X21.4623 Y8.9003
G01 X21.4770 Y8.8999
G01 X22.4503 Y8.8999
G01 X22.4651 Y8.9003
G01 X22.4922 Y8.9020
G01 X22.5191 Y8.9056
G01 X22.5337 Y8.9081
G01 X22.5672 Y8.9163
G01 X22.5813 Y8.9205
G01 X22.6000 Y8.9271
G01 X22.6138 Y8.9324
G01 X22.6272 Y8.9384
G01 X22.6451 Y8.9470
G01 X22.6581 Y8.9539
G01 X22.6876 Y8.9719
G01 X22.7097 Y8.9878
G01 X22.7213 Y8.9969
G01 X22.7470 Y9.0199
G01 X26.6801 Y12.9530
G01 X26.7031 Y12.9787
G01 X26.7122 Y12.9903
G01 X26.7281 Y13.0124
G01 X26.7424 Y13.0355
G01 X26.7496 Y13.0483
G01 X26.7563 Y13.0615
G01 X26.7676 Y13.0862
G01 X26.7771 Y13.1117
G01 X26.7817 Y13.1257
G01 X26.7903 Y13.1591
G01 X26.7932 Y13.1736
G01 X26.7972 Y13.2005
G01 X26.7986 Y13.2151
G01 X26.7998 Y13.2381
G01 X26.9827 Y13.6797
G01 X27.3203 Y14.0173
G01 X27.7613 Y14.1999
G01 X28.2387 Y14.1999
G01 X28.6797 Y14.0173
G01 X29.0173 Y13.6797
G01 X29.1999 Y13.2387
G01 X29.1999 Y12.7613
G01 X29.0173 Y12.3203
G01 X28.6797 Y11.9827
G01 X28.2381 Y11.7998
G01 X28.2151 Y11.7986
G01 X28.2005 Y11.7972
G01 X28.1736 Y11.7932
G01 X28.1591 Y11.7903
G01 X28.1257 Y11.7817
G01 X28.1117 Y11.7771
G01 X28.0862 Y11.7676
G01 X28.0615 Y11.7563
G01 X28.0483 Y11.7496
G01 X28.0186 Y11.7321
G01 X28.0063 Y11.7239
G01 X27.9845 Y11.7077
G01 X27.9731 Y11.6984
G01 X27.9583 Y11.6851
G01 X27.9477 Y11.6750
G01 X23.7288 Y7.4561
G01 X23.7102 Y7.4362
G01 X23.6960 Y7.4193
G01 X23.6798 Y7.3974
G01 X23.6488 Y7.3512
G01 X23.3511 Y7.1523
G01 X23.0000 Y7.0824
G01 X22.9454 Y7.0932
G01 X22.9185 Y7.0972
G01 X22.8965 Y7.0991
G01 X22.8693 Y7.1001
G01 X20.1307 Y7.1001
G01 X20.1035 Y7.0991
G01 X20.0815 Y7.0972
G01 X20.0546 Y7.0932
G01 X20.0000 Y7.0824
G01 X19.6489 Y7.1523
G01 X19.3512 Y7.3512
G01 X19.1523 Y7.6489
G01 X19.0824 Y8.0000
G01 X19.1523 Y8.3511
G01 X19.1821 Y8.3959
G01 X19.1961 Y8.4193
G01 X19.2030 Y8.4323
G01 X19.2116 Y8.4501
G01 X19.2203 Y8.4704
G01 X19.2317 Y8.5031
G01 X19.2403 Y8.5365
G01 X19.2432 Y8.5510
G01 X19.2462 Y8.5706
G01 X19.2486 Y8.5925
G01 X19.2501 Y8.6270
G01 X19.2501 Y9.9221
G01 X19.2491 Y9.9493
G01 X19.2480 Y9.9640
G01 X19.2462 Y9.9786
G01 X19.2419 Y10.0054
G01 X19.2356 Y10.0319
G01 X19.2317 Y10.0461
G01 X19.2271 Y10.0601
G01 X19.2176 Y10.0856
G01 X19.2063 Y10.1103
G01 X19.1996 Y10.1234
G01 X19.1821 Y10.1532
G01 X19.1739 Y10.1655
G01 X19.1577 Y10.1873
G01 X19.1484 Y10.1987
G01 X19.1301 Y10.2188
G01 X19.1197 Y10.2292
G01 X19.0996 Y10.2475
G01 X19.0882 Y10.2569
G01 X19.0723 Y10.2687
G01 X19.0603 Y10.2772
G01 X19.0478 Y10.2851
G01 X19.0308 Y10.2952
G01 X19.0112 Y10.3054
G01 X18.9932 Y10.3138
G01 X18.9796 Y10.3194
G01 X18.9540 Y10.3286
G01 X18.9328 Y10.3347
G01 X18.9135 Y10.3395
G01 X18.8991 Y10.3423
G01 X18.8722 Y10.3463
G01 X18.8575 Y10.3478
G01 X18.8304 Y10.3491
G01 X18.8156 Y10.3491
G01 X18.7885 Y10.3478
G01 X18.7738 Y10.3463
G01 X18.7397 Y10.3410
G01 X18.7253 Y10.3378
G01 X18.6990 Y10.3308
G01 X18.6664 Y10.3194
G01 X18.6528 Y10.3138
G01 X18.6348 Y10.3054
G01 X18.6217 Y10.2988
G01 X18.6089 Y10.2915
G01 X18.5919 Y10.2812
G01 X18.5797 Y10.2731
G01 X18.5521 Y10.2523
G01 X18.5409 Y10.2426
G01 X18.5210 Y10.2241
G01 X15.1155 Y6.8186
G01 X15.0970 Y6.7987
G01 X15.0874 Y6.7875
G01 X15.0666 Y6.7600
G01 X14.9798 Y6.6302
G01 X14.3513 Y6.2103
G01 X13.6100 Y6.0628
G01 X13.4569 Y6.0932
G01 X13.4227 Y6.0980
G01 X13.3955 Y6.0997
G01 X13.3808 Y6.1001
G01 X7.2552 Y6.1001
G01 X7.2405 Y6.0997
G01 X7.2133 Y6.0980
G01 X7.1791 Y6.0932
G01 X7.0260 Y6.0628
G01 X6.2847 Y6.2103
G01 X5.6562 Y6.6302
G01 X5.5694 Y6.7600
G01 X5.5486 Y6.7876
G01 X5.5306 Y6.8079
G01 X5.5205 Y6.8186
G01 X3.3086 Y9.0305
G01 X3.2979 Y9.0406
G01 X3.2775 Y9.0586
G01 X3.2500 Y9.0794
G01 X3.1202 Y9.1662
G01 X2.7003 Y9.7947
G01 X2.5528 Y10.5360
G01 X2.5832 Y10.6891
G01 X2.5880 Y10.7233
G01 X2.5897 Y10.7505
G01 X2.5901 Y10.7652
G01 X2.5901 Y30.2608
G01 X2.5897 Y30.2755
G01 X2.5880 Y30.3027
G01 X2.5832 Y30.3369
G01 X2.5528 Y30.4900
G01 X2.7003 Y31.2313
G01 X3.1202 Y31.8598
G01 X3.2500 Y31.9466
G01 X3.2775 Y31.9674
G01 X3.3033 Y31.9904
G01 X3.8657 Y32.5526
G01 X3.8842 Y32.5725
G01 X3.8984 Y32.5894
G01 X3.9188 Y32.6173
G01 X4.3002 Y33.1882
G01 X4.4300 Y33.2750
G01 X4.4575 Y33.2958
G01 X4.4779 Y33.3138
G01 X4.4886 Y33.3239
G01 X17.3661 Y46.2014
G01 X17.3762 Y46.2121
G01 X17.3942 Y46.2324
G01 X17.4150 Y46.2600
G01 X17.5018 Y46.3898
G01 X18.1303 Y46.8097
G01 X18.8716 Y46.9572
G01 X19.0247 Y46.9268
G01 X19.0589 Y46.9220
G01 X19.0861 Y46.9203
G01 X19.1008 Y46.9199
G01 X29.2530 Y46.9199
G01 X29.2677 Y46.9203
G01 X29.2949 Y46.9220
G01 X29.3218 Y46.9256
G01 X29.3363 Y46.9281
G01 X29.3507 Y46.9314
G01 X29.3770 Y46.9383
G01 X29.4096 Y46.9497
G01 X29.4232 Y46.9553
G01 X29.4478 Y46.9670
G01 X29.4608 Y46.9739
G01 X29.4841 Y46.9879
G01 X29.4963 Y46.9961
G01 X29.5182 Y47.0123
G01 X29.5296 Y47.0216
G01 X29.5443 Y47.0349
G01 X29.5601 Y47.0503
G01 X29.5784 Y47.0704
G01 X29.5877 Y47.0818
G01 X29.6039 Y47.1037
G01 X29.6121 Y47.1159
G01 X29.6261 Y47.1392
G01 X29.6330 Y47.1522
G01 X29.6447 Y47.1768
G01 X29.6503 Y47.1904
G01 X29.6595 Y47.2160
G01 X29.6637 Y47.2301
G01 X29.6703 Y47.2565
G01 X29.6732 Y47.2709
G01 X29.6772 Y47.2978
G01 X29.6786 Y47.3125
G01 X29.6800 Y47.3396
G01 X29.6801 Y53.6808
G01 X29.6797 Y53.6955
G01 X29.6780 Y53.7227
G01 X29.6732 Y53.7569
G01 X29.6428 Y53.9100
G01 X29.7903 Y54.6513
G01 X30.2102 Y55.2798
G01 X30.3400 Y55.3666
G01 X30.3675 Y55.3874
G01 X30.3879 Y55.4054
G01 X30.3986 Y55.4155
G01 X31.9750 Y56.9919
G01 X31.9984 Y57.0173
G01 X32.0077 Y57.0287
G01 X32.0196 Y57.0446
G01 X32.0281 Y57.0566
G01 X32.0360 Y57.0691
G01 X32.0461 Y57.0861
G01 X32.0530 Y57.0991
G01 X32.0647 Y57.1237
G01 X32.0729 Y57.1442
G01 X32.0817 Y57.1699
G01 X32.0886 Y57.1962
G01 X32.0932 Y57.2178
G01 X32.0972 Y57.2447
G01 X32.0986 Y57.2594
G01 X32.1000 Y57.2865
G01 X32.1001 Y59.1771
G01 X32.2103 Y59.7313
G01 X32.6302 Y60.3598
G01 X33.2587 Y60.7797
G01 X34.0000 Y60.9272
G01 X34.7413 Y60.7797
G01 X35.3698 Y60.3598
G01 X35.7897 Y59.7313
G01 X35.8999 Y59.1771
G01 X35.9000 Y56.5518
G01 X35.9020 Y56.5173
G01 X35.9068 Y56.4831
G01 X35.9372 Y56.3300
G01 X35.7897 Y55.5887
G01 X35.3698 Y54.9602
G01 X35.2400 Y54.8734
G01 X35.2125 Y54.8526
G01 X35.1867 Y54.8296
G01 X33.5999 Y53.2428
G01 X33.5769 Y53.2171
G01 X33.5604 Y53.1954
G01 X33.5519 Y53.1834
G01 X33.5339 Y53.1539
G01 X33.5270 Y53.1409
G01 X33.5184 Y53.1230
G01 X33.5124 Y53.1096
G01 X33.5071 Y53.0958
G01 X33.5005 Y53.0771
G01 X33.4963 Y53.0630
G01 X33.4881 Y53.0294
G01 X33.4828 Y52.9953
G01 X33.4809 Y52.9733
G01 X33.4799 Y52.9461
G01 X33.4799 Y45.2492
G01 X33.4809 Y45.2220
G01 X33.4820 Y45.2073
G01 X33.4868 Y45.1731
G01 X33.5172 Y45.0200
G01 X33.4868 Y44.8669
G01 X33.4820 Y44.8327
G01 X33.4803 Y44.8055
G01 X33.4799 Y44.7908
G01 X33.4799 Y34.5539
G01 X33.4803 Y34.5392
G01 X33.4820 Y34.5120
G01 X33.4838 Y34.4974
G01 X33.4881 Y34.4706
G01 X33.4963 Y34.4370
G01 X33.5005 Y34.4229
G01 X33.5071 Y34.4042
G01 X33.5124 Y34.3904
G01 X33.5184 Y34.3770
G01 X33.5270 Y34.3591
G01 X33.5339 Y34.3461
G01 X33.5519 Y34.3166
G01 X33.5678 Y34.2946
G01 X33.5769 Y34.2829
G01 X33.5999 Y34.2572
G01 X38.2707 Y29.5862
G01 X38.3276 Y29.4488
G01 X38.3389 Y29.4241
G01 X38.3455 Y29.4109
G01 X38.3592 Y29.3874
G01 X38.3671 Y29.3750
G01 X38.4497 Y29.2513
G01 X38.4787 Y29.1055
G01 X38.4850 Y29.0790
G01 X38.4889 Y29.0648
G01 X38.4935 Y29.0508
G01 X38.5030 Y29.0253
G01 X38.5599 Y28.8879
G01 X38.5599 Y28.7392
G01 X38.5609 Y28.7120
G01 X38.5620 Y28.6973
G01 X38.5656 Y28.6704
G01 X38.5681 Y28.6559
G01 X38.5972 Y28.5100
G01 X38.5681 Y28.3641
G01 X38.5638 Y28.3373
G01 X38.5620 Y28.3227
G01 X38.5603 Y28.2955
G01 X38.5599 Y28.2808
G01 X38.5599 Y28.1321
G01 X38.5030 Y27.9947
G01 X38.4935 Y27.9692
G01 X38.4889 Y27.9552
G01 X38.4850 Y27.9410
G01 X38.4787 Y27.9145
G01 X38.4497 Y27.7687
G01 X38.3671 Y27.6450
G01 X38.3528 Y27.6219
G01 X38.3455 Y27.6091
G01 X38.3336 Y27.5847
G01 X38.3276 Y27.5712
G01 X38.2707 Y27.4338
G01 X38.1655 Y27.3286
G01 X38.1470 Y27.3087
G01 X38.1374 Y27.2975
G01 X38.1209 Y27.2759
G01 X38.1124 Y27.2639
G01 X38.0298 Y27.1402
G01 X37.9061 Y27.0576
G01 X37.8841 Y27.0417
G01 X37.8725 Y27.0326
G01 X37.8521 Y27.0146
G01 X37.8414 Y27.0045
G01 X37.7362 Y26.8993
G01 X37.5988 Y26.8424
G01 X37.5741 Y26.8311
G01 X37.5609 Y26.8245
G01 X37.5374 Y26.8108
G01 X37.5250 Y26.8029
G01 X37.4013 Y26.7203
G01 X37.2555 Y26.6913
G01 X37.2290 Y26.6850
G01 X37.2148 Y26.6811
G01 X37.2008 Y26.6765
G01 X37.1753 Y26.6670
G01 X37.0379 Y26.6101
G01 X36.8892 Y26.6101
G01 X36.8620 Y26.6091
G01 X36.8473 Y26.6080
G01 X36.8204 Y26.6044
G01 X36.8059 Y26.6019
G01 X36.6600 Y26.5728
G01 X36.5141 Y26.6019
G01 X36.4873 Y26.6062
G01 X36.4727 Y26.6080
G01 X36.4455 Y26.6097
G01 X36.4308 Y26.6101
G01 X36.2821 Y26.6101
G01 X36.1447 Y26.6670
G01 X36.1192 Y26.6765
G01 X36.1052 Y26.6811
G01 X36.0910 Y26.6850
G01 X36.0645 Y26.6913
G01 X35.9187 Y26.7203
G01 X35.7950 Y26.8029
G01 X35.7719 Y26.8172
G01 X35.7591 Y26.8245
G01 X35.7347 Y26.8364
G01 X35.7212 Y26.8424
G01 X35.5838 Y26.8993
G01 X30.3986 Y32.0845
G01 X30.3879 Y32.0946
G01 X30.3675 Y32.1126
G01 X30.3400 Y32.1334
G01 X30.2102 Y32.2202
G01 X29.7903 Y32.8487
G01 X29.6428 Y33.5900
G01 X29.6732 Y33.7431
G01 X29.6780 Y33.7773
G01 X29.6797 Y33.8045
G01 X29.6801 Y33.8192
G01 X29.6801 Y42.6930
G01 X29.6797 Y42.7077
G01 X29.6786 Y42.7275
G01 X29.6772 Y42.7422
G01 X29.6719 Y42.7763
G01 X29.6637 Y42.8099
G01 X29.6595 Y42.8240
G01 X29.6529 Y42.8427
G01 X29.6476 Y42.8564
G01 X29.6416 Y42.8699
G01 X29.6330 Y42.8878
G01 X29.6261 Y42.9008
G01 X29.6081 Y42.9303
G01 X29.5877 Y42.9582
G01 X29.5784 Y42.9696
G01 X29.5651 Y42.9843
G01 X29.5550 Y42.9950
G01 X29.5443 Y43.0051
G01 X29.5296 Y43.0184
G01 X29.5182 Y43.0277
G01 X29.4903 Y43.0481
G01 X29.4608 Y43.0661
G01 X29.4412 Y43.0763
G01 X29.4232 Y43.0847
G01 X29.4096 Y43.0903
G01 X29.3770 Y43.1017
G01 X29.3435 Y43.1103
G01 X29.3291 Y43.1132
G01 X29.3095 Y43.1162
G01 X29.2875 Y43.1186
G01 X29.2530 Y43.1201
G01 X19.8355 Y43.1201
G01 X19.8208 Y43.1197
G01 X19.7936 Y43.1180
G01 X19.7667 Y43.1144
G01 X19.7450 Y43.1103
G01 X19.7186 Y43.1037
G01 X19.7045 Y43.0995
G01 X19.6789 Y43.0903
G01 X19.6586 Y43.0816
G01 X19.6407 Y43.0730
G01 X19.6277 Y43.0661
G01 X19.6044 Y43.0521
G01 X19.5921 Y43.0439
G01 X19.5646 Y43.0231
G01 X19.5534 Y43.0135
G01 X19.5335 Y42.9950
G01 X11.7524 Y35.2137
G01 X11.7341 Y35.1936
G01 X11.7203 Y35.1763
G01 X11.7044 Y35.1543
G01 X11.6901 Y35.1311
G01 X11.6795 Y35.1118
G01 X11.6678 Y35.0872
G01 X11.6596 Y35.0667
G01 X11.6508 Y35.0410
G01 X11.6439 Y35.0147
G01 X11.6393 Y34.9931
G01 X11.6353 Y34.9662
G01 X11.6334 Y34.9442
G01 X11.6324 Y34.9170
G01 X11.6334 Y34.8898
G01 X11.6353 Y34.8678
G01 X11.6393 Y34.8409
G01 X11.6422 Y34.8265
G01 X11.6469 Y34.8072
G01 X11.6508 Y34.7930
G01 X11.6554 Y34.7790
G01 X11.6622 Y34.7604
G01 X11.6678 Y34.7468
G01 X11.6795 Y34.7222
G01 X11.6864 Y34.7092
G01 X11.7044 Y34.6797
G01 X11.7203 Y34.6577
G01 X11.7294 Y34.6461
G01 X11.7524 Y34.6203
G01 X11.7628 Y34.6099
G01 X11.7774 Y34.5965
G01 X11.7886 Y34.5869
G01 X11.8002 Y34.5778
G01 X11.8161 Y34.5661
G01 X11.8284 Y34.5579
G01 X11.8582 Y34.5404
G01 X11.8713 Y34.5337
G01 X11.8961 Y34.5224
G01 X11.9098 Y34.5171
G01 X11.9355 Y34.5083
G01 X11.9690 Y34.4997
G01 X11.9834 Y34.4968
G01 X12.0030 Y34.4938
G01 X12.0176 Y34.4920
G01 X12.0323 Y34.4909
G01 X12.0595 Y34.4899
G01 X22.4918 Y34.4899
G01 X22.5190 Y34.4909
G01 X22.5410 Y34.4928
G01 X22.5679 Y34.4968
G01 X22.6225 Y34.5076
G01 X22.9737 Y34.4377
G01 X23.2713 Y34.2388
G01 X23.3024 Y34.1926
G01 X23.3186 Y34.1707
G01 X23.3328 Y34.1538
G01 X23.3513 Y34.1339
G01 X36.4739 Y21.0113
G01 X36.4938 Y20.9928
G01 X36.5107 Y20.9786
G01 X36.5326 Y20.9624
G01 X36.5788 Y20.9313
G01 X36.7777 Y20.6337
G01 X36.8476 Y20.2825
G01 X36.8368 Y20.2279
G01 X36.8338 Y20.2083
G01 X36.8314 Y20.1864
G01 X36.8300 Y20.1592
G01 X36.8299 Y19.5071
G01 X36.8309 Y19.4799
G01 X36.8328 Y19.4579
G01 X36.8381 Y19.4238
G01 X36.8414 Y19.4094
G01 X36.8483 Y19.3831
G01 X36.8597 Y19.3505
G01 X36.8653 Y19.3369
G01 X36.8737 Y19.3189
G01 X36.8804 Y19.3058
G01 X36.8876 Y19.2930
G01 X36.8979 Y19.2760
G01 X36.9061 Y19.2638
G01 X36.9269 Y19.2362
G01 X36.9365 Y19.2250
G01 X36.9550 Y19.2051
G01 X36.9749 Y19.1866
G01 X36.9861 Y19.1770
G01 X36.9977 Y19.1679
G01 X37.0197 Y19.1520
G01 X37.0322 Y19.1441
G01 X37.0557 Y19.1305
G01 X37.0801 Y19.1185
G01 X37.0936 Y19.1125
G01 X37.1190 Y19.1030
G01 X37.1330 Y19.0984
G01 X37.1472 Y19.0945
G01 X37.1737 Y19.0882
G01 X37.2005 Y19.0839
G01 X37.2151 Y19.0821
G01 X37.2423 Y19.0804
G01 X37.2570 Y19.0800
G01 X37.2717 Y19.0804
G01 X37.2989 Y19.0821
G01 X37.3258 Y19.0857
G01 X37.3475 Y19.0898
G01 X37.3810 Y19.0984
G01 X37.4067 Y19.1072
G01 X37.4272 Y19.1154
G01 X37.4557 Y19.1291
G01 X37.8118 Y19.1999
G01 X38.0482 Y19.1999
G01 X38.3982 Y19.1303
G01 X38.7951 Y18.8651
G01 X39.0603 Y18.4682
G01 X39.1159 Y18.1885
G01 X39.1222 Y18.1621
G01 X39.1283 Y18.1409
G01 X39.1375 Y18.1153
G01 X39.1431 Y18.1017
G01 X39.1548 Y18.0771
G01 X39.1617 Y18.0641
G01 X39.1757 Y18.0408
G01 X39.1839 Y18.0285
G01 X39.2001 Y18.0067
G01 X39.2143 Y17.9898
G01 X39.2328 Y17.9699
G01 X42.2839 Y14.9188
G01 X42.3038 Y14.9002
G01 X42.3207 Y14.8860
G01 X42.3426 Y14.8698
G01 X42.3888 Y14.8388
G01 X42.5877 Y14.5411
G01 X42.6576 Y14.1900
G01 X42.6468 Y14.1354
G01 X42.6428 Y14.1085
G01 X42.6409 Y14.0865
G01 X42.6399 Y14.0593
G01 X42.6399 Y7.1896
G01 X42.6403 Y7.1749
G01 X42.6420 Y7.1478
G01 X42.6468 Y7.1135
G01 X42.6514 Y7.0919
G01 X42.6583 Y7.0656
G01 X42.6697 Y7.0330
G01 X42.6784 Y7.0127
G01 X42.6904 Y6.9883
G01 X42.7079 Y6.9585
G01 X42.7204 Y6.9403
G01 X42.7369 Y6.9187
G01 X42.7549 Y6.8983
G01 X42.7650 Y6.8876
G01 X43.0964 Y6.5563
G01 X43.2504 Y6.1843
G01 X43.2650 Y6.1529
G01 X43.2719 Y6.1400
G01 X43.2859 Y6.1166
G01 X43.2941 Y6.1044
G01 X43.3103 Y6.0826
G01 X43.3196 Y6.0712
G01 X43.3379 Y6.0510
G01 X43.3483 Y6.0406
G01 X43.3629 Y6.0272
G01 X43.3741 Y6.0176
G01 X43.3857 Y6.0085
G01 X43.4017 Y5.9968
G01 X43.4139 Y5.9886
G01 X43.4437 Y5.9711
G01 X43.4568 Y5.9645
G01 X43.4816 Y5.9532
G01 X43.5070 Y5.9437
G01 X43.5210 Y5.9391
G01 X43.5545 Y5.9304
G01 X43.5689 Y5.9275
G01 X43.5885 Y5.9245
G01 X43.6031 Y5.9227
G01 X43.6178 Y5.9216
G01 X43.6376 Y5.9208
G01 X43.6524 Y5.9208
G01 X43.6869 Y5.9227
G01 X43.7138 Y5.9264
G01 X43.7283 Y5.9289
G01 X43.7619 Y5.9370
G01 X43.7760 Y5.9413
G01 X43.8016 Y5.9504
G01 X43.8152 Y5.9561
G01 X43.8332 Y5.9645
G01 X43.8463 Y5.9711
G01 X43.8591 Y5.9783
G01 X43.8761 Y5.9886
G01 X43.8883 Y5.9968
G01 X43.9102 Y6.0130
G01 X43.9271 Y6.0272
G01 X43.9470 Y6.0457
G01 X43.9655 Y6.0657
G01 X43.9797 Y6.0826
G01 X43.9959 Y6.1044
G01 X44.0080 Y6.1229
G01 X44.0216 Y6.1464
G01 X44.0283 Y6.1596
G01 X44.0396 Y6.1843
G01 X44.1936 Y6.5563
G01 X44.5301 Y6.8929
G01 X44.5484 Y6.9130
G01 X44.5577 Y6.9244
G01 X44.5739 Y6.9463
G01 X44.5821 Y6.9585
G01 X44.5996 Y6.9883
G01 X44.6116 Y7.0127
G01 X44.6203 Y7.0330
G01 X44.6317 Y7.0656
G01 X44.6403 Y7.0991
G01 X44.6444 Y7.1208
G01 X44.6480 Y7.1478
G01 X44.6500 Y7.1822
G01 X44.6501 Y9.3293
G01 X44.6491 Y9.3565
G01 X44.6472 Y9.3785
G01 X44.6432 Y9.4054
G01 X44.6324 Y9.4600
G01 X44.6432 Y9.5146
G01 X44.6472 Y9.5415
G01 X44.6491 Y9.5635
G01 X44.6501 Y9.5907
G01 X44.6501 Y18.7993
G01 X44.6491 Y18.8265
G01 X44.6472 Y18.8485
G01 X44.6432 Y18.8754
G01 X44.6324 Y18.9300
G01 X44.6432 Y18.9846
G01 X44.6472 Y19.0115
G01 X44.6491 Y19.0335
G01 X44.6501 Y19.0607
G01 X44.6501 Y34.0393
G01 X44.6491 Y34.0665
G01 X44.6472 Y34.0885
G01 X44.6432 Y34.1154
G01 X44.6324 Y34.1700
G01 X44.6432 Y34.2246
G01 X44.6472 Y34.2515
G01 X44.6491 Y34.2735
G01 X44.6501 Y34.3007
G01 X44.6501 Y45.4693
G01 X44.6491 Y45.4965
G01 X44.6472 Y45.5185
G01 X44.6432 Y45.5454
G01 X44.6324 Y45.6000
G01 X44.7023 Y45.9511
G01 X44.9012 Y46.2488
G01 X44.9474 Y46.2798
G01 X44.9693 Y46.2960
G01 X44.9862 Y46.3102
G01 X45.0061 Y46.3288
G01 X54.4012 Y55.7239
G01 X54.4198 Y55.7438
G01 X54.4340 Y55.7607
G01 X54.4502 Y55.7826
G01 X54.4812 Y55.8288
G01 X54.7789 Y56.0277
G01 X55.1300 Y56.0976
G01 X55.1846 Y56.0868
G01 X55.2115 Y56.0828
G01 X55.2335 Y56.0809
G01 X55.2607 Y56.0799
G01 X55.4615 Y56.0800
G01 X55.4960 Y56.0820
G01 X55.5229 Y56.0856
G01 X55.5374 Y56.0881
G01 X55.5518 Y56.0914
G01 X55.5781 Y56.0983
G01 X55.6107 Y56.1097
G01 X55.6243 Y56.1153
G01 X55.6489 Y56.1270
G01 X55.6619 Y56.1339
G01 X55.6789 Y56.1440
G01 X55.6914 Y56.1519
G01 X55.7034 Y56.1604
G01 X55.7193 Y56.1723
G01 X55.7307 Y56.1816
G01 X55.7561 Y56.2050
G01 X55.7746 Y56.2249
G01 X55.7842 Y56.2361
G01 X55.8050 Y56.2637
G01 X55.8417 Y56.3183
G01 X55.8878 Y56.3493
G01 X55.9097 Y56.3655
G01 X55.9210 Y56.3748
G01 X55.9358 Y56.3881
G01 X55.9465 Y56.3982
G01 X55.9566 Y56.4089
G01 X55.9699 Y56.4237
G01 X55.9837 Y56.4409
G01 X55.9996 Y56.4630
G01 X56.0139 Y56.4861
G01 X56.0245 Y56.5054
G01 X56.0361 Y56.5300
G01 X56.0418 Y56.5436
G01 X56.0485 Y56.5623
G01 X56.0552 Y56.5833
G01 X56.0618 Y56.6097
G01 X56.0647 Y56.6241
G01 X56.0687 Y56.6510
G01 X56.0701 Y56.6657
G01 X56.0715 Y56.6929
G01 X56.0715 Y56.7076
G01 X56.0701 Y56.7347
G01 X56.0677 Y56.7567
G01 X56.0633 Y56.7835
G01 X56.0601 Y56.7979
G01 X56.0532 Y56.8242
G01 X56.0443 Y56.8499
G01 X56.0390 Y56.8636
G01 X56.0331 Y56.8771
G01 X56.0211 Y56.9015
G01 X56.0075 Y56.9250
G01 X55.9996 Y56.9375
G01 X55.8026 Y57.2323
G01 X55.7056 Y57.7200
G01 X55.8026 Y58.2077
G01 X56.0788 Y58.6212
G01 X56.4923 Y58.8974
G01 X56.8569 Y58.9699
G01 X57.1031 Y58.9699
G01 X57.4677 Y58.8974
G01 X57.7753 Y58.6919
G01 X57.7984 Y58.6776
G01 X57.8112 Y58.6704
G01 X57.8244 Y58.6637
G01 X57.8491 Y58.6524
G01 X57.8746 Y58.6429
G01 X57.8956 Y58.6363
G01 X57.9220 Y58.6297
G01 X57.9437 Y58.6256
G01 X57.9707 Y58.6220
G01 X57.9978 Y58.6203
G01 X58.0125 Y58.6199
G01 X64.4693 Y58.6199
G01 X64.4965 Y58.6209
G01 X64.5185 Y58.6228
G01 X64.5454 Y58.6268
G01 X64.6000 Y58.6376
G01 X64.9511 Y58.5677
G01 X65.2488 Y58.3688
G01 X65.2798 Y58.3226
G01 X65.2960 Y58.3007
G01 X65.3102 Y58.2838
G01 X65.3288 Y58.2639
G01 X66.4139 Y57.1788
G01 X66.4338 Y57.1602
G01 X66.4507 Y57.1460
G01 X66.4726 Y57.1298
G01 X66.5188 Y57.0988
G01 X66.7429 Y56.7634
G01 X66.7514 Y56.7514
G01 X66.7679 Y56.7298
G01 X66.7909 Y56.7040
G01 X66.8013 Y56.6936
G01 X66.8159 Y56.6802
G01 X66.8328 Y56.6660
G01 X66.8607 Y56.6456
G01 X66.8839 Y56.6313
G01 X66.8967 Y56.6241
G01 X66.9278 Y56.6090
G01 X66.9414 Y56.6034
G01 X66.9600 Y56.5966
G01 X66.9740 Y56.5920
G01 X66.9882 Y56.5881
G01 X67.0075 Y56.5834
G01 X67.0219 Y56.5805
G01 X67.0561 Y56.5757
G01 X67.0833 Y56.5740
G01 X67.0980 Y56.5736
G01 X67.1127 Y56.5740
G01 X67.1399 Y56.5757
G01 X67.1741 Y56.5805
G01 X67.1885 Y56.5834
G01 X67.2078 Y56.5881
G01 X67.2220 Y56.5920
G01 X67.2360 Y56.5966
G01 X67.2546 Y56.6034
G01 X67.2682 Y56.6090
G01 X67.2993 Y56.6241
G01 X67.3228 Y56.6377
G01 X67.3353 Y56.6456
G01 X67.3632 Y56.6660
G01 X67.3801 Y56.6802
G01 X67.4000 Y56.6987
G01 X67.4101 Y56.7094
G01 X67.4281 Y56.7298
G01 X67.4446 Y56.7514
G01 X67.4531 Y56.7634
G01 X67.4674 Y56.7866
G01 X67.4780 Y56.8059
G01 X67.4897 Y56.8305
G01 X67.4979 Y56.8510
G01 X67.5067 Y56.8767
G01 X67.5136 Y56.9030
G01 X67.5182 Y56.9246
G01 X67.5222 Y56.9515
G01 X67.5236 Y56.9662
G01 X67.5250 Y56.9933
G01 X67.5251 Y63.0980
G01 X67.5236 Y63.1325
G01 X67.5212 Y63.1545
G01 X67.5182 Y63.1741
G01 X67.5153 Y63.1885
G01 X67.5067 Y63.2220
G01 X67.4953 Y63.2546
G01 X67.4897 Y63.2682
G01 X67.4813 Y63.2862
G01 X67.4746 Y63.2993
G01 X67.4674 Y63.3121
G01 X67.4571 Y63.3291
G01 X67.4489 Y63.3413
G01 X67.4327 Y63.3632
G01 X67.4185 Y63.3801
G01 X67.4000 Y63.4000
G01 X67.3801 Y63.4185
G01 X67.3632 Y63.4327
G01 X67.3413 Y63.4489
G01 X67.3228 Y63.4610
G01 X67.2993 Y63.4746
G01 X67.2749 Y63.4866
G01 X67.2546 Y63.4953
G01 X67.2220 Y63.5067
G01 X67.1957 Y63.5136
G01 X67.1741 Y63.5182
G01 X67.1472 Y63.5222
G01 X67.1252 Y63.5241
G01 X67.0980 Y63.5251
G01 X0.9020 Y63.5251
G01 X0.8873 Y63.5247
G01 X0.8601 Y63.5230
G01 X0.8332 Y63.5194
G01 X0.8187 Y63.5169
G01 X0.8043 Y63.5136
G01 X0.7780 Y63.5067
G01 X0.7640 Y63.5021
G01 X0.7386 Y63.4926
G01 X0.7138 Y63.4813
G01 X0.7007 Y63.4746
G01 X0.6879 Y63.4674
G01 X0.6647 Y63.4531
G01 X0.6427 Y63.4372
G01 X0.6311 Y63.4281
G01 X0.6199 Y63.4185
G01 X0.6000 Y63.4000
G01 X0.5815 Y63.3801
G01 X0.5719 Y63.3689
G01 X0.5628 Y63.3573
G01 X0.5469 Y63.3353
G01 X0.5326 Y63.3121
G01 X0.5254 Y63.2993
G01 X0.5187 Y63.2862
G01 X0.5074 Y63.2614
G01 X0.4979 Y63.2360
G01 X0.4933 Y63.2220
G01 X0.4894 Y63.2078
G01 X0.4831 Y63.1813
G01 X0.4806 Y63.1668
G01 X0.4770 Y63.1399
G01 X0.4753 Y63.1127
G01 X0.4749 Y63.0980
G01 X0.4749 Y0.9020
G01 X0.4753 Y0.8873
G01 X0.4770 Y0.8601
G01 X0.4788 Y0.8455
G01 X0.4831 Y0.8187
G01 X0.4879 Y0.7983
G01 X0.4933 Y0.7780
G01 X0.5021 Y0.7523
G01 X0.5074 Y0.7386
G01 X0.5134 Y0.7251
G01 X0.5254 Y0.7007
G01 X0.5358 Y0.6825
G01 X0.5469 Y0.6647
G01 X0.5591 Y0.6477
G01 X0.5719 Y0.6311
G01 X0.5899 Y0.6107
G01 X0.6053 Y0.5949
G01 X0.6311 Y0.5719
G01 X0.6427 Y0.5628
G01 X0.6647 Y0.5469
G01 X0.6825 Y0.5358
G01 X0.7007 Y0.5254
G01 X0.7251 Y0.5134
G01 X0.7386 Y0.5074
G01 X0.7523 Y0.5021
G01 X0.7780 Y0.4933
G01 X0.7983 Y0.4879
G01 X0.8187 Y0.4831
G01 X0.8455 Y0.4788
G01 X0.8601 Y0.4770
G01 X0.8873 Y0.4753
G01 X0.9020 Y0.4749
G01 X67.0980 Y0.4749
G01 X67.1325 Y0.4764
G01 X67.1545 Y0.4788
G01 X67.1741 Y0.4818
G01 X67.1885 Y0.4847
G01 X67.2220 Y0.4933
G01 X67.2546 Y0.5047
G01 X67.2682 Y0.5103
G01 X67.2862 Y0.5187
G01 X67.2993 Y0.5254
G01 X67.3121 Y0.5326
G01 X67.3291 Y0.5429
G01 X67.3413 Y0.5511
G01 X67.3632 Y0.5673
G01 X67.3801 Y0.5815
G01 X67.4000 Y0.6000
G01 X67.4185 Y0.6199
G01 X67.4327 Y0.6368
G01 X67.4489 Y0.6587
G01 X67.4610 Y0.6772
G01 X67.4746 Y0.7007
G01 X67.4866 Y0.7251
G01 X67.4953 Y0.7454
G01 X67.5045 Y0.7710
G01 X67.5106 Y0.7922
G01 X67.5169 Y0.8187
G01 X67.5212 Y0.8455
G01 X67.5236 Y0.8675
G01 X67.5250 Y0.8946
G01 X67.5250 Y10.1867
G01 X67.5230 Y10.2212
G01 X67.5182 Y10.2554
G01 X67.5153 Y10.2698
G01 X67.5106 Y10.2891
G01 X67.5067 Y10.3033
G01 X67.5021 Y10.3172
G01 X67.4953 Y10.3359
G01 X67.4897 Y10.3495
G01 X67.4746 Y10.3806
G01 X67.4674 Y10.3934
G01 X67.4531 Y10.4166
G01 X67.4327 Y10.4445
G01 X67.4234 Y10.4559
G01 X67.4101 Y10.4706
G01 X67.4000 Y10.4813
G01 X67.3893 Y10.4914
G01 X67.3746 Y10.5047
G01 X67.3632 Y10.5140
G01 X67.3353 Y10.5344
G01 X67.3058 Y10.5524
G01 X67.2928 Y10.5593
G01 X67.2749 Y10.5679
G01 X67.2614 Y10.5739
G01 X67.2477 Y10.5792
G01 X67.2290 Y10.5857
G01 X67.2149 Y10.5900
G01 X67.1885 Y10.5966
G01 X67.1668 Y10.6007
G01 X67.1399 Y10.6043
G01 X67.1054 Y10.6063
G01 X67.0833 Y10.6060
G01 X67.0561 Y10.6043
G01 X67.0219 Y10.5995
G01 X67.0003 Y10.5949
G01 X66.9740 Y10.5880
G01 X66.9414 Y10.5766
G01 X66.9211 Y10.5679
G01 X66.8967 Y10.5559
G01 X66.8732 Y10.5423
G01 X66.8547 Y10.5302
G01 X66.8271 Y10.5094
G01 X66.8067 Y10.4914
G01 X66.7909 Y10.4760
G01 X66.7726 Y10.4559
G01 X66.7633 Y10.4445
G01 X66.7471 Y10.4226
G01 X66.5188 Y10.0812
G01 X66.4726 Y10.0502
G01 X66.4566 Y10.0384
G01 X66.4394 Y10.0246
G01 X66.4192 Y10.0064
G01 X65.6199 Y9.2070
G01 X65.6016 Y9.1869
G01 X65.5923 Y9.1755
G01 X65.5761 Y9.1537
G01 X65.5640 Y9.1352
G01 X65.5504 Y9.1117
G01 X65.5384 Y9.0872
G01 X65.5297 Y9.0669
G01 X65.5229 Y9.0483
G01 X65.5183 Y9.0343
G01 X65.5144 Y9.0201
G01 X65.5097 Y9.0009
G01 X65.5068 Y8.9864
G01 X65.5020 Y8.9522
G01 X65.5009 Y8.9375
G01 X65.4999 Y8.9103
G01 X65.4999 Y7.1896
G01 X65.5003 Y7.1749
G01 X65.5020 Y7.1478
G01 X65.5068 Y7.1135
G01 X65.5114 Y7.0919
G01 X65.5183 Y7.0656
G01 X65.5297 Y7.0330
G01 X65.5384 Y7.0127
G01 X65.5504 Y6.9883
G01 X65.5679 Y6.9585
G01 X65.5804 Y6.9403
G01 X65.5969 Y6.9187
G01 X65.6149 Y6.8983
G01 X65.6250 Y6.8876
G01 X65.9564 Y6.5563
G01 X66.1999 Y5.9682
G01 X66.1999 Y5.3318
G01 X65.9564 Y4.7437
G01 X65.5063 Y4.2936
G01 X64.9182 Y4.0501
G01 X64.2818 Y4.0501
G01 X63.6937 Y4.2936
G01 X63.2436 Y4.7437
G01 X63.0896 Y5.1157
G01 X63.0836 Y5.1292
G01 X63.0716 Y5.1536
G01 X63.0541 Y5.1834
G01 X63.0459 Y5.1956
G01 X63.0342 Y5.2116
G01 X63.0251 Y5.2232
G01 X63.0155 Y5.2343
G01 X63.0021 Y5.2490
G01 X62.9917 Y5.2594
G01 X62.9716 Y5.2777
G01 X62.9602 Y5.2870
G01 X62.9383 Y5.3032
G01 X62.9261 Y5.3114
G01 X62.9028 Y5.3254
G01 X62.8898 Y5.3323
G01 X62.8652 Y5.3439
G01 X62.8516 Y5.3496
G01 X62.8260 Y5.3587
G01 X62.8119 Y5.3630
G01 X62.7855 Y5.3696
G01 X62.7711 Y5.3725
G01 X62.7442 Y5.3765
G01 X62.7222 Y5.3784
G01 X62.7024 Y5.3792
G01 X62.6803 Y5.3790
G01 X62.6531 Y5.3773
G01 X62.6262 Y5.3736
G01 X62.6045 Y5.3696
G01 X62.5781 Y5.3630
G01 X62.5640 Y5.3587
G01 X62.5384 Y5.3496
G01 X62.5181 Y5.3409
G01 X62.4937 Y5.3289
G01 X62.4809 Y5.3217
G01 X62.4577 Y5.3074
G01 X62.4357 Y5.2915
G01 X62.4241 Y5.2824
G01 X62.4037 Y5.2644
G01 X62.3879 Y5.2490
G01 X62.3649 Y5.2232
G01 X62.3441 Y5.1956
G01 X62.3359 Y5.1834
G01 X62.3256 Y5.1664
G01 X62.3184 Y5.1536
G01 X62.3117 Y5.1404
G01 X62.3004 Y5.1157
G01 X62.1464 Y4.7437
G01 X61.6963 Y4.2936
G01 X61.1082 Y4.0501
G01 X60.4718 Y4.0501
G01 X59.8837 Y4.2936
G01 X59.4336 Y4.7437
G01 X59.2796 Y5.1157
G01 X59.2736 Y5.1292
G01 X59.2616 Y5.1536
G01 X59.2441 Y5.1834
G01 X59.2359 Y5.1956
G01 X59.2242 Y5.2116
G01 X59.2151 Y5.2232
G01 X59.2055 Y5.2343
G01 X59.1921 Y5.2490
G01 X59.1817 Y5.2594
G01 X59.1616 Y5.2777
G01 X59.1502 Y5.2870
G01 X59.1283 Y5.3032
G01 X59.1161 Y5.3114
G01 X59.0928 Y5.3254
G01 X59.0798 Y5.3323
G01 X59.0552 Y5.3439
G01 X59.0416 Y5.3496
G01 X59.0160 Y5.3587
G01 X59.0019 Y5.3630
G01 X58.9755 Y5.3696
G01 X58.9611 Y5.3725
G01 X58.9342 Y5.3765
G01 X58.9195 Y5.3779
G01 X58.8924 Y5.3792
G01 X58.8703 Y5.3790
G01 X58.8431 Y5.3773
G01 X58.8162 Y5.3736
G01 X58.7945 Y5.3696
G01 X58.7681 Y5.3630
G01 X58.7540 Y5.3587
G01 X58.7284 Y5.3496
G01 X58.7081 Y5.3409
G01 X58.6837 Y5.3289
G01 X58.6709 Y5.3217
G01 X58.6477 Y5.3074
G01 X58.6257 Y5.2915
G01 X58.6141 Y5.2824
G01 X58.5937 Y5.2644
G01 X58.5779 Y5.2490
G01 X58.5549 Y5.2232
G01 X58.5341 Y5.1956
G01 X58.5259 Y5.1834
G01 X58.5156 Y5.1664
G01 X58.5084 Y5.1536
G01 X58.5017 Y5.1404
G01 X58.4904 Y5.1157
G01 X58.3364 Y4.7437
G01 X57.8863 Y4.2936
G01 X57.2982 Y4.0501
G01 X56.6618 Y4.0501
G01 X56.0737 Y4.2936
G01 X55.6236 Y4.7437
G01 X55.4696 Y5.1157
G01 X55.4636 Y5.1292
G01 X55.4516 Y5.1536
G01 X55.4341 Y5.1834
G01 X55.4216 Y5.2016
G01 X55.4097 Y5.2174
G01 X55.4004 Y5.2288
G01 X55.3770 Y5.2543
G01 X55.3571 Y5.2728
G01 X55.3459 Y5.2824
G01 X55.3343 Y5.2915
G01 X55.3123 Y5.3074
G01 X55.2891 Y5.3217
G01 X55.2763 Y5.3289
G01 X55.2632 Y5.3355
G01 X55.2384 Y5.3468
G01 X55.2130 Y5.3563
G01 X55.1990 Y5.3609
G01 X55.1727 Y5.3679
G01 X55.1583 Y5.3711
G01 X55.1242 Y5.3765
G01 X55.1022 Y5.3784
G01 X55.0750 Y5.3793
G01 X55.0478 Y5.3784
G01 X55.0258 Y5.3765
G01 X54.9989 Y5.3725
G01 X54.9773 Y5.3679
G01 X54.9510 Y5.3609
G01 X54.9253 Y5.3521
G01 X54.9048 Y5.3439
G01 X54.8802 Y5.3323
G01 X54.8609 Y5.3217
G01 X54.8377 Y5.3074
G01 X54.8157 Y5.2915
G01 X54.8041 Y5.2824
G01 X54.7837 Y5.2644
G01 X54.7679 Y5.2490
G01 X54.7449 Y5.2232
G01 X54.7241 Y5.1956
G01 X54.7159 Y5.1834
G01 X54.7056 Y5.1664
G01 X54.6984 Y5.1536
G01 X54.6917 Y5.1404
G01 X54.6804 Y5.1157
G01 X54.5264 Y4.7437
G01 X54.0763 Y4.2936
G01 X53.4882 Y4.0501
G01 X52.8518 Y4.0501
G01 X52.2637 Y4.2936
G01 X51.8136 Y4.7437
G01 X51.5701 Y5.3318
G01 X51.5701 Y5.9682
G01 X51.8136 Y6.5563
G01 X52.1450 Y6.8876
G01 X52.1551 Y6.8983
G01 X52.1684 Y6.9130
G01 X52.1777 Y6.9244
G01 X52.1981 Y6.9523
G01 X52.2161 Y6.9818
G01 X52.2230 Y6.9948
G01 X52.2316 Y7.0127
G01 X52.2376 Y7.0262
G01 X52.2429 Y7.0399
G01 X52.2495 Y7.0586
G01 X52.2556 Y7.0798
G01 X52.2603 Y7.0991
G01 X52.2632 Y7.1135
G01 X52.2672 Y7.1404
G01 X52.2686 Y7.1551
G01 X52.2701 Y7.1896
G01 X52.2700 Y7.2237
G01 X52.2686 Y7.2509
G01 X52.2672 Y7.2655
G01 X52.2632 Y7.2924
G01 X52.2524 Y7.3471
G01 X52.3223 Y7.6982
G01 X52.5212 Y7.9959
G01 X52.5674 Y8.0269
G01 X52.5893 Y8.0431
G01 X52.6062 Y8.0573
G01 X52.6261 Y8.0758
G01 X58.4950 Y13.9447
G01 X58.5135 Y13.9646
G01 X58.5277 Y13.9815
G01 X58.5439 Y14.0034
G01 X58.5560 Y14.0219
G01 X58.5696 Y14.0454
G01 X58.5816 Y14.0698
G01 X58.5903 Y14.0901
G01 X58.5995 Y14.1157
G01 X58.6056 Y14.1369
G01 X58.6103 Y14.1562
G01 X58.6132 Y14.1706
G01 X58.6180 Y14.2049
G01 X58.6200 Y14.2394
G01 X58.6201 Y15.4779
G01 X58.6197 Y15.4926
G01 X58.6180 Y15.5198
G01 X58.6144 Y15.5467
G01 X58.6119 Y15.5612
G01 X58.6056 Y15.5877
G01 X58.5995 Y15.6089
G01 X58.5903 Y15.6345
G01 X58.5816 Y15.6548
G01 X58.5696 Y15.6792
G01 X58.5560 Y15.7028
G01 X58.5439 Y15.7213
G01 X58.5277 Y15.7431
G01 X58.5184 Y15.7545
G01 X58.5001 Y15.7746
G01 X58.4843 Y15.7901
G01 X58.4639 Y15.8081
G01 X58.4423 Y15.8245
G01 X58.4303 Y15.8330
G01 X58.4008 Y15.8510
G01 X58.3878 Y15.8580
G01 X58.3699 Y15.8665
G01 X58.3496 Y15.8752
G01 X58.3170 Y15.8866
G01 X58.2835 Y15.8953
G01 X58.2618 Y15.8993
G01 X58.2422 Y15.9021
G01 X58.2275 Y15.9036
G01 X58.1930 Y15.9050
G01 X58.1783 Y15.9046
G01 X58.1511 Y15.9029
G01 X58.1242 Y15.8993
G01 X58.1025 Y15.8953
G01 X58.0690 Y15.8866
G01 X58.0433 Y15.8778
G01 X58.0228 Y15.8696
G01 X58.0048 Y15.8612
G01 X57.9912 Y15.8543
G01 X57.7879 Y15.8139
G01 X56.1721 Y15.8139
G01 X55.9740 Y15.8533
G01 X55.8417 Y15.9417
G01 X55.8092 Y15.9903
G01 X55.8007 Y16.0023
G01 X55.7842 Y16.0239
G01 X55.7662 Y16.0443
G01 X55.7508 Y16.0601
G01 X55.7250 Y16.0831
G01 X55.7034 Y16.0996
G01 X55.6852 Y16.1121
G01 X55.6554 Y16.1296
G01 X55.6310 Y16.1416
G01 X55.6107 Y16.1503
G01 X55.5781 Y16.1617
G01 X55.5518 Y16.1686
G01 X55.5302 Y16.1732
G01 X55.4960 Y16.1780
G01 X55.4688 Y16.1797
G01 X55.4541 Y16.1801
G01 X53.7197 Y16.1801
G01 X53.7049 Y16.1797
G01 X53.6851 Y16.1786
G01 X53.6705 Y16.1772
G01 X53.6363 Y16.1719
G01 X53.6028 Y16.1637
G01 X53.5887 Y16.1595
G01 X53.5700 Y16.1529
G01 X53.5562 Y16.1476
G01 X53.5428 Y16.1416
G01 X53.5249 Y16.1330
G01 X53.5119 Y16.1261
G01 X53.4824 Y16.1081
G01 X53.4545 Y16.0877
G01 X53.4376 Y16.0735
G01 X53.4177 Y16.0550
G01 X46.5750 Y9.2123
G01 X46.5516 Y9.1869
G01 X46.5423 Y9.1755
G01 X46.5261 Y9.1537
G01 X46.5179 Y9.1414
G01 X46.5076 Y9.1245
G01 X46.5004 Y9.1117
G01 X46.4937 Y9.0985
G01 X46.4853 Y9.0805
G01 X46.4797 Y9.0669
G01 X46.4683 Y9.0343
G01 X46.4644 Y9.0201
G01 X46.4581 Y8.9937
G01 X46.4528 Y8.9595
G01 X46.4514 Y8.9449
G01 X46.4503 Y8.9251
G01 X46.4499 Y8.9103
G01 X46.4499 Y7.1896
G01 X46.4503 Y7.1749
G01 X46.4520 Y7.1478
G01 X46.4568 Y7.1135
G01 X46.4614 Y7.0919
G01 X46.4683 Y7.0656
G01 X46.4797 Y7.0330
G01 X46.4884 Y7.0127
G01 X46.5004 Y6.9883
G01 X46.5179 Y6.9585
G01 X46.5304 Y6.9403
G01 X46.5469 Y6.9187
G01 X46.5649 Y6.8983
G01 X46.5750 Y6.8876
G01 X46.9064 Y6.5563
G01 X47.1499 Y5.9682
G01 X47.1499 Y5.3318
G01 X46.9064 Y4.7437
G01 X46.4563 Y4.2936
G01 X45.8682 Y4.0501
G01 X45.3997 Y4.0501
G01 X45.3725 Y4.0491
G01 X45.3578 Y4.0480
G01 X45.3309 Y4.0444
G01 X45.3091 Y4.0403
G01 X45.2757 Y4.0317
G01 X45.2500 Y4.0229
G01 X45.2295 Y4.0147
G01 X45.1983 Y3.9996
G01 X45.1748 Y3.9860
G01 X45.1563 Y3.9739
G01 X45.1287 Y3.9531
G01 X45.1176 Y3.9435
G01 X45.0977 Y3.9250
G01 X43.8788 Y2.7061
G01 X43.8602 Y2.6862
G01 X43.8460 Y2.6693
G01 X43.8298 Y2.6474
G01 X43.7988 Y2.6012
G01 X43.5011 Y2.4023
G01 X43.1500 Y2.3324
G01 X43.0954 Y2.3432
G01 X43.0685 Y2.3472
G01 X43.0465 Y2.3491
G01 X43.0193 Y2.3501
G01 X28.2807 Y2.3501
G01 X28.2535 Y2.3491
G01 X28.2315 Y2.3472
G01 X28.2046 Y2.3432
G01 X28.1500 Y2.3324
G01 X27.7989 Y2.4023
G01 X27.5012 Y2.6012
G01 X27.4702 Y2.6474
G01 X27.4540 Y2.6693
G01 X27.4398 Y2.6862
G01 X27.4212 Y2.7061
G01 X27.3608 Y2.7664
G01 X27.3406 Y2.7846
G01 X27.3293 Y2.7940
G01 X27.3074 Y2.8102
G01 X27.2612 Y2.8412
G01 X27.0623 Y3.1389
G01 X26.9924 Y3.4900
G01 X27.0032 Y3.5446
G01 X27.0072 Y3.5715
G01 X27.0091 Y3.5935
G01 X27.0101 Y3.6207
G01 X27.0101 Y7.7235
G01 X27.0091 Y7.7507
G01 X27.0072 Y7.7727
G01 X27.0032 Y7.7996
G01 X26.9924 Y7.8542
G01 X27.0623 Y8.2053
G01 X27.2612 Y8.5030
G01 X27.3074 Y8.5340
G01 X27.3293 Y8.5502
G01 X27.3462 Y8.5644
G01 X27.3661 Y8.5829
G01 X30.9750 Y12.1919
G01 X30.9851 Y12.2025
G01 X31.0031 Y12.2229
G01 X31.0196 Y12.2445
G01 X31.0321 Y12.2627
G01 X31.0461 Y12.2861
G01 X31.0530 Y12.2991
G01 X31.0647 Y12.3236
G01 X31.0729 Y12.3441
G01 X31.0795 Y12.3628
G01 X31.0837 Y12.3769
G01 X31.0903 Y12.4033
G01 X31.0932 Y12.4178
G01 X31.0980 Y12.4520
G01 X31.0997 Y12.4791
G01 X31.1001 Y12.4938
G01 X31.1001 Y18.8545
G01 X31.0997 Y18.8692
G01 X31.0980 Y18.8964
G01 X31.0944 Y18.9233
G01 X31.0903 Y18.9450
G01 X31.0837 Y18.9714
G01 X31.0771 Y18.9925
G01 X31.0676 Y19.0179
G01 X31.0563 Y19.0427
G01 X31.0496 Y19.0558
G01 X31.0424 Y19.0686
G01 X31.0321 Y19.0856
G01 X31.0239 Y19.0979
G01 X31.0031 Y19.1254
G01 X30.9935 Y19.1366
G01 X30.9750 Y19.1565
G01 X22.6465 Y27.4850
G01 X22.6358 Y27.4951
G01 X22.6154 Y27.5131
G01 X22.5938 Y27.5296
G01 X22.5818 Y27.5381
G01 X22.5693 Y27.5460
G01 X22.5458 Y27.5596
G01 X22.5214 Y27.5716
G01 X22.5011 Y27.5803
G01 X22.4685 Y27.5917
G01 X22.4543 Y27.5956
G01 X22.4278 Y27.6019
G01 X22.4133 Y27.6044
G01 X22.3864 Y27.6080
G01 X22.3592 Y27.6097
G01 X22.3445 Y27.6101
G01 X17.6670 Y27.6101
G01 X17.6325 Y27.6086
G01 X17.6105 Y27.6062
G01 X17.5837 Y27.6019
G01 X17.5501 Y27.5937
G01 X17.5290 Y27.5871
G01 X17.5036 Y27.5776
G01 X17.4722 Y27.5630
G01 X17.4529 Y27.5524
G01 X17.4297 Y27.5381
G01 X17.4077 Y27.5222
G01 X17.3904 Y27.5084
G01 X17.3703 Y27.4901
G01 X17.3549 Y27.4743
G01 X17.3369 Y27.4539
G01 X17.3204 Y27.4323
G01 X17.3079 Y27.4141
G01 X17.2939 Y27.3908
G01 X17.2837 Y27.3712
G01 X17.2724 Y27.3464
G01 X17.2605 Y27.3140
G01 X17.2544 Y27.2928
G01 X17.2481 Y27.2663
G01 X17.2438 Y27.2395
G01 X17.2414 Y27.2175
G01 X17.2399 Y27.1830
G01 X17.2399 Y24.6868
G01 X17.2403 Y24.6720
G01 X17.2420 Y24.6449
G01 X17.2456 Y24.6180
G01 X17.2497 Y24.5962
G01 X17.2563 Y24.5699
G01 X17.2629 Y24.5488
G01 X17.2724 Y24.5233
G01 X17.2837 Y24.4986
G01 X17.2904 Y24.4855
G01 X17.3040 Y24.4619
G01 X17.3161 Y24.4434
G01 X17.3323 Y24.4216
G01 X17.3465 Y24.4047
G01 X17.3650 Y24.3848
G01 X17.5268 Y24.2230
G01 X17.6650 Y23.8895
G01 X17.6406 Y23.8214
G01 X17.6360 Y23.8074
G01 X17.6321 Y23.7932
G01 X17.6100 Y23.7051
G01 X17.5879 Y23.7932
G01 X17.5840 Y23.8074
G01 X17.5794 Y23.8214
G01 X17.5463 Y23.9138
G01 X17.5410 Y23.9275
G01 X17.5351 Y23.9409
G01 X17.4931 Y24.0297
G01 X17.4865 Y24.0428
G01 X17.4792 Y24.0556
G01 X17.4249 Y24.1461
G01 X17.4124 Y24.1643
G01 X17.3540 Y24.2431
G01 X17.3449 Y24.2547
G01 X17.3353 Y24.2659
G01 X17.2694 Y24.3386
G01 X17.2592 Y24.3492
G01 X17.2486 Y24.3594
G01 X17.1759 Y24.4253
G01 X17.1590 Y24.4395
G01 X17.1403 Y24.4535
G01 X17.1403 Y27.7097
G01 X22.5627 Y27.7097
G01 X31.1997 Y19.0727
G01 X31.1997 Y12.2757
G01 X27.3390 Y8.4148
G01 X27.3010 Y8.3730
G01 X27.2914 Y8.3618
G01 X27.2823 Y8.3502
G01 X27.2531 Y8.3108
G01 X27.2446 Y8.2988
G01 X27.2367 Y8.2863
G01 X27.2115 Y8.2442
G01 X27.2042 Y8.2314
G01 X27.1976 Y8.2183
G01 X27.1766 Y8.1739
G01 X27.1707 Y8.1604
G01 X27.1654 Y8.1467
G01 X27.1488 Y8.1005
G01 X27.1442 Y8.0865
G01 X27.1403 Y8.0723
G01 X27.1267 Y8.0175
G01 X27.1226 Y7.9958
G01 X27.1154 Y7.9472
G01 X27.1136 Y7.9326
G01 X27.1125 Y7.9179
G01 X27.1101 Y7.8689
G01 X27.1097 Y7.8542
G01 X27.1097 Y3.4900
G01 X27.1101 Y3.4753
G01 X27.1125 Y3.4262
G01 X27.1136 Y3.4116
G01 X27.1154 Y3.3969
G01 X27.1226 Y3.3484
G01 X27.1251 Y3.3339
G01 X27.1284 Y3.3195
G01 X27.1403 Y3.2719
G01 X27.1442 Y3.2577
G01 X27.1488 Y3.2437
G01 X27.1654 Y3.1975
G01 X27.1707 Y3.1838
G01 X27.1766 Y3.1703
G01 X27.1976 Y3.1259
G01 X27.2042 Y3.1128
G01 X27.2115 Y3.1000
G01 X27.2367 Y3.0578
G01 X27.2488 Y3.0393
G01 X27.2823 Y2.9939
G01 X27.2914 Y2.9823
G01 X27.3010 Y2.9712
G01 X27.3390 Y2.9294
G01 X27.5841 Y2.6841
G01 X27.5948 Y2.6740
G01 X27.6312 Y2.6410
G01 X27.6423 Y2.6314
G01 X27.6539 Y2.6223
G01 X27.6934 Y2.5931
G01 X27.7054 Y2.5846
G01 X27.7178 Y2.5767
G01 X27.7600 Y2.5515
G01 X27.7728 Y2.5442
G01 X27.7859 Y2.5376
G01 X27.8303 Y2.5166
G01 X27.8438 Y2.5107
G01 X27.8575 Y2.5054
G01 X27.9037 Y2.4888
G01 X27.9177 Y2.4842
G01 X27.9319 Y2.4803
G01 X27.9795 Y2.4684
G01 X27.9939 Y2.4651
G01 X28.0084 Y2.4626
G01 X28.0569 Y2.4554
G01 X28.0716 Y2.4536
G01 X28.0862 Y2.4525
G01 X28.1353 Y2.4501
G01 X28.1500 Y2.4497
G01 X43.1500 Y2.4497
G01 X43.1647 Y2.4501
G01 X43.2138 Y2.4525
G01 X43.2284 Y2.4536
G01 X43.2431 Y2.4554
G01 X43.2916 Y2.4626
G01 X43.3061 Y2.4651
G01 X43.3205 Y2.4684
G01 X43.3681 Y2.4803
G01 X43.3823 Y2.4842
G01 X43.3963 Y2.4888
G01 X43.4425 Y2.5054
G01 X43.4562 Y2.5107
G01 X43.4697 Y2.5166
G01 X43.5141 Y2.5376
G01 X43.5272 Y2.5442
G01 X43.5400 Y2.5515
G01 X43.5822 Y2.5767
G01 X43.5946 Y2.5846
G01 X43.6066 Y2.5931
G01 X43.6461 Y2.6223
G01 X43.6633 Y2.6361
G01 X43.7052 Y2.6740
G01 X43.7159 Y2.6841
G01 X45.2196 Y4.1879
G01 X45.2502 Y4.1803
G01 X45.2646 Y4.1775
G01 X45.3957 Y4.1580
G01 X45.4177 Y4.1561
G01 X45.5353 Y4.1504
G01 X45.5500 Y4.1500
G01 X45.5647 Y4.1504
G01 X45.6823 Y4.1561
G01 X45.6970 Y4.1572
G01 X45.7116 Y4.1590
G01 X45.8281 Y4.1763
G01 X45.8498 Y4.1803
G01 X45.9712 Y4.2107
G01 X45.9854 Y4.2146
G01 X45.9994 Y4.2192
G01 X46.1103 Y4.2589
G01 X46.1240 Y4.2642
G01 X46.1375 Y4.2701
G01 X46.2439 Y4.3205
G01 X46.2571 Y4.3271
G01 X46.2699 Y4.3344
G01 X46.3709 Y4.3949
G01 X46.3834 Y4.4028
G01 X46.3954 Y4.4113
G01 X46.4958 Y4.4859
G01 X46.5127 Y4.5001
G01 X46.6000 Y4.5792
G01 X46.6107 Y4.5893
G01 X46.6208 Y4.6000
G01 X46.6999 Y4.6873
G01 X46.7095 Y4.6984
G01 X46.7186 Y4.7100
G01 X46.7887 Y4.8046
G01 X46.7972 Y4.8166
G01 X46.8051 Y4.8291
G01 X46.8656 Y4.9301
G01 X46.8729 Y4.9429
G01 X46.8795 Y4.9561
G01 X46.9299 Y5.0625
G01 X46.9358 Y5.0760
G01 X46.9411 Y5.0897
G01 X46.9808 Y5.2006
G01 X46.9854 Y5.2146
G01 X46.9893 Y5.2288
G01 X47.0180 Y5.3430
G01 X47.0212 Y5.3574
G01 X47.0237 Y5.3719
G01 X47.0410 Y5.4884
G01 X47.0428 Y5.5030
G01 X47.0439 Y5.5177
G01 X47.0496 Y5.6353
G01 X47.0499 Y5.6574
G01 X47.0439 Y5.7823
G01 X47.0428 Y5.7970
G01 X47.0410 Y5.8116
G01 X47.0237 Y5.9281
G01 X47.0212 Y5.9426
G01 X47.0180 Y5.9570
G01 X46.9893 Y6.0712
G01 X46.9854 Y6.0854
G01 X46.9808 Y6.0994
G01 X46.9411 Y6.2103
G01 X46.9358 Y6.2240
G01 X46.9299 Y6.2375
G01 X46.8795 Y6.3439
G01 X46.8693 Y6.3635
G01 X46.8051 Y6.4709
G01 X46.7972 Y6.4834
G01 X46.7887 Y6.4954
G01 X46.7186 Y6.5900
G01 X46.7095 Y6.6016
G01 X46.6999 Y6.6127
G01 X46.6158 Y6.7054
G01 X46.6000 Y6.7208
G01 X46.5127 Y6.7999
G01 X46.4958 Y6.8141
G01 X46.3894 Y6.8930
G01 X46.3772 Y6.9012
G01 X46.3503 Y6.9175
G01 X46.3503 Y9.1285
G01 X53.5015 Y16.2797
G01 X55.8300 Y16.2797
G01 X55.8300 Y16.2300
G01 X55.8308 Y16.2079
G01 X55.8323 Y16.1933
G01 X55.8344 Y16.1787
G01 X55.8373 Y16.1643
G01 X55.8409 Y16.1500
G01 X55.8451 Y16.1359
G01 X55.8501 Y16.1220
G01 X55.8557 Y16.1084
G01 X55.8620 Y16.0951
G01 X55.8690 Y16.0821
G01 X55.8765 Y16.0695
G01 X55.8847 Y16.0573
G01 X55.8935 Y16.0454
G01 X55.9028 Y16.0340
G01 X55.9127 Y16.0231
G01 X55.9231 Y16.0127
G01 X55.9340 Y16.0028
G01 X55.9513 Y15.9890
G01 X55.9633 Y15.9806
G01 X55.9758 Y15.9727
G01 X55.9886 Y15.9654
G01 X56.0017 Y15.9588
G01 X56.0152 Y15.9528
G01 X56.0289 Y15.9475
G01 X56.0429 Y15.9429
G01 X56.0571 Y15.9390
G01 X56.0715 Y15.9358
G01 X56.0933 Y15.9323
G01 X56.1079 Y15.9308
G01 X56.1300 Y15.9300
G01 X57.8374 Y15.9301
G01 X57.8594 Y15.9314
G01 X57.8813 Y15.9344
G01 X57.9029 Y15.9390
G01 X57.9171 Y15.9429
G01 X57.9311 Y15.9475
G01 X57.9516 Y15.9557
G01 X57.9714 Y15.9654
G01 X57.9905 Y15.9765
G01 X58.0087 Y15.9890
G01 X58.0203 Y15.9981
G01 X58.0369 Y16.0127
G01 X58.0473 Y16.0231
G01 X58.0572 Y16.0340
G01 X58.0665 Y16.0454
G01 X58.0753 Y16.0573
G01 X58.0835 Y16.0695
G01 X58.0910 Y16.0821
G01 X58.0980 Y16.0951
G01 X58.1072 Y16.1152
G01 X58.1125 Y16.1289
G01 X58.1171 Y16.1429
G01 X58.1210 Y16.1571
G01 X58.1256 Y16.1787
G01 X58.1277 Y16.1933
G01 X58.1292 Y16.2079
G01 X58.1300 Y16.2300
G01 X58.1300 Y17.9300
G01 X58.1292 Y17.9521
G01 X58.1277 Y17.9667
G01 X58.1256 Y17.9813
G01 X58.1227 Y17.9957
G01 X58.1191 Y18.0100
G01 X58.1149 Y18.0241
G01 X58.1099 Y18.0380
G01 X58.1043 Y18.0516
G01 X58.0980 Y18.0649
G01 X58.0873 Y18.0842
G01 X58.0794 Y18.0967
G01 X58.0710 Y18.1087
G01 X58.0572 Y18.1260
G01 X58.0473 Y18.1369
G01 X58.0369 Y18.1473
G01 X58.0203 Y18.1619
G01 X58.0027 Y18.1753
G01 X57.9905 Y18.1835
G01 X57.9779 Y18.1910
G01 X57.9583 Y18.2012
G01 X57.9448 Y18.2072
G01 X57.9311 Y18.2125
G01 X57.9171 Y18.2171
G01 X57.9029 Y18.2210
G01 X57.8885 Y18.2242
G01 X57.8740 Y18.2268
G01 X57.8521 Y18.2292
G01 X57.8300 Y18.2300
G01 X56.1226 Y18.2299
G01 X56.1006 Y18.2286
G01 X56.0860 Y18.2268
G01 X56.0715 Y18.2242
G01 X56.0571 Y18.2210
G01 X56.0429 Y18.2171
G01 X56.0289 Y18.2125
G01 X56.0152 Y18.2072
G01 X56.0017 Y18.2012
G01 X55.9886 Y18.1946
G01 X55.9758 Y18.1873
G01 X55.9573 Y18.1753
G01 X55.9454 Y18.1665
G01 X55.9340 Y18.1572
G01 X55.9231 Y18.1473
G01 X55.9077 Y18.1315
G01 X55.8981 Y18.1203
G01 X55.8847 Y18.1027
G01 X55.8765 Y18.0905
G01 X55.8690 Y18.0779
G01 X55.8620 Y18.0649
G01 X55.8557 Y18.0516
G01 X55.8501 Y18.0380
G01 X55.8451 Y18.0241
G01 X55.8409 Y18.0100
G01 X55.8373 Y17.9957
G01 X55.8344 Y17.9813
G01 X55.8323 Y17.9667
G01 X55.8308 Y17.9521
G01 X55.8300 Y17.9300
G01 X55.8300 Y17.8803
G01 X53.1626 Y17.8802
G01 X53.0989 Y17.8770
G01 X53.0769 Y17.8746
G01 X53.0284 Y17.8674
G01 X53.0139 Y17.8649
G01 X52.9995 Y17.8616
G01 X52.9519 Y17.8497
G01 X52.9377 Y17.8458
G01 X52.9237 Y17.8412
G01 X52.8775 Y17.8246
G01 X52.8638 Y17.8193
G01 X52.8503 Y17.8134
G01 X52.8059 Y17.7924
G01 X52.7863 Y17.7822
G01 X52.7378 Y17.7533
G01 X52.7254 Y17.7454
G01 X52.7134 Y17.7369
G01 X52.6739 Y17.7077
G01 X52.6623 Y17.6986
G01 X52.6512 Y17.6890
G01 X52.6148 Y17.6560
G01 X52.6041 Y17.6459
G01 X46.3503 Y11.3920
G01 X46.3503 Y18.5985
G01 X55.4615 Y27.7097
G01 X55.8300 Y27.7097
G01 X55.8300 Y27.6600
G01 X55.8308 Y27.6379
G01 X55.8323 Y27.6233
G01 X55.8344 Y27.6087
G01 X55.8373 Y27.5943
G01 X55.8409 Y27.5800
G01 X55.8451 Y27.5659
G01 X55.8501 Y27.5520
G01 X55.8557 Y27.5384
G01 X55.8620 Y27.5251
G01 X55.8690 Y27.5121
G01 X55.8765 Y27.4995
G01 X55.8847 Y27.4873
G01 X55.8935 Y27.4754
G01 X55.9028 Y27.4640
G01 X55.9127 Y27.4531
G01 X55.9231 Y27.4427
G01 X55.9340 Y27.4328
G01 X55.9513 Y27.4190
G01 X55.9633 Y27.4106
G01 X55.9758 Y27.4027
G01 X55.9886 Y27.3954
G01 X56.0017 Y27.3888
G01 X56.0152 Y27.3828
G01 X56.0289 Y27.3775
G01 X56.0429 Y27.3729
G01 X56.0571 Y27.3690
G01 X56.0715 Y27.3658
G01 X56.0860 Y27.3632
G01 X56.1006 Y27.3614
G01 X56.1153 Y27.3604
G01 X56.1300 Y27.3600
G01 X57.8300 Y27.3600
G01 X57.8447 Y27.3604
G01 X57.8667 Y27.3623
G01 X57.8813 Y27.3644
G01 X57.8957 Y27.3673
G01 X57.9100 Y27.3709
G01 X57.9241 Y27.3751
G01 X57.9448 Y27.3828
G01 X57.9583 Y27.3888
G01 X57.9714 Y27.3954
G01 X57.9905 Y27.4065
G01 X58.0087 Y27.4190
G01 X58.0203 Y27.4281
G01 X58.0315 Y27.4377
G01 X58.0421 Y27.4479
G01 X58.0523 Y27.4585
G01 X58.0619 Y27.4697
G01 X58.0710 Y27.4813
G01 X58.0794 Y27.4933
G01 X58.0873 Y27.5058
G01 X58.0946 Y27.5186
G01 X58.1012 Y27.5317
G01 X58.1072 Y27.5452
G01 X58.1125 Y27.5589
G01 X58.1171 Y27.5729
G01 X58.1210 Y27.5871
G01 X58.1242 Y27.6015
G01 X58.1268 Y27.6160
G01 X58.1286 Y27.6306
G01 X58.1296 Y27.6453
G01 X58.1300 Y27.6600
G01 X58.1300 Y29.3600
G01 X58.1292 Y29.3821
G01 X58.1277 Y29.3967
G01 X58.1256 Y29.4113
G01 X58.1227 Y29.4257
G01 X58.1191 Y29.4400
G01 X58.1149 Y29.4541
G01 X58.1099 Y29.4680
G01 X58.1043 Y29.4816
G01 X58.0980 Y29.4949
G01 X58.0873 Y29.5142
G01 X58.0794 Y29.5267
G01 X58.0710 Y29.5387
G01 X58.0572 Y29.5560
G01 X58.0473 Y29.5669
G01 X58.0369 Y29.5773
G01 X58.0203 Y29.5919
G01 X58.0087 Y29.6010
G01 X57.9967 Y29.6094
G01 X57.9842 Y29.6173
G01 X57.9714 Y29.6246
G01 X57.9516 Y29.6343
G01 X57.9380 Y29.6399
G01 X57.9241 Y29.6449
G01 X57.9100 Y29.6491
G01 X57.8957 Y29.6527
G01 X57.8740 Y29.6568
G01 X57.8521 Y29.6592
G01 X57.8300 Y29.6600
G01 X56.1300 Y29.6600
G01 X56.1153 Y29.6596
G01 X56.1006 Y29.6586
G01 X56.0860 Y29.6568
G01 X56.0643 Y29.6527
G01 X56.0500 Y29.6491
G01 X56.0359 Y29.6449
G01 X56.0220 Y29.6399
G01 X56.0084 Y29.6343
G01 X55.9951 Y29.6280
G01 X55.9821 Y29.6210
G01 X55.9695 Y29.6135
G01 X55.9573 Y29.6053
G01 X55.9397 Y29.5919
G01 X55.9285 Y29.5823
G01 X55.9179 Y29.5721
G01 X55.9077 Y29.5615
G01 X55.8981 Y29.5503
G01 X55.8890 Y29.5387
G01 X55.8806 Y29.5267
G01 X55.8727 Y29.5142
G01 X55.8654 Y29.5014
G01 X55.8588 Y29.4883
G01 X55.8528 Y29.4748
G01 X55.8475 Y29.4611
G01 X55.8409 Y29.4400
G01 X55.8373 Y29.4257
G01 X55.8344 Y29.4113
G01 X55.8323 Y29.3967
G01 X55.8308 Y29.3821
G01 X55.8300 Y29.3600
G01 X55.8300 Y29.3103
G01 X55.1300 Y29.3103
G01 X55.1153 Y29.3099
G01 X55.0662 Y29.3075
G01 X55.0442 Y29.3056
G01 X54.9811 Y29.2962
G01 X54.9595 Y29.2916
G01 X54.9119 Y29.2797
G01 X54.8977 Y29.2758
G01 X54.8837 Y29.2712
G01 X54.8375 Y29.2546
G01 X54.8238 Y29.2493
G01 X54.8103 Y29.2434
G01 X54.7659 Y29.2224
G01 X54.7528 Y29.2158
G01 X54.7400 Y29.2085
G01 X54.6978 Y29.1833
G01 X54.6793 Y29.1712
G01 X54.6339 Y29.1377
G01 X54.6223 Y29.1286
G01 X54.6112 Y29.1190
G01 X54.5748 Y29.0860
G01 X54.5641 Y29.0759
G01 X46.3503 Y20.8620
G01 X46.3503 Y33.8385
G01 X55.4615 Y42.9497
G01 X55.8300 Y42.9497
G01 X55.8300 Y42.9000
G01 X55.8308 Y42.8779
G01 X55.8323 Y42.8633
G01 X55.8344 Y42.8487
G01 X55.8373 Y42.8343
G01 X55.8409 Y42.8200
G01 X55.8451 Y42.8059
G01 X55.8501 Y42.7920
G01 X55.8557 Y42.7784
G01 X55.8620 Y42.7651
G01 X55.8690 Y42.7521
G01 X55.8765 Y42.7395
G01 X55.8847 Y42.7273
G01 X55.8935 Y42.7154
G01 X55.9028 Y42.7040
G01 X55.9127 Y42.6931
G01 X55.9231 Y42.6827
G01 X55.9340 Y42.6728
G01 X55.9454 Y42.6635
G01 X55.9573 Y42.6547
G01 X55.9695 Y42.6465
G01 X55.9821 Y42.6390
G01 X55.9951 Y42.6320
G01 X56.0084 Y42.6257
G01 X56.0220 Y42.6201
G01 X56.0429 Y42.6129
G01 X56.0571 Y42.6090
G01 X56.0715 Y42.6058
G01 X56.0860 Y42.6032
G01 X56.1006 Y42.6014
G01 X56.1153 Y42.6004
G01 X56.1300 Y42.6000
G01 X57.8300 Y42.6000
G01 X57.8447 Y42.6004
G01 X57.8594 Y42.6014
G01 X57.8740 Y42.6032
G01 X57.8957 Y42.6073
G01 X57.9171 Y42.6129
G01 X57.9311 Y42.6175
G01 X57.9448 Y42.6228
G01 X57.9649 Y42.6320
G01 X57.9779 Y42.6390
G01 X57.9905 Y42.6465
G01 X58.0087 Y42.6590
G01 X58.0203 Y42.6681
G01 X58.0315 Y42.6777
G01 X58.0421 Y42.6879
G01 X58.0523 Y42.6985
G01 X58.0619 Y42.7097
G01 X58.0710 Y42.7213
G01 X58.0794 Y42.7333
G01 X58.0873 Y42.7458
G01 X58.0946 Y42.7586
G01 X58.1012 Y42.7717
G01 X58.1072 Y42.7852
G01 X58.1125 Y42.7989
G01 X58.1171 Y42.8129
G01 X58.1210 Y42.8271
G01 X58.1242 Y42.8415
G01 X58.1268 Y42.8560
G01 X58.1286 Y42.8706
G01 X58.1296 Y42.8853
G01 X58.1300 Y42.9000
G01 X58.1300 Y44.6000
G01 X58.1296 Y44.6147
G01 X58.1286 Y44.6294
G01 X58.1268 Y44.6440
G01 X58.1242 Y44.6585
G01 X58.1191 Y44.6800
G01 X58.1149 Y44.6941
G01 X58.1099 Y44.7080
G01 X58.1043 Y44.7216
G01 X58.0980 Y44.7349
G01 X58.0873 Y44.7542
G01 X58.0753 Y44.7727
G01 X58.0665 Y44.7846
G01 X58.0572 Y44.7960
G01 X58.0421 Y44.8121
G01 X58.0315 Y44.8223
G01 X58.0203 Y44.8319
G01 X58.0087 Y44.8410
G01 X57.9967 Y44.8494
G01 X57.9779 Y44.8610
G01 X57.9649 Y44.8680
G01 X57.9516 Y44.8743
G01 X57.9380 Y44.8799
G01 X57.9241 Y44.8849
G01 X57.9029 Y44.8910
G01 X57.8885 Y44.8942
G01 X57.8740 Y44.8968
G01 X57.8521 Y44.8992
G01 X57.8300 Y44.9000
G01 X56.1300 Y44.9000
G01 X56.1153 Y44.8996
G01 X56.1006 Y44.8986
G01 X56.0860 Y44.8968
G01 X56.0715 Y44.8942
G01 X56.0500 Y44.8891
G01 X56.0359 Y44.8849
G01 X56.0220 Y44.8799
G01 X56.0084 Y44.8743
G01 X55.9951 Y44.8680
G01 X55.9821 Y44.8610
G01 X55.9695 Y44.8535
G01 X55.9573 Y44.8453
G01 X55.9454 Y44.8365
G01 X55.9340 Y44.8272
G01 X55.9231 Y44.8173
G01 X55.9127 Y44.8069
G01 X55.8981 Y44.7903
G01 X55.8890 Y44.7787
G01 X55.8765 Y44.7605
G01 X55.8690 Y44.7479
G01 X55.8620 Y44.7349
G01 X55.8557 Y44.7216
G01 X55.8501 Y44.7080
G01 X55.8451 Y44.6941
G01 X55.8409 Y44.6800
G01 X55.8373 Y44.6657
G01 X55.8344 Y44.6513
G01 X55.8323 Y44.6367
G01 X55.8308 Y44.6221
G01 X55.8300 Y44.6000
G01 X55.8300 Y44.5503
G01 X55.1300 Y44.5503
G01 X55.1153 Y44.5499
G01 X55.0662 Y44.5475
G01 X55.0442 Y44.5456
G01 X54.9811 Y44.5362
G01 X54.9595 Y44.5316
G01 X54.9119 Y44.5197
G01 X54.8977 Y44.5158
G01 X54.8837 Y44.5112
G01 X54.8375 Y44.4946
G01 X54.8238 Y44.4893
G01 X54.8103 Y44.4834
G01 X54.7659 Y44.4624
G01 X54.7528 Y44.4558
G01 X54.7400 Y44.4485
G01 X54.6978 Y44.4233
G01 X54.6793 Y44.4112
G01 X54.6339 Y44.3777
G01 X54.6223 Y44.3686
G01 X54.6112 Y44.3590
G01 X54.5748 Y44.3260
G01 X54.5641 Y44.3159
G01 X46.3503 Y36.1020
G01 X46.3503 Y45.2685
G01 X55.4615 Y54.3797
G01 X55.8300 Y54.3797
G01 X55.8300 Y54.3300
G01 X55.8308 Y54.3079
G01 X55.8323 Y54.2933
G01 X55.8344 Y54.2787
G01 X55.8373 Y54.2643
G01 X55.8409 Y54.2500
G01 X55.8451 Y54.2359
G01 X55.8501 Y54.2220
G01 X55.8557 Y54.2084
G01 X55.8620 Y54.1951
G01 X55.8690 Y54.1821
G01 X55.8765 Y54.1695
G01 X55.8847 Y54.1573
G01 X55.8935 Y54.1454
G01 X55.9028 Y54.1340
G01 X55.9127 Y54.1231
G01 X55.9231 Y54.1127
G01 X55.9340 Y54.1028
G01 X55.9454 Y54.0935
G01 X55.9573 Y54.0847
G01 X55.9695 Y54.0765
G01 X55.9821 Y54.0690
G01 X55.9951 Y54.0620
G01 X56.0084 Y54.0557
G01 X56.0220 Y54.0501
G01 X56.0429 Y54.0429
G01 X56.0571 Y54.0390
G01 X56.0715 Y54.0358
G01 X56.0860 Y54.0332
G01 X56.1006 Y54.0314
G01 X56.1153 Y54.0304
G01 X56.1300 Y54.0300
G01 X57.8300 Y54.0300
G01 X57.8447 Y54.0304
G01 X57.8667 Y54.0323
G01 X57.8813 Y54.0344
G01 X57.8957 Y54.0373
G01 X57.9100 Y54.0409
G01 X57.9241 Y54.0451
G01 X57.9380 Y54.0501
G01 X57.9516 Y54.0557
G01 X57.9649 Y54.0620
G01 X57.9779 Y54.0690
G01 X57.9967 Y54.0806
G01 X58.0146 Y54.0935
G01 X58.0260 Y54.1028
G01 X58.0369 Y54.1127
G01 X58.0473 Y54.1231
G01 X58.0572 Y54.1340
G01 X58.0665 Y54.1454
G01 X58.0753 Y54.1573
G01 X58.0835 Y54.1695
G01 X58.0910 Y54.1821
G01 X58.0980 Y54.1951
G01 X58.1043 Y54.2084
G01 X58.1099 Y54.2220
G01 X58.1149 Y54.2359
G01 X58.1210 Y54.2571
G01 X58.1242 Y54.2715
G01 X58.1268 Y54.2860
G01 X58.1286 Y54.3006
G01 X58.1296 Y54.3153
G01 X58.1300 Y54.3300
G01 X58.1300 Y56.0300
G01 X58.1296 Y56.0447
G01 X58.1286 Y56.0594
G01 X58.1256 Y56.0813
G01 X58.1210 Y56.1029
G01 X58.1149 Y56.1241
G01 X58.1072 Y56.1448
G01 X58.0980 Y56.1649
G01 X58.0910 Y56.1779
G01 X58.0794 Y56.1967
G01 X58.0665 Y56.2146
G01 X58.0572 Y56.2260
G01 X58.0421 Y56.2421
G01 X58.0260 Y56.2572
G01 X58.0087 Y56.2710
G01 X57.9905 Y56.2835
G01 X57.9714 Y56.2946
G01 X57.9516 Y56.3043
G01 X57.9380 Y56.3099
G01 X57.9241 Y56.3149
G01 X57.9100 Y56.3191
G01 X57.8957 Y56.3227
G01 X57.8813 Y56.3256
G01 X57.8667 Y56.3277
G01 X57.8447 Y56.3296
G01 X57.8300 Y56.3300
G01 X56.1300 Y56.3300
G01 X56.1079 Y56.3292
G01 X56.0860 Y56.3268
G01 X56.0715 Y56.3242
G01 X56.0571 Y56.3210
G01 X56.0429 Y56.3171
G01 X56.0289 Y56.3125
G01 X56.0152 Y56.3072
G01 X56.0017 Y56.3012
G01 X55.9886 Y56.2946
G01 X55.9758 Y56.2873
G01 X55.9633 Y56.2794
G01 X55.9513 Y56.2710
G01 X55.9397 Y56.2619
G01 X55.9285 Y56.2523
G01 X55.9179 Y56.2421
G01 X55.9077 Y56.2315
G01 X55.8981 Y56.2203
G01 X55.8890 Y56.2087
G01 X55.8806 Y56.1967
G01 X55.8727 Y56.1842
G01 X55.8654 Y56.1714
G01 X55.8588 Y56.1583
G01 X55.8528 Y56.1448
G01 X55.8475 Y56.1311
G01 X55.8429 Y56.1171
G01 X55.8390 Y56.1029
G01 X55.8344 Y56.0813
G01 X55.8323 Y56.0667
G01 X55.8308 Y56.0521
G01 X55.8300 Y56.0300
G01 X55.8300 Y55.9803
G01 X55.1300 Y55.9803
G01 X55.1153 Y55.9799
G01 X55.0662 Y55.9775
G01 X55.0516 Y55.9764
G01 X55.0369 Y55.9746
G01 X54.9884 Y55.9674
G01 X54.9739 Y55.9649
G01 X54.9595 Y55.9616
G01 X54.9119 Y55.9497
G01 X54.8977 Y55.9458
G01 X54.8837 Y55.9412
G01 X54.8375 Y55.9246
G01 X54.8238 Y55.9193
G01 X54.8103 Y55.9134
G01 X54.7659 Y55.8924
G01 X54.7528 Y55.8858
G01 X54.7400 Y55.8785
G01 X54.6978 Y55.8533
G01 X54.6854 Y55.8454
G01 X54.6734 Y55.8369
