(G-CODE GENERATED BY FLATCAM v8.994 - www.flatcam.org - Version Date: 2020/11/7)

(Name: cutout_cnc)
(Type: G-code from Geometry)
(Units: MM)

(Created on Friday, 12 February 2021 at 23:00)

(This preprocessor is the default preprocessor used by FlatCAM.)
(It is made to work with MACH3 compatible motion controllers.)

(TOOL DIAMETER: 1.0 mm)
(Feedrate_XY: 100.0 mm/min)
(Feedrate_Z: 60.0 mm/min)
(Feedrate rapids 1500.0 mm/min)

(Z_Cut: -1.8 mm)
(DepthPerCut: 0.6 mm <=>3 passes)
(Z_Move: 2.0 mm)
(Z Start: None mm)
(Z End: 20.0 mm)
(X,Y End: None mm)
(Steps per circle: 64)
(Preprocessor Geometry: default)

(X range:   -0.5750 ...   68.5750  mm)
(Y range:   -0.5750 ...   64.5750  mm)

(Spindle Speed: 12000.0 RPM)
G21
G90
G94

G01 F100.00

M5
G00 Z20.0000
G00 X0.0000 Y0.0000
T1
M6    
(MSG, Change to Tool Dia = 1.0000)
M0
G00 Z20.0000

M03 S12000.0
G01 F100.00
G00 X-0.5750 Y31.0000
G01 F60.00
G01 Z-0.6000
G01 F100.00
G01 X-0.5750 Y0.0000
G01 X-0.5741 Y-0.0319
G01 X-0.5693 Y-0.0807
G01 X-0.5682 Y-0.0880
G01 X-0.5586 Y-0.1361
G01 X-0.5568 Y-0.1433
G01 X-0.5426 Y-0.1902
G01 X-0.5401 Y-0.1972
G01 X-0.5213 Y-0.2425
G01 X-0.5182 Y-0.2491
G01 X-0.4950 Y-0.2924
G01 X-0.4913 Y-0.2987
G01 X-0.4640 Y-0.3395
G01 X-0.4596 Y-0.3455
G01 X-0.4285 Y-0.3834
G01 X-0.4235 Y-0.3888
G01 X-0.3888 Y-0.4235
G01 X-0.3834 Y-0.4285
G01 X-0.3455 Y-0.4596
G01 X-0.3395 Y-0.4640
G01 X-0.2987 Y-0.4913
G01 X-0.2924 Y-0.4950
G01 X-0.2491 Y-0.5182
G01 X-0.2425 Y-0.5213
G01 X-0.1972 Y-0.5401
G01 X-0.1902 Y-0.5426
G01 X-0.1433 Y-0.5568
G01 X-0.1361 Y-0.5586
G01 X-0.0880 Y-0.5682
G01 X-0.0807 Y-0.5693
G01 X-0.0319 Y-0.5741
G01 X0.0000 Y-0.5750
G01 X33.0000 Y-0.5750
G00 X33.0000 Y-0.5750
G01 F60.00
G01 Z-1.2000
G01 F100.00
G01 X0.0000 Y-0.5750
G01 X-0.0319 Y-0.5741
G01 X-0.0807 Y-0.5693
G01 X-0.0880 Y-0.5682
G01 X-0.1361 Y-0.5586
G01 X-0.1433 Y-0.5568
G01 X-0.1902 Y-0.5426
G01 X-0.1972 Y-0.5401
G01 X-0.2425 Y-0.5213
G01 X-0.2491 Y-0.5182
G01 X-0.2924 Y-0.4950
G01 X-0.2987 Y-0.4913
G01 X-0.3395 Y-0.4640
G01 X-0.3455 Y-0.4596
G01 X-0.3834 Y-0.4285
G01 X-0.3888 Y-0.4235
G01 X-0.4235 Y-0.3888
G01 X-0.4285 Y-0.3834
G01 X-0.4596 Y-0.3455
G01 X-0.4640 Y-0.3395
G01 X-0.4913 Y-0.2987
G01 X-0.4950 Y-0.2924
G01 X-0.5182 Y-0.2491
G01 X-0.5213 Y-0.2425
G01 X-0.5401 Y-0.1972
G01 X-0.5426 Y-0.1902
G01 X-0.5568 Y-0.1433
G01 X-0.5586 Y-0.1361
G01 X-0.5682 Y-0.0880
G01 X-0.5693 Y-0.0807
G01 X-0.5741 Y-0.0319
G01 X-0.5750 Y0.0000
G01 X-0.5750 Y31.0000
G00 X-0.5750 Y31.0000
G01 F60.00
G01 Z-1.8000
G01 F100.00
G01 X-0.5750 Y0.0000
G01 X-0.5741 Y-0.0319
G01 X-0.5693 Y-0.0807
G01 X-0.5682 Y-0.0880
G01 X-0.5586 Y-0.1361
G01 X-0.5568 Y-0.1433
G01 X-0.5426 Y-0.1902
G01 X-0.5401 Y-0.1972
G01 X-0.5213 Y-0.2425
G01 X-0.5182 Y-0.2491
G01 X-0.4950 Y-0.2924
G01 X-0.4913 Y-0.2987
G01 X-0.4640 Y-0.3395
G01 X-0.4596 Y-0.3455
G01 X-0.4285 Y-0.3834
G01 X-0.4235 Y-0.3888
G01 X-0.3888 Y-0.4235
G01 X-0.3834 Y-0.4285
G01 X-0.3455 Y-0.4596
G01 X-0.3395 Y-0.4640
G01 X-0.2987 Y-0.4913
G01 X-0.2924 Y-0.4950
G01 X-0.2491 Y-0.5182
G01 X-0.2425 Y-0.5213
G01 X-0.1972 Y-0.5401
G01 X-0.1902 Y-0.5426
G01 X-0.1433 Y-0.5568
G01 X-0.1361 Y-0.5586
G01 X-0.0880 Y-0.5682
G01 X-0.0807 Y-0.5693
G01 X-0.0319 Y-0.5741
G01 X0.0000 Y-0.5750
G01 X33.0000 Y-0.5750
G00 Z2.0000
G00 X-0.5750 Y33.0000
G01 F60.00
G01 Z-0.6000
G01 F100.00
G01 X-0.5750 Y64.0000
G01 X-0.5741 Y64.0319
G01 X-0.5693 Y64.0807
G01 X-0.5682 Y64.0880
G01 X-0.5586 Y64.1361
G01 X-0.5568 Y64.1433
G01 X-0.5426 Y64.1902
G01 X-0.5401 Y64.1972
G01 X-0.5213 Y64.2425
G01 X-0.5182 Y64.2491
G01 X-0.4950 Y64.2924
G01 X-0.4913 Y64.2987
G01 X-0.4640 Y64.3395
G01 X-0.4596 Y64.3455
G01 X-0.4285 Y64.3834
G01 X-0.4235 Y64.3888
G01 X-0.3888 Y64.4235
G01 X-0.3834 Y64.4285
G01 X-0.3455 Y64.4596
G01 X-0.3395 Y64.4640
G01 X-0.2987 Y64.4913
G01 X-0.2924 Y64.4950
G01 X-0.2491 Y64.5182
G01 X-0.2425 Y64.5213
G01 X-0.1972 Y64.5401
G01 X-0.1902 Y64.5426
G01 X-0.1433 Y64.5568
G01 X-0.1361 Y64.5586
G01 X-0.0880 Y64.5682
G01 X-0.0807 Y64.5693
G01 X-0.0319 Y64.5741
G01 X0.0000 Y64.5750
G01 X33.0000 Y64.5750
G00 X33.0000 Y64.5750
G01 F60.00
G01 Z-1.2000
G01 F100.00
G01 X0.0000 Y64.5750
G01 X-0.0319 Y64.5741
G01 X-0.0807 Y64.5693
G01 X-0.0880 Y64.5682
G01 X-0.1361 Y64.5586
G01 X-0.1433 Y64.5568
G01 X-0.1902 Y64.5426
G01 X-0.1972 Y64.5401
G01 X-0.2425 Y64.5213
G01 X-0.2491 Y64.5182
G01 X-0.2924 Y64.4950
G01 X-0.2987 Y64.4913
G01 X-0.3395 Y64.4640
G01 X-0.3455 Y64.4596
G01 X-0.3834 Y64.4285
G01 X-0.3888 Y64.4235
G01 X-0.4235 Y64.3888
G01 X-0.4285 Y64.3834
G01 X-0.4596 Y64.3455
G01 X-0.4640 Y64.3395
G01 X-0.4913 Y64.2987
G01 X-0.4950 Y64.2924
G01 X-0.5182 Y64.2491
G01 X-0.5213 Y64.2425
G01 X-0.5401 Y64.1972
G01 X-0.5426 Y64.1902
G01 X-0.5568 Y64.1433
G01 X-0.5586 Y64.1361
G01 X-0.5682 Y64.0880
G01 X-0.5693 Y64.0807
G01 X-0.5741 Y64.0319
G01 X-0.5750 Y64.0000
G01 X-0.5750 Y33.0000
G00 X-0.5750 Y33.0000
G01 F60.00
G01 Z-1.8000
G01 F100.00
G01 X-0.5750 Y64.0000
G01 X-0.5741 Y64.0319
G01 X-0.5693 Y64.0807
G01 X-0.5682 Y64.0880
G01 X-0.5586 Y64.1361
G01 X-0.5568 Y64.1433
G01 X-0.5426 Y64.1902
G01 X-0.5401 Y64.1972
G01 X-0.5213 Y64.2425
G01 X-0.5182 Y64.2491
G01 X-0.4950 Y64.2924
G01 X-0.4913 Y64.2987
G01 X-0.4640 Y64.3395
G01 X-0.4596 Y64.3455
G01 X-0.4285 Y64.3834
G01 X-0.4235 Y64.3888
G01 X-0.3888 Y64.4235
G01 X-0.3834 Y64.4285
G01 X-0.3455 Y64.4596
G01 X-0.3395 Y64.4640
G01 X-0.2987 Y64.4913
G01 X-0.2924 Y64.4950
G01 X-0.2491 Y64.5182
G01 X-0.2425 Y64.5213
G01 X-0.1972 Y64.5401
G01 X-0.1902 Y64.5426
G01 X-0.1433 Y64.5568
G01 X-0.1361 Y64.5586
G01 X-0.0880 Y64.5682
G01 X-0.0807 Y64.5693
G01 X-0.0319 Y64.5741
G01 X0.0000 Y64.5750
G01 X33.0000 Y64.5750
G00 Z2.0000
G00 X35.0000 Y64.5750
G01 F60.00
G01 Z-0.6000
G01 F100.00
G01 X68.0000 Y64.5750
G01 X68.0319 Y64.5741
G01 X68.0807 Y64.5693
G01 X68.0880 Y64.5682
G01 X68.1361 Y64.5586
G01 X68.1433 Y64.5568
G01 X68.1902 Y64.5426
G01 X68.1972 Y64.5401
G01 X68.2425 Y64.5213
G01 X68.2491 Y64.5182
G01 X68.2924 Y64.4950
G01 X68.2987 Y64.4913
G01 X68.3395 Y64.4640
G01 X68.3455 Y64.4596
G01 X68.3834 Y64.4285
G01 X68.3888 Y64.4235
G01 X68.4235 Y64.3888
G01 X68.4285 Y64.3834
G01 X68.4596 Y64.3455
G01 X68.4640 Y64.3395
G01 X68.4913 Y64.2987
G01 X68.4950 Y64.2924
G01 X68.5182 Y64.2491
G01 X68.5213 Y64.2425
G01 X68.5401 Y64.1972
G01 X68.5426 Y64.1902
G01 X68.5568 Y64.1433
G01 X68.5586 Y64.1361
G01 X68.5682 Y64.0880
G01 X68.5693 Y64.0807
G01 X68.5741 Y64.0319
G01 X68.5750 Y64.0000
G01 X68.5750 Y33.0000
G00 X68.5750 Y33.0000
G01 F60.00
G01 Z-1.2000
G01 F100.00
G01 X68.5750 Y64.0000
G01 X68.5741 Y64.0319
G01 X68.5693 Y64.0807
G01 X68.5682 Y64.0880
G01 X68.5586 Y64.1361
G01 X68.5568 Y64.1433
G01 X68.5426 Y64.1902
G01 X68.5401 Y64.1972
G01 X68.5213 Y64.2425
G01 X68.5182 Y64.2491
G01 X68.4950 Y64.2924
G01 X68.4913 Y64.2987
G01 X68.4640 Y64.3395
G01 X68.4596 Y64.3455
G01 X68.4285 Y64.3834
G01 X68.4235 Y64.3888
G01 X68.3888 Y64.4235
G01 X68.3834 Y64.4285
G01 X68.3455 Y64.4596
G01 X68.3395 Y64.4640
G01 X68.2987 Y64.4913
G01 X68.2924 Y64.4950
G01 X68.2491 Y64.5182
G01 X68.2425 Y64.5213
G01 X68.1972 Y64.5401
G01 X68.1902 Y64.5426
G01 X68.1433 Y64.5568
G01 X68.1361 Y64.5586
G01 X68.0880 Y64.5682
G01 X68.0807 Y64.5693
G01 X68.0319 Y64.5741
G01 X68.0000 Y64.5750
G01 X35.0000 Y64.5750
G00 X35.0000 Y64.5750
G01 F60.00
G01 Z-1.8000
G01 F100.00
G01 X68.0000 Y64.5750
G01 X68.0319 Y64.5741
G01 X68.0807 Y64.5693
G01 X68.0880 Y64.5682
G01 X68.1361 Y64.5586
G01 X68.1433 Y64.5568
G01 X68.1902 Y64.5426
G01 X68.1972 Y64.5401
G01 X68.2425 Y64.5213
G01 X68.2491 Y64.5182
G01 X68.2924 Y64.4950
G01 X68.2987 Y64.4913
G01 X68.3395 Y64.4640
G01 X68.3455 Y64.4596
G01 X68.3834 Y64.4285
G01 X68.3888 Y64.4235
G01 X68.4235 Y64.3888
G01 X68.4285 Y64.3834
G01 X68.4596 Y64.3455
G01 X68.4640 Y64.3395
G01 X68.4913 Y64.2987
G01 X68.4950 Y64.2924
G01 X68.5182 Y64.2491
G01 X68.5213 Y64.2425
G01 X68.5401 Y64.1972
G01 X68.5426 Y64.1902
G01 X68.5568 Y64.1433
G01 X68.5586 Y64.1361
G01 X68.5682 Y64.0880
G01 X68.5693 Y64.0807
G01 X68.5741 Y64.0319
G01 X68.5750 Y64.0000
G01 X68.5750 Y33.0000
G00 Z2.0000
G00 X68.5750 Y31.0000
G01 F60.00
G01 Z-0.6000
G01 F100.00
G01 X68.5750 Y0.0000
G01 X68.5741 Y-0.0319
G01 X68.5693 Y-0.0807
G01 X68.5682 Y-0.0880
G01 X68.5586 Y-0.1361
G01 X68.5568 Y-0.1433
G01 X68.5426 Y-0.1902
G01 X68.5401 Y-0.1972
G01 X68.5213 Y-0.2425
G01 X68.5182 Y-0.2491
G01 X68.4950 Y-0.2924
G01 X68.4913 Y-0.2987
G01 X68.4640 Y-0.3395
G01 X68.4596 Y-0.3455
G01 X68.4285 Y-0.3834
G01 X68.4235 Y-0.3888
G01 X68.3888 Y-0.4235
G01 X68.3834 Y-0.4285
G01 X68.3455 Y-0.4596
G01 X68.3395 Y-0.4640
G01 X68.2987 Y-0.4913
G01 X68.2924 Y-0.4950
G01 X68.2491 Y-0.5182
G01 X68.2425 Y-0.5213
G01 X68.1972 Y-0.5401
G01 X68.1902 Y-0.5426
G01 X68.1433 Y-0.5568
G01 X68.1361 Y-0.5586
G01 X68.0880 Y-0.5682
G01 X68.0807 Y-0.5693
G01 X68.0319 Y-0.5741
G01 X68.0000 Y-0.5750
G01 X35.0000 Y-0.5750
G00 X35.0000 Y-0.5750
G01 F60.00
G01 Z-1.2000
G01 F100.00
G01 X68.0000 Y-0.5750
G01 X68.0319 Y-0.5741
G01 X68.0807 Y-0.5693
G01 X68.0880 Y-0.5682
G01 X68.1361 Y-0.5586
G01 X68.1433 Y-0.5568
G01 X68.1902 Y-0.5426
G01 X68.1972 Y-0.5401
G01 X68.2425 Y-0.5213
G01 X68.2491 Y-0.5182
G01 X68.2924 Y-0.4950
G01 X68.2987 Y-0.4913
G01 X68.3395 Y-0.4640
G01 X68.3455 Y-0.4596
G01 X68.3834 Y-0.4285
G01 X68.3888 Y-0.4235
G01 X68.4235 Y-0.3888
G01 X68.4285 Y-0.3834
G01 X68.4596 Y-0.3455
G01 X68.4640 Y-0.3395
G01 X68.4913 Y-0.2987
G01 X68.4950 Y-0.2924
G01 X68.5182 Y-0.2491
G01 X68.5213 Y-0.2425
G01 X68.5401 Y-0.1972
G01 X68.5426 Y-0.1902
G01 X68.5568 Y-0.1433
G01 X68.5586 Y-0.1361
G01 X68.5682 Y-0.0880
G01 X68.5693 Y-0.0807
G01 X68.5741 Y-0.0319
G01 X68.5750 Y0.0000
G01 X68.5750 Y31.0000
G00 X68.5750 Y31.0000
G01 F60.00
G01 Z-1.8000
G01 F100.00
G01 X68.5750 Y0.0000
G01 X68.5741 Y-0.0319
G01 X68.5693 Y-0.0807
G01 X68.5682 Y-0.0880
G01 X68.5586 Y-0.1361
G01 X68.5568 Y-0.1433
G01 X68.5426 Y-0.1902
G01 X68.5401 Y-0.1972
G01 X68.5213 Y-0.2425
G01 X68.5182 Y-0.2491
G01 X68.4950 Y-0.2924
G01 X68.4913 Y-0.2987
G01 X68.4640 Y-0.3395
G01 X68.4596 Y-0.3455
G01 X68.4285 Y-0.3834
G01 X68.4235 Y-0.3888
G01 X68.3888 Y-0.4235
G01 X68.3834 Y-0.4285
G01 X68.3455 Y-0.4596
G01 X68.3395 Y-0.4640
G01 X68.2987 Y-0.4913
G01 X68.2924 Y-0.4950
G01 X68.2491 Y-0.5182
G01 X68.2425 Y-0.5213
G01 X68.1972 Y-0.5401
G01 X68.1902 Y-0.5426
G01 X68.1433 Y-0.5568
G01 X68.1361 Y-0.5586
G01 X68.0880 Y-0.5682
G01 X68.0807 Y-0.5693
G01 X68.0319 Y-0.5741
G01 X68.0000 Y-0.5750
G01 X35.0000 Y-0.5750
G00 Z2.0000
M05
G00 Z2.0000
G00 Z20.00


