(G-CODE GENERATED BY FLATCAM v8.994 - www.flatcam.org - Version Date: 2020/11/7)

(Name: Répartiteur-PTH.drl_cnc)
(Type: G-code from Geometry)
(Units: MM)

(Created on Saturday, 13 February 2021 at 00:11)

(This preprocessor is the default preprocessor used by FlatCAM.)
(It is made to work with MACH3 compatible motion controllers.)


(TOOLS DIAMETER: )
(Tool: 1 -> Dia: 0.8)
(Tool: 2 -> Dia: 1.0)
(Tool: 3 -> Dia: 1.2)
(Tool: 4 -> Dia: 1.3)
(Tool: 5 -> Dia: 1.5)
(Tool: 6 -> Dia: 3.0)

(FEEDRATE Z: )
(Tool: 1 -> Feedrate: 60.0)
(Tool: 2 -> Feedrate: 60.0)
(Tool: 3 -> Feedrate: 60.0)
(Tool: 4 -> Feedrate: 60.0)
(Tool: 5 -> Feedrate: 60.0)
(Tool: 6 -> Feedrate: 60.0)

(FEEDRATE RAPIDS: )
(Tool: 1 -> Feedrate Rapids: 150.0)
(Tool: 2 -> Feedrate Rapids: 150.0)
(Tool: 3 -> Feedrate Rapids: 150.0)
(Tool: 4 -> Feedrate Rapids: 150.0)
(Tool: 5 -> Feedrate Rapids: 150.0)
(Tool: 6 -> Feedrate Rapids: 150.0)

(Z_CUT: )
(Tool: 1 -> Z_Cut: -1.8)
(Tool: 2 -> Z_Cut: -1.8)
(Tool: 3 -> Z_Cut: -1.8)
(Tool: 4 -> Z_Cut: -1.8)
(Tool: 5 -> Z_Cut: -1.8)
(Tool: 6 -> Z_Cut: -1.8)

(Tools Offset: )
(Tool: 6 -> Offset Z: 0.0)

(Z_MOVE: )
(Tool: 1 -> Z_Move: 2)
(Tool: 2 -> Z_Move: 2)
(Tool: 3 -> Z_Move: 2)
(Tool: 4 -> Z_Move: 2)
(Tool: 5 -> Z_Move: 2)
(Tool: 6 -> Z_Move: 2)

(Z Toolchange: 20.0 mm)
(X,Y Toolchange: 0.0000, 0.0000 mm)
(Z Start: None mm)
(Z End: 20.0 mm)
(X,Y End: None mm)
(Steps per circle: 64)
(Preprocessor Excellon: default)

(X range:    3.5000 ...   65.2000  mm)
(Y range:    3.6000 ...   60.7600  mm)

(Spindle Speed: 12000 RPM)
G21
G90
G94

G01 F60.00

M5
G00 Z20.0000
T6
G00 X0.0000 Y0.0000                
M6
(MSG, Change to Tool Dia = 3.0000 ||| Total drills for tool T6 = 4)
M0
G00 Z20.0000

G01 F60.00
M03 S12000
G00 X59.0000 Y39.0000
G01 Z-1.8000
G01 Z0
G00 Z2.0000
G00 X41.0000 Y23.0000
G01 Z-1.8000
G01 Z0
G00 Z2.0000
G00 X5.0000 Y59.0000
G01 Z-1.8000
G01 Z0
G00 Z2.0000
G00 X25.0000 Y59.0000
G01 Z-1.8000
G01 Z0
G00 Z2.0000
M05
G00 Z20.00


