(G-CODE GENERATED BY FLATCAM v8.994 - www.flatcam.org - Version Date: 2020/11/7)

(Name: Répartiteur-PTH.drl_cnc)
(Type: G-code from Geometry)
(Units: MM)

(Created on Friday, 12 February 2021 at 22:56)


G01 F60.00

M5
G00 Z20.0000
T1
G00 X0.0000 Y0.0000                
M6
(MSG, Change to Tool Dia = 0.8000 ||| Total drills for tool T1 = 52)
M0
G00 Z20.0000

G01 F60.00
M03 S12000
G00 X53.0000 Y21.0000
G01 Z-1.8000
G01 Z0
G00 Z2.0000
G00 X56.9800 Y17.0800
G01 Z-1.8000
G01 Z0
G00 Z2.0000
G00 X56.9800 Y19.6200
G01 Z-1.8000
G01 Z0
G00 Z2.0000
G00 X56.9800 Y22.1600
G01 Z-1.8000
G01 Z0
G00 Z2.0000
G00 X56.9800 Y28.5100
G01 Z-1.8000
G01 Z0
G00 Z2.0000
G00 X56.9800 Y31.0500
G01 Z-1.8000
G01 Z0
G00 Z2.0000
G00 X56.9800 Y33.5900
G01 Z-1.8000
G01 Z0
G00 Z2.0000
G00 X56.9800 Y43.7500
G01 Z-1.8000
G01 Z0
G00 Z2.0000
G00 X56.9800 Y46.2900
G01 Z-1.8000
G01 Z0
G00 Z2.0000
G00 X56.9800 Y48.8300
G01 Z-1.8000
G01 Z0
G00 Z2.0000
G00 X56.9800 Y55.1800
G01 Z-1.8000
G01 Z0
G00 Z2.0000
G00 X56.9800 Y57.7200
G01 Z-1.8000
G01 Z0
G00 Z2.0000
G00 X56.9800 Y60.2600
G01 Z-1.8000
G01 Z0
G00 Z2.0000
G00 X49.2400 Y58.9900
G01 Z-1.8000
G01 Z0
G00 Z2.0000
G00 X44.1600 Y58.9900
G01 Z-1.8000
G01 Z0
G00 Z2.0000
G00 X39.0800 Y58.9900
G01 Z-1.8000
G01 Z0
G00 Z2.0000
G00 X34.0000 Y58.9900
G01 Z-1.8000
G01 Z0
G00 Z2.0000
G00 X36.6600 Y51.1100
G01 Z-1.8000
G01 Z0
G00 Z2.0000
G00 X52.0000 Y45.0000
G01 Z-1.8000
G01 Z0
G00 Z2.0000
G00 X52.0000 Y36.0000
G01 Z-1.8000
G01 Z0
G00 Z2.0000
G00 X49.0000 Y33.0000
G01 Z-1.8000
G01 Z0
G00 Z2.0000
G00 X49.0000 Y27.0000
G01 Z-1.8000
G01 Z0
G00 Z2.0000
G00 X42.0000 Y33.0000
G01 Z-1.8000
G01 Z0
G00 Z2.0000
G00 X36.6600 Y28.5100
G01 Z-1.8000
G01 Z0
G00 Z2.0000
G00 X37.9300 Y18.0000
G01 Z-1.8000
G01 Z0
G00 Z2.0000
G00 X38.1600 Y13.0000
G01 Z-1.8000
G01 Z0
G00 Z2.0000
G00 X27.7700 Y18.0000
G01 Z-1.8000
G01 Z0
G00 Z2.0000
G00 X18.8800 Y23.4300
G01 Z-1.8000
G01 Z0
G00 Z2.0000
G00 X16.3400 Y23.4300
G01 Z-1.8000
G01 Z0
G00 Z2.0000
G00 X13.8000 Y23.4300
G01 Z-1.8000
G01 Z0
G00 Z2.0000
G00 X11.2600 Y23.4300
G01 Z-1.8000
G01 Z0
G00 Z2.0000
G00 X14.0000 Y14.0000
G01 Z-1.8000
G01 Z0
G00 Z2.0000
G00 X10.0800 Y12.0000
G01 Z-1.8000
G01 Z0
G00 Z2.0000
G00 X7.5400 Y12.0000
G01 Z-1.8000
G01 Z0
G00 Z2.0000
G00 X5.0000 Y12.0000
G01 Z-1.8000
G01 Z0
G00 Z2.0000
G00 X14.0000 Y4.0000
G01 Z-1.8000
G01 Z0
G00 Z2.0000
G00 X17.6100 Y12.0000
G01 Z-1.8000
G01 Z0
G00 Z2.0000
G00 X20.1500 Y12.0000
G01 Z-1.8000
G01 Z0
G00 Z2.0000
G00 X22.6900 Y12.0000
G01 Z-1.8000
G01 Z0
G00 Z2.0000
G00 X28.0000 Y13.0000
G01 Z-1.8000
G01 Z0
G00 Z2.0000
G00 X30.3100 Y5.6500
G01 Z-1.8000
G01 Z0
G00 Z2.0000
G00 X34.1200 Y5.6500
G01 Z-1.8000
G01 Z0
G00 Z2.0000
G00 X37.9300 Y5.6500
G01 Z-1.8000
G01 Z0
G00 Z2.0000
G00 X41.7400 Y5.6500
G01 Z-1.8000
G01 Z0
G00 Z2.0000
G00 X45.5500 Y5.6500
G01 Z-1.8000
G01 Z0
G00 Z2.0000
G00 X49.3600 Y5.6500
G01 Z-1.8000
G01 Z0
G00 Z2.0000
G00 X53.1700 Y5.6500
G01 Z-1.8000
G01 Z0
G00 Z2.0000
G00 X56.9800 Y5.6500
G01 Z-1.8000
G01 Z0
G00 Z2.0000
G00 X60.7900 Y5.6500
G01 Z-1.8000
G01 Z0
G00 Z2.0000
G00 X64.6000 Y5.6500
G01 Z-1.8000
G01 Z0
G00 Z2.0000
G00 X53.0000 Y13.0000
G01 Z-1.8000
G01 Z0
G00 Z2.0000
G00 X49.0000 Y18.0000
G01 Z-1.8000
G01 Z0
G00 Z2.0000
M05
G00 Z20.00


