(G-CODE GENERATED BY FLATCAM v8.994 - www.flatcam.org - Version Date: 2020/11/7)

(Name: Sirygraphie_front_cnc)
(Type: G-code from Geometry)
(Units: MM)

(Created on Friday, 12 February 2021 at 22:54)


G01 F100.00

M5
G00 Z20.0000
G00 X0.0000 Y0.0000
T1
M6    
(MSG, Change to Tool Dia = 0.2000)
M0
G00 Z20.0000

M03 S12000.0
G01 F100.00
G00 X1.5450 Y2.5250
G01 F60.00
G01 Z-0.0750
G01 F100.00
G01 X39.5450 Y2.5250
G01 X39.5450 Y7.5050
G01 X1.5450 Y7.5050
G01 X1.5450 Y2.5250
G00 X1.5450 Y2.5250
G01 F60.00
G01 Z-0.1500
G01 F100.00
G01 X39.5450 Y2.5250
G01 X39.5450 Y7.5050
G01 X1.5450 Y7.5050
G01 X1.5450 Y2.5250
G00 X1.5450 Y2.5250
G01 F60.00
G01 Z-0.2250
G01 F100.00
G01 X39.5450 Y2.5250
G01 X39.5450 Y7.5050
G01 X1.5450 Y7.5050
G01 X1.5450 Y2.5250
G00 X1.5450 Y2.5250
G01 F60.00
G01 Z-0.2836
G01 F100.00
G01 X39.5450 Y2.5250
G01 X39.5450 Y7.5050
G01 X1.5450 Y7.5050
G01 X1.5450 Y2.5250
G00 Z2.0000
G00 X5.0150 Y5.6471
G01 F60.00
G01 Z-0.0750
G01 F100.00
G01 X5.0075 Y5.4946
G01 X5.0069 Y5.4888
G01 X4.9845 Y5.3378
G01 X4.9834 Y5.3320
G01 X4.9463 Y5.1840
G01 X4.9446 Y5.1784
G01 X4.8932 Y5.0347
G01 X4.8909 Y5.0293
G01 X4.8257 Y4.8913
G01 X4.8229 Y4.8861
G01 X4.7444 Y4.7552
G01 X4.7412 Y4.7503
G01 X4.6502 Y4.6278
G01 X4.6465 Y4.6232
G01 X4.5440 Y4.5101
G01 X4.5399 Y4.5060
G01 X4.4268 Y4.4035
G01 X4.4222 Y4.3998
G01 X4.2997 Y4.3088
G01 X4.2948 Y4.3056
G01 X4.1639 Y4.2271
G01 X4.1587 Y4.2243
G01 X4.0207 Y4.1591
G01 X4.0153 Y4.1568
G01 X3.8716 Y4.1054
G01 X3.8660 Y4.1037
G01 X3.7180 Y4.0666
G01 X3.7122 Y4.0655
G01 X3.5612 Y4.0431
G01 X3.5554 Y4.0425
G01 X3.4029 Y4.0350
G01 X3.3971 Y4.0350
G01 X3.2446 Y4.0425
G01 X3.2388 Y4.0431
G01 X3.0878 Y4.0655
G01 X3.0820 Y4.0666
G01 X2.9340 Y4.1037
G01 X2.9284 Y4.1054
G01 X2.7847 Y4.1568
G01 X2.7793 Y4.1591
G01 X2.6413 Y4.2243
G01 X2.6361 Y4.2271
G01 X2.5052 Y4.3056
G01 X2.5003 Y4.3088
G01 X2.3778 Y4.3998
G01 X2.3732 Y4.4035
G01 X2.2601 Y4.5060
G01 X2.2560 Y4.5101
G01 X2.1535 Y4.6232
G01 X2.1498 Y4.6278
G01 X2.0588 Y4.7503
G01 X2.0556 Y4.7552
G01 X1.9771 Y4.8861
G01 X1.9743 Y4.8913
G01 X1.9091 Y5.0293
G01 X1.9068 Y5.0347
G01 X1.8554 Y5.1784
G01 X1.8537 Y5.1840
G01 X1.8166 Y5.3320
G01 X1.8155 Y5.3378
G01 X1.7931 Y5.4888
G01 X1.7925 Y5.4946
G01 X1.7850 Y5.6471
G01 X1.7850 Y5.6529
G01 X1.7925 Y5.8054
G01 X1.7931 Y5.8112
G01 X1.8155 Y5.9622
G01 X1.8166 Y5.9680
G01 X1.8537 Y6.1160
G01 X1.8554 Y6.1216
G01 X1.9068 Y6.2653
G01 X1.9091 Y6.2707
G01 X1.9743 Y6.4087
G01 X1.9771 Y6.4139
G01 X2.0556 Y6.5448
G01 X2.0588 Y6.5497
G01 X2.1498 Y6.6722
G01 X2.1535 Y6.6768
G01 X2.2560 Y6.7899
G01 X2.2601 Y6.7940
G01 X2.3732 Y6.8965
G01 X2.3778 Y6.9002
G01 X2.5003 Y6.9912
G01 X2.5052 Y6.9944
G01 X2.6361 Y7.0729
G01 X2.6413 Y7.0757
G01 X2.7793 Y7.1409
G01 X2.7847 Y7.1432
G01 X2.9284 Y7.1946
G01 X2.9340 Y7.1963
G01 X3.0820 Y7.2334
G01 X3.0878 Y7.2345
G01 X3.2388 Y7.2569
G01 X3.2446 Y7.2575
G01 X3.3971 Y7.2650
G01 X3.4029 Y7.2650
G01 X3.5554 Y7.2575
G01 X3.5612 Y7.2569
G01 X3.7122 Y7.2345
G01 X3.7180 Y7.2334
G01 X3.8660 Y7.1963
G01 X3.8716 Y7.1946
G01 X4.0153 Y7.1432
G01 X4.0207 Y7.1409
G01 X4.1587 Y7.0757
G01 X4.1639 Y7.0729
G01 X4.2948 Y6.9944
G01 X4.2997 Y6.9912
G01 X4.4222 Y6.9002
G01 X4.4268 Y6.8965
G01 X4.5399 Y6.7940
G01 X4.5440 Y6.7899
G01 X4.6465 Y6.6768
G01 X4.6502 Y6.6722
G01 X4.7412 Y6.5497
G01 X4.7444 Y6.5448
G01 X4.8229 Y6.4139
G01 X4.8257 Y6.4087
G01 X4.8909 Y6.2707
G01 X4.8932 Y6.2653
G01 X4.9446 Y6.1216
G01 X4.9463 Y6.1160
G01 X4.9834 Y5.9680
G01 X4.9845 Y5.9622
G01 X5.0069 Y5.8112
G01 X5.0075 Y5.8054
G01 X5.0150 Y5.6529
G01 X5.0150 Y5.6471
G00 X5.0150 Y5.6471
G01 F60.00
G01 Z-0.1500
G01 F100.00
G01 X5.0075 Y5.4946
G01 X5.0069 Y5.4888
G01 X4.9845 Y5.3378
G01 X4.9834 Y5.3320
G01 X4.9463 Y5.1840
G01 X4.9446 Y5.1784
G01 X4.8932 Y5.0347
G01 X4.8909 Y5.0293
G01 X4.8257 Y4.8913
G01 X4.8229 Y4.8861
G01 X4.7444 Y4.7552
G01 X4.7412 Y4.7503
G01 X4.6502 Y4.6278
G01 X4.6465 Y4.6232
G01 X4.5440 Y4.5101
G01 X4.5399 Y4.5060
G01 X4.4268 Y4.4035
G01 X4.4222 Y4.3998
G01 X4.2997 Y4.3088
G01 X4.2948 Y4.3056
G01 X4.1639 Y4.2271
G01 X4.1587 Y4.2243
G01 X4.0207 Y4.1591
G01 X4.0153 Y4.1568
G01 X3.8716 Y4.1054
G01 X3.8660 Y4.1037
G01 X3.7180 Y4.0666
G01 X3.7122 Y4.0655
G01 X3.5612 Y4.0431
G01 X3.5554 Y4.0425
G01 X3.4029 Y4.0350
G01 X3.3971 Y4.0350
G01 X3.2446 Y4.0425
G01 X3.2388 Y4.0431
G01 X3.0878 Y4.0655
G01 X3.0820 Y4.0666
G01 X2.9340 Y4.1037
G01 X2.9284 Y4.1054
G01 X2.7847 Y4.1568
G01 X2.7793 Y4.1591
G01 X2.6413 Y4.2243
G01 X2.6361 Y4.2271
G01 X2.5052 Y4.3056
G01 X2.5003 Y4.3088
G01 X2.3778 Y4.3998
G01 X2.3732 Y4.4035
G01 X2.2601 Y4.5060
G01 X2.2560 Y4.5101
G01 X2.1535 Y4.6232
G01 X2.1498 Y4.6278
G01 X2.0588 Y4.7503
G01 X2.0556 Y4.7552
G01 X1.9771 Y4.8861
G01 X1.9743 Y4.8913
G01 X1.9091 Y5.0293
G01 X1.9068 Y5.0347
G01 X1.8554 Y5.1784
G01 X1.8537 Y5.1840
G01 X1.8166 Y5.3320
G01 X1.8155 Y5.3378
G01 X1.7931 Y5.4888
G01 X1.7925 Y5.4946
G01 X1.7850 Y5.6471
G01 X1.7850 Y5.6529
G01 X1.7925 Y5.8054
G01 X1.7931 Y5.8112
G01 X1.8155 Y5.9622
G01 X1.8166 Y5.9680
G01 X1.8537 Y6.1160
G01 X1.8554 Y6.1216
G01 X1.9068 Y6.2653
G01 X1.9091 Y6.2707
G01 X1.9743 Y6.4087
G01 X1.9771 Y6.4139
G01 X2.0556 Y6.5448
G01 X2.0588 Y6.5497
G01 X2.1498 Y6.6722
G01 X2.1535 Y6.6768
G01 X2.2560 Y6.7899
G01 X2.2601 Y6.7940
G01 X2.3732 Y6.8965
G01 X2.3778 Y6.9002
G01 X2.5003 Y6.9912
G01 X2.5052 Y6.9944
G01 X2.6361 Y7.0729
G01 X2.6413 Y7.0757
G01 X2.7793 Y7.1409
G01 X2.7847 Y7.1432
G01 X2.9284 Y7.1946
G01 X2.9340 Y7.1963
G01 X3.0820 Y7.2334
G01 X3.0878 Y7.2345
G01 X3.2388 Y7.2569
G01 X3.2446 Y7.2575
G01 X3.3971 Y7.2650
G01 X3.4029 Y7.2650
G01 X3.5554 Y7.2575
G01 X3.5612 Y7.2569
G01 X3.7122 Y7.2345
G01 X3.7180 Y7.2334
G01 X3.8660 Y7.1963
G01 X3.8716 Y7.1946
G01 X4.0153 Y7.1432
G01 X4.0207 Y7.1409
G01 X4.1587 Y7.0757
G01 X4.1639 Y7.0729
G01 X4.2948 Y6.9944
G01 X4.2997 Y6.9912
G01 X4.4222 Y6.9002
G01 X4.4268 Y6.8965
G01 X4.5399 Y6.7940
G01 X4.5440 Y6.7899
G01 X4.6465 Y6.6768
G01 X4.6502 Y6.6722
G01 X4.7412 Y6.5497
G01 X4.7444 Y6.5448
G01 X4.8229 Y6.4139
G01 X4.8257 Y6.4087
G01 X4.8909 Y6.2707
G01 X4.8932 Y6.2653
G01 X4.9446 Y6.1216
G01 X4.9463 Y6.1160
G01 X4.9834 Y5.9680
G01 X4.9845 Y5.9622
G01 X5.0069 Y5.8112
G01 X5.0075 Y5.8054
G01 X5.0150 Y5.6529
G01 X5.0150 Y5.6471
G00 X5.0150 Y5.6471
G01 F60.00
G01 Z-0.2250
G01 F100.00
G01 X5.0075 Y5.4946
G01 X5.0069 Y5.4888
G01 X4.9845 Y5.3378
G01 X4.9834 Y5.3320
G01 X4.9463 Y5.1840
G01 X4.9446 Y5.1784
G01 X4.8932 Y5.0347
G01 X4.8909 Y5.0293
G01 X4.8257 Y4.8913
G01 X4.8229 Y4.8861
G01 X4.7444 Y4.7552
G01 X4.7412 Y4.7503
G01 X4.6502 Y4.6278
G01 X4.6465 Y4.6232
G01 X4.5440 Y4.5101
G01 X4.5399 Y4.5060
G01 X4.4268 Y4.4035
G01 X4.4222 Y4.3998
G01 X4.2997 Y4.3088
G01 X4.2948 Y4.3056
G01 X4.1639 Y4.2271
G01 X4.1587 Y4.2243
G01 X4.0207 Y4.1591
G01 X4.0153 Y4.1568
G01 X3.8716 Y4.1054
G01 X3.8660 Y4.1037
G01 X3.7180 Y4.0666
G01 X3.7122 Y4.0655
G01 X3.5612 Y4.0431
G01 X3.5554 Y4.0425
G01 X3.4029 Y4.0350
G01 X3.3971 Y4.0350
G01 X3.2446 Y4.0425
G01 X3.2388 Y4.0431
G01 X3.0878 Y4.0655
G01 X3.0820 Y4.0666
G01 X2.9340 Y4.1037
G01 X2.9284 Y4.1054
G01 X2.7847 Y4.1568
G01 X2.7793 Y4.1591
G01 X2.6413 Y4.2243
G01 X2.6361 Y4.2271
G01 X2.5052 Y4.3056
G01 X2.5003 Y4.3088
G01 X2.3778 Y4.3998
G01 X2.3732 Y4.4035
G01 X2.2601 Y4.5060
G01 X2.2560 Y4.5101
G01 X2.1535 Y4.6232
G01 X2.1498 Y4.6278
G01 X2.0588 Y4.7503
G01 X2.0556 Y4.7552
G01 X1.9771 Y4.8861
G01 X1.9743 Y4.8913
G01 X1.9091 Y5.0293
G01 X1.9068 Y5.0347
G01 X1.8554 Y5.1784
G01 X1.8537 Y5.1840
G01 X1.8166 Y5.3320
G01 X1.8155 Y5.3378
G01 X1.7931 Y5.4888
G01 X1.7925 Y5.4946
G01 X1.7850 Y5.6471
G01 X1.7850 Y5.6529
G01 X1.7925 Y5.8054
G01 X1.7931 Y5.8112
G01 X1.8155 Y5.9622
G01 X1.8166 Y5.9680
G01 X1.8537 Y6.1160
G01 X1.8554 Y6.1216
G01 X1.9068 Y6.2653
G01 X1.9091 Y6.2707
G01 X1.9743 Y6.4087
G01 X1.9771 Y6.4139
G01 X2.0556 Y6.5448
G01 X2.0588 Y6.5497
G01 X2.1498 Y6.6722
G01 X2.1535 Y6.6768
G01 X2.2560 Y6.7899
G01 X2.2601 Y6.7940
G01 X2.3732 Y6.8965
G01 X2.3778 Y6.9002
G01 X2.5003 Y6.9912
G01 X2.5052 Y6.9944
G01 X2.6361 Y7.0729
G01 X2.6413 Y7.0757
G01 X2.7793 Y7.1409
G01 X2.7847 Y7.1432
G01 X2.9284 Y7.1946
G01 X2.9340 Y7.1963
G01 X3.0820 Y7.2334
G01 X3.0878 Y7.2345
G01 X3.2388 Y7.2569
G01 X3.2446 Y7.2575
G01 X3.3971 Y7.2650
G01 X3.4029 Y7.2650
G01 X3.5554 Y7.2575
G01 X3.5612 Y7.2569
G01 X3.7122 Y7.2345
G01 X3.7180 Y7.2334
G01 X3.8660 Y7.1963
G01 X3.8716 Y7.1946
G01 X4.0153 Y7.1432
G01 X4.0207 Y7.1409
G01 X4.1587 Y7.0757
G01 X4.1639 Y7.0729
G01 X4.2948 Y6.9944
G01 X4.2997 Y6.9912
G01 X4.4222 Y6.9002
G01 X4.4268 Y6.8965
G01 X4.5399 Y6.7940
G01 X4.5440 Y6.7899
G01 X4.6465 Y6.6768
G01 X4.6502 Y6.6722
G01 X4.7412 Y6.5497
G01 X4.7444 Y6.5448
G01 X4.8229 Y6.4139
G01 X4.8257 Y6.4087
G01 X4.8909 Y6.2707
G01 X4.8932 Y6.2653
G01 X4.9446 Y6.1216
G01 X4.9463 Y6.1160
G01 X4.9834 Y5.9680
G01 X4.9845 Y5.9622
G01 X5.0069 Y5.8112
G01 X5.0075 Y5.8054
G01 X5.0150 Y5.6529
G01 X5.0150 Y5.6471
G00 X5.0150 Y5.6471
G01 F60.00
G01 Z-0.2836
G01 F100.00
G01 X5.0075 Y5.4946
G01 X5.0069 Y5.4888
G01 X4.9845 Y5.3378
G01 X4.9834 Y5.3320
G01 X4.9463 Y5.1840
G01 X4.9446 Y5.1784
G01 X4.8932 Y5.0347
G01 X4.8909 Y5.0293
G01 X4.8257 Y4.8913
G01 X4.8229 Y4.8861
G01 X4.7444 Y4.7552
G01 X4.7412 Y4.7503
G01 X4.6502 Y4.6278
G01 X4.6465 Y4.6232
G01 X4.5440 Y4.5101
G01 X4.5399 Y4.5060
G01 X4.4268 Y4.4035
G01 X4.4222 Y4.3998
G01 X4.2997 Y4.3088
G01 X4.2948 Y4.3056
G01 X4.1639 Y4.2271
G01 X4.1587 Y4.2243
G01 X4.0207 Y4.1591
G01 X4.0153 Y4.1568
G01 X3.8716 Y4.1054
G01 X3.8660 Y4.1037
G01 X3.7180 Y4.0666
G01 X3.7122 Y4.0655
G01 X3.5612 Y4.0431
G01 X3.5554 Y4.0425
G01 X3.4029 Y4.0350
G01 X3.3971 Y4.0350
G01 X3.2446 Y4.0425
G01 X3.2388 Y4.0431
G01 X3.0878 Y4.0655
G01 X3.0820 Y4.0666
G01 X2.9340 Y4.1037
G01 X2.9284 Y4.1054
G01 X2.7847 Y4.1568
G01 X2.7793 Y4.1591
G01 X2.6413 Y4.2243
G01 X2.6361 Y4.2271
G01 X2.5052 Y4.3056
G01 X2.5003 Y4.3088
G01 X2.3778 Y4.3998
G01 X2.3732 Y4.4035
G01 X2.2601 Y4.5060
G01 X2.2560 Y4.5101
G01 X2.1535 Y4.6232
G01 X2.1498 Y4.6278
G01 X2.0588 Y4.7503
G01 X2.0556 Y4.7552
G01 X1.9771 Y4.8861
G01 X1.9743 Y4.8913
G01 X1.9091 Y5.0293
G01 X1.9068 Y5.0347
G01 X1.8554 Y5.1784
G01 X1.8537 Y5.1840
G01 X1.8166 Y5.3320
G01 X1.8155 Y5.3378
G01 X1.7931 Y5.4888
G01 X1.7925 Y5.4946
G01 X1.7850 Y5.6471
G01 X1.7850 Y5.6529
G01 X1.7925 Y5.8054
G01 X1.7931 Y5.8112
G01 X1.8155 Y5.9622
G01 X1.8166 Y5.9680
G01 X1.8537 Y6.1160
G01 X1.8554 Y6.1216
G01 X1.9068 Y6.2653
G01 X1.9091 Y6.2707
G01 X1.9743 Y6.4087
G01 X1.9771 Y6.4139
G01 X2.0556 Y6.5448
G01 X2.0588 Y6.5497
G01 X2.1498 Y6.6722
G01 X2.1535 Y6.6768
G01 X2.2560 Y6.7899
G01 X2.2601 Y6.7940
G01 X2.3732 Y6.8965
G01 X2.3778 Y6.9002
G01 X2.5003 Y6.9912
G01 X2.5052 Y6.9944
G01 X2.6361 Y7.0729
G01 X2.6413 Y7.0757
G01 X2.7793 Y7.1409
G01 X2.7847 Y7.1432
G01 X2.9284 Y7.1946
G01 X2.9340 Y7.1963
G01 X3.0820 Y7.2334
G01 X3.0878 Y7.2345
G01 X3.2388 Y7.2569
G01 X3.2446 Y7.2575
G01 X3.3971 Y7.2650
G01 X3.4029 Y7.2650
G01 X3.5554 Y7.2575
G01 X3.5612 Y7.2569
G01 X3.7122 Y7.2345
G01 X3.7180 Y7.2334
G01 X3.8660 Y7.1963
G01 X3.8716 Y7.1946
G01 X4.0153 Y7.1432
G01 X4.0207 Y7.1409
G01 X4.1587 Y7.0757
G01 X4.1639 Y7.0729
G01 X4.2948 Y6.9944
G01 X4.2997 Y6.9912
G01 X4.4222 Y6.9002
G01 X4.4268 Y6.8965
G01 X4.5399 Y6.7940
G01 X4.5440 Y6.7899
G01 X4.6465 Y6.6768
G01 X4.6502 Y6.6722
G01 X4.7412 Y6.5497
G01 X4.7444 Y6.5448
G01 X4.8229 Y6.4139
G01 X4.8257 Y6.4087
G01 X4.8909 Y6.2707
G01 X4.8932 Y6.2653
G01 X4.9446 Y6.1216
G01 X4.9463 Y6.1160
G01 X4.9834 Y5.9680
G01 X4.9845 Y5.9622
G01 X5.0069 Y5.8112
G01 X5.0075 Y5.8054
G01 X5.0150 Y5.6529
G01 X5.0150 Y5.6471
G00 Z2.0000
G00 X4.8877 Y5.7965
G01 F60.00
G01 Z-0.0750
G01 F100.00
G01 X4.8662 Y5.9416
G01 X4.8305 Y6.0839
G01 X4.7811 Y6.2221
G01 X4.7184 Y6.3547
G01 X4.6430 Y6.4805
G01 X4.5556 Y6.5984
G01 X4.4571 Y6.7071
G01 X4.3484 Y6.8056
G01 X4.2305 Y6.8930
G01 X4.1047 Y6.9684
G01 X3.9721 Y7.0311
G01 X3.8339 Y7.0805
G01 X3.6916 Y7.1162
G01 X3.5465 Y7.1377
G01 X3.4000 Y7.1449
G01 X3.2535 Y7.1377
G01 X3.1084 Y7.1162
G01 X2.9661 Y7.0805
G01 X2.8279 Y7.0311
G01 X2.6953 Y6.9684
G01 X2.5695 Y6.8930
G01 X2.4516 Y6.8056
G01 X2.3429 Y6.7071
G01 X2.2444 Y6.5984
G01 X2.1570 Y6.4805
G01 X2.0816 Y6.3547
G01 X2.0189 Y6.2221
G01 X1.9695 Y6.0839
G01 X1.9338 Y5.9416
G01 X1.9123 Y5.7965
G01 X1.9051 Y5.6500
G01 X1.9123 Y5.5035
G01 X1.9338 Y5.3584
G01 X1.9695 Y5.2161
G01 X2.0189 Y5.0779
G01 X2.0816 Y4.9453
G01 X2.1570 Y4.8195
G01 X2.2444 Y4.7016
G01 X2.3429 Y4.5929
G01 X2.4516 Y4.4944
G01 X2.5695 Y4.4070
G01 X2.6953 Y4.3316
G01 X2.8279 Y4.2689
G01 X2.9661 Y4.2195
G01 X3.1084 Y4.1838
G01 X3.2535 Y4.1623
G01 X3.4000 Y4.1551
G01 X3.5465 Y4.1623
G01 X3.6916 Y4.1838
G01 X3.8339 Y4.2195
G01 X3.9721 Y4.2689
G01 X4.1047 Y4.3316
G01 X4.2305 Y4.4070
G01 X4.3484 Y4.4944
G01 X4.4571 Y4.5929
G01 X4.5556 Y4.7016
G01 X4.6430 Y4.8195
G01 X4.7184 Y4.9453
G01 X4.7811 Y5.0779
G01 X4.8305 Y5.2161
G01 X4.8662 Y5.3584
G01 X4.8877 Y5.5035
G01 X4.8949 Y5.6500
G01 X4.8877 Y5.7965
G00 X4.8877 Y5.7965
G01 F60.00
G01 Z-0.1500
G01 F100.00
G01 X4.8662 Y5.9416
G01 X4.8305 Y6.0839
G01 X4.7811 Y6.2221
G01 X4.7184 Y6.3547
G01 X4.6430 Y6.4805
G01 X4.5556 Y6.5984
G01 X4.4571 Y6.7071
G01 X4.3484 Y6.8056
G01 X4.2305 Y6.8930
G01 X4.1047 Y6.9684
G01 X3.9721 Y7.0311
G01 X3.8339 Y7.0805
G01 X3.6916 Y7.1162
G01 X3.5465 Y7.1377
G01 X3.4000 Y7.1449
G01 X3.2535 Y7.1377
G01 X3.1084 Y7.1162
G01 X2.9661 Y7.0805
G01 X2.8279 Y7.0311
G01 X2.6953 Y6.9684
G01 X2.5695 Y6.8930
G01 X2.4516 Y6.8056
G01 X2.3429 Y6.7071
G01 X2.2444 Y6.5984
G01 X2.1570 Y6.4805
G01 X2.0816 Y6.3547
G01 X2.0189 Y6.2221
G01 X1.9695 Y6.0839
G01 X1.9338 Y5.9416
G01 X1.9123 Y5.7965
G01 X1.9051 Y5.6500
G01 X1.9123 Y5.5035
G01 X1.9338 Y5.3584
G01 X1.9695 Y5.2161
G01 X2.0189 Y5.0779
G01 X2.0816 Y4.9453
G01 X2.1570 Y4.8195
G01 X2.2444 Y4.7016
G01 X2.3429 Y4.5929
G01 X2.4516 Y4.4944
G01 X2.5695 Y4.4070
G01 X2.6953 Y4.3316
G01 X2.8279 Y4.2689
G01 X2.9661 Y4.2195
G01 X3.1084 Y4.1838
G01 X3.2535 Y4.1623
G01 X3.4000 Y4.1551
G01 X3.5465 Y4.1623
G01 X3.6916 Y4.1838
G01 X3.8339 Y4.2195
G01 X3.9721 Y4.2689
G01 X4.1047 Y4.3316
G01 X4.2305 Y4.4070
G01 X4.3484 Y4.4944
G01 X4.4571 Y4.5929
G01 X4.5556 Y4.7016
G01 X4.6430 Y4.8195
G01 X4.7184 Y4.9453
G01 X4.7811 Y5.0779
G01 X4.8305 Y5.2161
G01 X4.8662 Y5.3584
G01 X4.8877 Y5.5035
G01 X4.8949 Y5.6500
G01 X4.8877 Y5.7965
G00 X4.8877 Y5.7965
G01 F60.00
G01 Z-0.2250
G01 F100.00
G01 X4.8662 Y5.9416
G01 X4.8305 Y6.0839
G01 X4.7811 Y6.2221
G01 X4.7184 Y6.3547
G01 X4.6430 Y6.4805
G01 X4.5556 Y6.5984
G01 X4.4571 Y6.7071
G01 X4.3484 Y6.8056
G01 X4.2305 Y6.8930
G01 X4.1047 Y6.9684
G01 X3.9721 Y7.0311
G01 X3.8339 Y7.0805
G01 X3.6916 Y7.1162
G01 X3.5465 Y7.1377
G01 X3.4000 Y7.1449
G01 X3.2535 Y7.1377
G01 X3.1084 Y7.1162
G01 X2.9661 Y7.0805
G01 X2.8279 Y7.0311
G01 X2.6953 Y6.9684
G01 X2.5695 Y6.8930
G01 X2.4516 Y6.8056
G01 X2.3429 Y6.7071
G01 X2.2444 Y6.5984
G01 X2.1570 Y6.4805
G01 X2.0816 Y6.3547
G01 X2.0189 Y6.2221
G01 X1.9695 Y6.0839
G01 X1.9338 Y5.9416
G01 X1.9123 Y5.7965
G01 X1.9051 Y5.6500
G01 X1.9123 Y5.5035
G01 X1.9338 Y5.3584
G01 X1.9695 Y5.2161
G01 X2.0189 Y5.0779
G01 X2.0816 Y4.9453
G01 X2.1570 Y4.8195
G01 X2.2444 Y4.7016
G01 X2.3429 Y4.5929
G01 X2.4516 Y4.4944
G01 X2.5695 Y4.4070
G01 X2.6953 Y4.3316
G01 X2.8279 Y4.2689
G01 X2.9661 Y4.2195
G01 X3.1084 Y4.1838
G01 X3.2535 Y4.1623
G01 X3.4000 Y4.1551
G01 X3.5465 Y4.1623
G01 X3.6916 Y4.1838
G01 X3.8339 Y4.2195
G01 X3.9721 Y4.2689
G01 X4.1047 Y4.3316
G01 X4.2305 Y4.4070
G01 X4.3484 Y4.4944
G01 X4.4571 Y4.5929
G01 X4.5556 Y4.7016
G01 X4.6430 Y4.8195
G01 X4.7184 Y4.9453
G01 X4.7811 Y5.0779
G01 X4.8305 Y5.2161
G01 X4.8662 Y5.3584
G01 X4.8877 Y5.5035
G01 X4.8949 Y5.6500
G01 X4.8877 Y5.7965
G00 X4.8877 Y5.7965
G01 F60.00
G01 Z-0.2836
G01 F100.00
G01 X4.8662 Y5.9416
G01 X4.8305 Y6.0839
G01 X4.7811 Y6.2221
G01 X4.7184 Y6.3547
G01 X4.6430 Y6.4805
G01 X4.5556 Y6.5984
G01 X4.4571 Y6.7071
G01 X4.3484 Y6.8056
G01 X4.2305 Y6.8930
G01 X4.1047 Y6.9684
G01 X3.9721 Y7.0311
G01 X3.8339 Y7.0805
G01 X3.6916 Y7.1162
G01 X3.5465 Y7.1377
G01 X3.4000 Y7.1449
G01 X3.2535 Y7.1377
G01 X3.1084 Y7.1162
G01 X2.9661 Y7.0805
G01 X2.8279 Y7.0311
G01 X2.6953 Y6.9684
G01 X2.5695 Y6.8930
G01 X2.4516 Y6.8056
G01 X2.3429 Y6.7071
G01 X2.2444 Y6.5984
G01 X2.1570 Y6.4805
G01 X2.0816 Y6.3547
G01 X2.0189 Y6.2221
G01 X1.9695 Y6.0839
G01 X1.9338 Y5.9416
G01 X1.9123 Y5.7965
G01 X1.9051 Y5.6500
G01 X1.9123 Y5.5035
G01 X1.9338 Y5.3584
G01 X1.9695 Y5.2161
G01 X2.0189 Y5.0779
G01 X2.0816 Y4.9453
G01 X2.1570 Y4.8195
G01 X2.2444 Y4.7016
G01 X2.3429 Y4.5929
G01 X2.4516 Y4.4944
G01 X2.5695 Y4.4070
G01 X2.6953 Y4.3316
G01 X2.8279 Y4.2689
G01 X2.9661 Y4.2195
G01 X3.1084 Y4.1838
G01 X3.2535 Y4.1623
G01 X3.4000 Y4.1551
G01 X3.5465 Y4.1623
G01 X3.6916 Y4.1838
G01 X3.8339 Y4.2195
G01 X3.9721 Y4.2689
G01 X4.1047 Y4.3316
G01 X4.2305 Y4.4070
G01 X4.3484 Y4.4944
G01 X4.4571 Y4.5929
G01 X4.5556 Y4.7016
G01 X4.6430 Y4.8195
G01 X4.7184 Y4.9453
G01 X4.7811 Y5.0779
G01 X4.8305 Y5.2161
G01 X4.8662 Y5.3584
G01 X4.8877 Y5.5035
G01 X4.8949 Y5.6500
G01 X4.8877 Y5.7965
G00 Z2.0000
G00 X8.6977 Y5.7965
G01 F60.00
G01 Z-0.0750
G01 F100.00
G01 X8.6762 Y5.9416
G01 X8.6405 Y6.0839
G01 X8.5911 Y6.2221
G01 X8.5284 Y6.3547
G01 X8.4530 Y6.4805
G01 X8.3656 Y6.5984
G01 X8.2671 Y6.7071
G01 X8.1584 Y6.8056
G01 X8.0405 Y6.8930
G01 X7.9147 Y6.9684
G01 X7.7821 Y7.0311
G01 X7.6439 Y7.0805
G01 X7.5016 Y7.1162
G01 X7.3565 Y7.1377
G01 X7.2100 Y7.1449
G01 X7.0635 Y7.1377
G01 X6.9184 Y7.1162
G01 X6.7761 Y7.0805
G01 X6.6379 Y7.0311
G01 X6.5053 Y6.9684
G01 X6.3795 Y6.8930
G01 X6.2616 Y6.8056
G01 X6.1529 Y6.7071
G01 X6.0544 Y6.5984
G01 X5.9670 Y6.4805
G01 X5.8916 Y6.3547
G01 X5.8289 Y6.2221
G01 X5.7795 Y6.0839
G01 X5.7438 Y5.9416
G01 X5.7223 Y5.7965
G01 X5.7151 Y5.6500
G01 X5.7223 Y5.5035
G01 X5.7438 Y5.3584
G01 X5.7795 Y5.2161
G01 X5.8289 Y5.0779
G01 X5.8916 Y4.9453
G01 X5.9670 Y4.8195
G01 X6.0544 Y4.7016
G01 X6.1529 Y4.5929
G01 X6.2616 Y4.4944
G01 X6.3795 Y4.4070
G01 X6.5053 Y4.3316
G01 X6.6379 Y4.2689
G01 X6.7761 Y4.2195
G01 X6.9184 Y4.1838
G01 X7.0635 Y4.1623
G01 X7.2100 Y4.1551
G01 X7.3565 Y4.1623
G01 X7.5016 Y4.1838
G01 X7.6439 Y4.2195
G01 X7.7821 Y4.2689
G01 X7.9147 Y4.3316
G01 X8.0405 Y4.4070
G01 X8.1584 Y4.4944
G01 X8.2671 Y4.5929
G01 X8.3656 Y4.7016
G01 X8.4530 Y4.8195
G01 X8.5284 Y4.9453
G01 X8.5911 Y5.0779
G01 X8.6405 Y5.2161
G01 X8.6762 Y5.3584
G01 X8.6977 Y5.5035
G01 X8.7049 Y5.6500
G01 X8.6977 Y5.7965
G00 X8.6977 Y5.7965
G01 F60.00
G01 Z-0.1500
G01 F100.00
G01 X8.6762 Y5.9416
G01 X8.6405 Y6.0839
G01 X8.5911 Y6.2221
G01 X8.5284 Y6.3547
G01 X8.4530 Y6.4805
G01 X8.3656 Y6.5984
G01 X8.2671 Y6.7071
G01 X8.1584 Y6.8056
G01 X8.0405 Y6.8930
G01 X7.9147 Y6.9684
G01 X7.7821 Y7.0311
G01 X7.6439 Y7.0805
G01 X7.5016 Y7.1162
G01 X7.3565 Y7.1377
G01 X7.2100 Y7.1449
G01 X7.0635 Y7.1377
G01 X6.9184 Y7.1162
G01 X6.7761 Y7.0805
G01 X6.6379 Y7.0311
G01 X6.5053 Y6.9684
G01 X6.3795 Y6.8930
G01 X6.2616 Y6.8056
G01 X6.1529 Y6.7071
G01 X6.0544 Y6.5984
G01 X5.9670 Y6.4805
G01 X5.8916 Y6.3547
G01 X5.8289 Y6.2221
G01 X5.7795 Y6.0839
G01 X5.7438 Y5.9416
G01 X5.7223 Y5.7965
G01 X5.7151 Y5.6500
G01 X5.7223 Y5.5035
G01 X5.7438 Y5.3584
G01 X5.7795 Y5.2161
G01 X5.8289 Y5.0779
G01 X5.8916 Y4.9453
G01 X5.9670 Y4.8195
G01 X6.0544 Y4.7016
G01 X6.1529 Y4.5929
G01 X6.2616 Y4.4944
G01 X6.3795 Y4.4070
G01 X6.5053 Y4.3316
G01 X6.6379 Y4.2689
G01 X6.7761 Y4.2195
G01 X6.9184 Y4.1838
G01 X7.0635 Y4.1623
G01 X7.2100 Y4.1551
G01 X7.3565 Y4.1623
G01 X7.5016 Y4.1838
G01 X7.6439 Y4.2195
G01 X7.7821 Y4.2689
G01 X7.9147 Y4.3316
G01 X8.0405 Y4.4070
G01 X8.1584 Y4.4944
G01 X8.2671 Y4.5929
G01 X8.3656 Y4.7016
G01 X8.4530 Y4.8195
G01 X8.5284 Y4.9453
G01 X8.5911 Y5.0779
G01 X8.6405 Y5.2161
G01 X8.6762 Y5.3584
G01 X8.6977 Y5.5035
G01 X8.7049 Y5.6500
G01 X8.6977 Y5.7965
G00 X8.6977 Y5.7965
G01 F60.00
G01 Z-0.2250
G01 F100.00
G01 X8.6762 Y5.9416
G01 X8.6405 Y6.0839
G01 X8.5911 Y6.2221
G01 X8.5284 Y6.3547
G01 X8.4530 Y6.4805
G01 X8.3656 Y6.5984
G01 X8.2671 Y6.7071
G01 X8.1584 Y6.8056
G01 X8.0405 Y6.8930
G01 X7.9147 Y6.9684
G01 X7.7821 Y7.0311
G01 X7.6439 Y7.0805
G01 X7.5016 Y7.1162
G01 X7.3565 Y7.1377
G01 X7.2100 Y7.1449
G01 X7.0635 Y7.1377
G01 X6.9184 Y7.1162
G01 X6.7761 Y7.0805
G01 X6.6379 Y7.0311
G01 X6.5053 Y6.9684
G01 X6.3795 Y6.8930
G01 X6.2616 Y6.8056
G01 X6.1529 Y6.7071
G01 X6.0544 Y6.5984
G01 X5.9670 Y6.4805
G01 X5.8916 Y6.3547
G01 X5.8289 Y6.2221
G01 X5.7795 Y6.0839
G01 X5.7438 Y5.9416
G01 X5.7223 Y5.7965
G01 X5.7151 Y5.6500
G01 X5.7223 Y5.5035
G01 X5.7438 Y5.3584
G01 X5.7795 Y5.2161
G01 X5.8289 Y5.0779
G01 X5.8916 Y4.9453
G01 X5.9670 Y4.8195
G01 X6.0544 Y4.7016
G01 X6.1529 Y4.5929
G01 X6.2616 Y4.4944
G01 X6.3795 Y4.4070
G01 X6.5053 Y4.3316
G01 X6.6379 Y4.2689
G01 X6.7761 Y4.2195
G01 X6.9184 Y4.1838
G01 X7.0635 Y4.1623
G01 X7.2100 Y4.1551
G01 X7.3565 Y4.1623
G01 X7.5016 Y4.1838
G01 X7.6439 Y4.2195
G01 X7.7821 Y4.2689
G01 X7.9147 Y4.3316
G01 X8.0405 Y4.4070
G01 X8.1584 Y4.4944
G01 X8.2671 Y4.5929
G01 X8.3656 Y4.7016
G01 X8.4530 Y4.8195
G01 X8.5284 Y4.9453
G01 X8.5911 Y5.0779
G01 X8.6405 Y5.2161
G01 X8.6762 Y5.3584
G01 X8.6977 Y5.5035
G01 X8.7049 Y5.6500
G01 X8.6977 Y5.7965
G00 X8.6977 Y5.7965
G01 F60.00
G01 Z-0.2836
G01 F100.00
G01 X8.6762 Y5.9416
G01 X8.6405 Y6.0839
G01 X8.5911 Y6.2221
G01 X8.5284 Y6.3547
G01 X8.4530 Y6.4805
G01 X8.3656 Y6.5984
G01 X8.2671 Y6.7071
G01 X8.1584 Y6.8056
G01 X8.0405 Y6.8930
G01 X7.9147 Y6.9684
G01 X7.7821 Y7.0311
G01 X7.6439 Y7.0805
G01 X7.5016 Y7.1162
G01 X7.3565 Y7.1377
G01 X7.2100 Y7.1449
G01 X7.0635 Y7.1377
G01 X6.9184 Y7.1162
G01 X6.7761 Y7.0805
G01 X6.6379 Y7.0311
G01 X6.5053 Y6.9684
G01 X6.3795 Y6.8930
G01 X6.2616 Y6.8056
G01 X6.1529 Y6.7071
G01 X6.0544 Y6.5984
G01 X5.9670 Y6.4805
G01 X5.8916 Y6.3547
G01 X5.8289 Y6.2221
G01 X5.7795 Y6.0839
G01 X5.7438 Y5.9416
G01 X5.7223 Y5.7965
G01 X5.7151 Y5.6500
G01 X5.7223 Y5.5035
G01 X5.7438 Y5.3584
G01 X5.7795 Y5.2161
G01 X5.8289 Y5.0779
G01 X5.8916 Y4.9453
G01 X5.9670 Y4.8195
G01 X6.0544 Y4.7016
G01 X6.1529 Y4.5929
G01 X6.2616 Y4.4944
G01 X6.3795 Y4.4070
G01 X6.5053 Y4.3316
G01 X6.6379 Y4.2689
G01 X6.7761 Y4.2195
G01 X6.9184 Y4.1838
G01 X7.0635 Y4.1623
G01 X7.2100 Y4.1551
G01 X7.3565 Y4.1623
G01 X7.5016 Y4.1838
G01 X7.6439 Y4.2195
G01 X7.7821 Y4.2689
G01 X7.9147 Y4.3316
G01 X8.0405 Y4.4070
G01 X8.1584 Y4.4944
G01 X8.2671 Y4.5929
G01 X8.3656 Y4.7016
G01 X8.4530 Y4.8195
G01 X8.5284 Y4.9453
G01 X8.5911 Y5.0779
G01 X8.6405 Y5.2161
G01 X8.6762 Y5.3584
G01 X8.6977 Y5.5035
G01 X8.7049 Y5.6500
G01 X8.6977 Y5.7965
G00 Z2.0000
G00 X8.8250 Y5.6471
G01 F60.00
G01 Z-0.0750
G01 F100.00
G01 X8.8175 Y5.4946
G01 X8.8169 Y5.4888
G01 X8.7945 Y5.3378
G01 X8.7934 Y5.3320
G01 X8.7563 Y5.1840
G01 X8.7546 Y5.1784
G01 X8.7032 Y5.0347
G01 X8.7009 Y5.0293
G01 X8.6357 Y4.8913
G01 X8.6329 Y4.8861
G01 X8.5544 Y4.7552
G01 X8.5512 Y4.7503
G01 X8.4602 Y4.6278
G01 X8.4565 Y4.6232
G01 X8.3540 Y4.5101
G01 X8.3499 Y4.5060
G01 X8.2368 Y4.4035
G01 X8.2322 Y4.3998
G01 X8.1097 Y4.3088
G01 X8.1048 Y4.3056
G01 X7.9739 Y4.2271
G01 X7.9687 Y4.2243
G01 X7.8307 Y4.1591
G01 X7.8253 Y4.1568
G01 X7.6816 Y4.1054
G01 X7.6760 Y4.1037
G01 X7.5280 Y4.0666
G01 X7.5222 Y4.0655
G01 X7.3712 Y4.0431
G01 X7.3654 Y4.0425
G01 X7.2129 Y4.0350
G01 X7.2071 Y4.0350
G01 X7.0546 Y4.0425
G01 X7.0488 Y4.0431
G01 X6.8978 Y4.0655
G01 X6.8920 Y4.0666
G01 X6.7440 Y4.1037
G01 X6.7384 Y4.1054
G01 X6.5947 Y4.1568
G01 X6.5893 Y4.1591
G01 X6.4513 Y4.2243
G01 X6.4461 Y4.2271
G01 X6.3152 Y4.3056
G01 X6.3103 Y4.3088
G01 X6.1878 Y4.3998
G01 X6.1832 Y4.4035
G01 X6.0701 Y4.5060
G01 X6.0660 Y4.5101
G01 X5.9635 Y4.6232
G01 X5.9598 Y4.6278
G01 X5.8688 Y4.7503
G01 X5.8656 Y4.7552
G01 X5.7871 Y4.8861
G01 X5.7843 Y4.8913
G01 X5.7191 Y5.0293
G01 X5.7168 Y5.0347
G01 X5.6654 Y5.1784
G01 X5.6637 Y5.1840
G01 X5.6266 Y5.3320
G01 X5.6255 Y5.3378
G01 X5.6031 Y5.4888
G01 X5.6025 Y5.4946
G01 X5.5950 Y5.6471
G01 X5.5950 Y5.6529
G01 X5.6025 Y5.8054
G01 X5.6031 Y5.8112
G01 X5.6255 Y5.9622
G01 X5.6266 Y5.9680
G01 X5.6637 Y6.1160
G01 X5.6654 Y6.1216
G01 X5.7168 Y6.2653
G01 X5.7191 Y6.2707
G01 X5.7843 Y6.4087
G01 X5.7871 Y6.4139
G01 X5.8656 Y6.5448
G01 X5.8688 Y6.5497
G01 X5.9598 Y6.6722
G01 X5.9635 Y6.6768
G01 X6.0660 Y6.7899
G01 X6.0701 Y6.7940
G01 X6.1832 Y6.8965
G01 X6.1878 Y6.9002
G01 X6.3103 Y6.9912
G01 X6.3152 Y6.9944
G01 X6.4461 Y7.0729
G01 X6.4513 Y7.0757
G01 X6.5893 Y7.1409
G01 X6.5947 Y7.1432
G01 X6.7384 Y7.1946
G01 X6.7440 Y7.1963
G01 X6.8920 Y7.2334
G01 X6.8978 Y7.2345
G01 X7.0488 Y7.2569
G01 X7.0546 Y7.2575
G01 X7.2071 Y7.2650
G01 X7.2129 Y7.2650
G01 X7.3654 Y7.2575
G01 X7.3712 Y7.2569
G01 X7.5222 Y7.2345
G01 X7.5280 Y7.2334
G01 X7.6760 Y7.1963
G01 X7.6816 Y7.1946
G01 X7.8253 Y7.1432
G01 X7.8307 Y7.1409
G01 X7.9687 Y7.0757
G01 X7.9739 Y7.0729
G01 X8.1048 Y6.9944
G01 X8.1097 Y6.9912
G01 X8.2322 Y6.9002
G01 X8.2368 Y6.8965
G01 X8.3499 Y6.7940
G01 X8.3540 Y6.7899
G01 X8.4565 Y6.6768
G01 X8.4602 Y6.6722
G01 X8.5512 Y6.5497
G01 X8.5544 Y6.5448
G01 X8.6329 Y6.4139
G01 X8.6357 Y6.4087
G01 X8.7009 Y6.2707
G01 X8.7032 Y6.2653
G01 X8.7546 Y6.1216
G01 X8.7563 Y6.1160
G01 X8.7934 Y5.9680
G01 X8.7945 Y5.9622
G01 X8.8169 Y5.8112
G01 X8.8175 Y5.8054
G01 X8.8250 Y5.6529
G01 X8.8250 Y5.6471
G00 X8.8250 Y5.6471
G01 F60.00
G01 Z-0.1500
G01 F100.00
G01 X8.8175 Y5.4946
G01 X8.8169 Y5.4888
G01 X8.7945 Y5.3378
G01 X8.7934 Y5.3320
G01 X8.7563 Y5.1840
G01 X8.7546 Y5.1784
G01 X8.7032 Y5.0347
G01 X8.7009 Y5.0293
G01 X8.6357 Y4.8913
G01 X8.6329 Y4.8861
G01 X8.5544 Y4.7552
G01 X8.5512 Y4.7503
G01 X8.4602 Y4.6278
G01 X8.4565 Y4.6232
G01 X8.3540 Y4.5101
G01 X8.3499 Y4.5060
G01 X8.2368 Y4.4035
G01 X8.2322 Y4.3998
G01 X8.1097 Y4.3088
G01 X8.1048 Y4.3056
G01 X7.9739 Y4.2271
G01 X7.9687 Y4.2243
G01 X7.8307 Y4.1591
G01 X7.8253 Y4.1568
G01 X7.6816 Y4.1054
G01 X7.6760 Y4.1037
G01 X7.5280 Y4.0666
G01 X7.5222 Y4.0655
G01 X7.3712 Y4.0431
G01 X7.3654 Y4.0425
G01 X7.2129 Y4.0350
G01 X7.2071 Y4.0350
G01 X7.0546 Y4.0425
G01 X7.0488 Y4.0431
G01 X6.8978 Y4.0655
G01 X6.8920 Y4.0666
G01 X6.7440 Y4.1037
G01 X6.7384 Y4.1054
G01 X6.5947 Y4.1568
G01 X6.5893 Y4.1591
G01 X6.4513 Y4.2243
G01 X6.4461 Y4.2271
G01 X6.3152 Y4.3056
G01 X6.3103 Y4.3088
G01 X6.1878 Y4.3998
G01 X6.1832 Y4.4035
G01 X6.0701 Y4.5060
G01 X6.0660 Y4.5101
G01 X5.9635 Y4.6232
G01 X5.9598 Y4.6278
G01 X5.8688 Y4.7503
G01 X5.8656 Y4.7552
G01 X5.7871 Y4.8861
G01 X5.7843 Y4.8913
G01 X5.7191 Y5.0293
G01 X5.7168 Y5.0347
G01 X5.6654 Y5.1784
G01 X5.6637 Y5.1840
G01 X5.6266 Y5.3320
G01 X5.6255 Y5.3378
G01 X5.6031 Y5.4888
G01 X5.6025 Y5.4946
G01 X5.5950 Y5.6471
G01 X5.5950 Y5.6529
G01 X5.6025 Y5.8054
G01 X5.6031 Y5.8112
G01 X5.6255 Y5.9622
G01 X5.6266 Y5.9680
G01 X5.6637 Y6.1160
G01 X5.6654 Y6.1216
G01 X5.7168 Y6.2653
G01 X5.7191 Y6.2707
G01 X5.7843 Y6.4087
G01 X5.7871 Y6.4139
G01 X5.8656 Y6.5448
G01 X5.8688 Y6.5497
G01 X5.9598 Y6.6722
G01 X5.9635 Y6.6768
G01 X6.0660 Y6.7899
G01 X6.0701 Y6.7940
G01 X6.1832 Y6.8965
G01 X6.1878 Y6.9002
G01 X6.3103 Y6.9912
G01 X6.3152 Y6.9944
G01 X6.4461 Y7.0729
G01 X6.4513 Y7.0757
G01 X6.5893 Y7.1409
G01 X6.5947 Y7.1432
G01 X6.7384 Y7.1946
G01 X6.7440 Y7.1963
G01 X6.8920 Y7.2334
G01 X6.8978 Y7.2345
G01 X7.0488 Y7.2569
G01 X7.0546 Y7.2575
G01 X7.2071 Y7.2650
G01 X7.2129 Y7.2650
G01 X7.3654 Y7.2575
G01 X7.3712 Y7.2569
G01 X7.5222 Y7.2345
G01 X7.5280 Y7.2334
G01 X7.6760 Y7.1963
G01 X7.6816 Y7.1946
G01 X7.8253 Y7.1432
G01 X7.8307 Y7.1409
G01 X7.9687 Y7.0757
G01 X7.9739 Y7.0729
G01 X8.1048 Y6.9944
G01 X8.1097 Y6.9912
G01 X8.2322 Y6.9002
G01 X8.2368 Y6.8965
G01 X8.3499 Y6.7940
G01 X8.3540 Y6.7899
G01 X8.4565 Y6.6768
G01 X8.4602 Y6.6722
G01 X8.5512 Y6.5497
G01 X8.5544 Y6.5448
G01 X8.6329 Y6.4139
G01 X8.6357 Y6.4087
G01 X8.7009 Y6.2707
G01 X8.7032 Y6.2653
G01 X8.7546 Y6.1216
G01 X8.7563 Y6.1160
G01 X8.7934 Y5.9680
G01 X8.7945 Y5.9622
G01 X8.8169 Y5.8112
G01 X8.8175 Y5.8054
G01 X8.8250 Y5.6529
G01 X8.8250 Y5.6471
G00 X8.8250 Y5.6471
G01 F60.00
G01 Z-0.2250
G01 F100.00
G01 X8.8175 Y5.4946
G01 X8.8169 Y5.4888
G01 X8.7945 Y5.3378
G01 X8.7934 Y5.3320
G01 X8.7563 Y5.1840
G01 X8.7546 Y5.1784
G01 X8.7032 Y5.0347
G01 X8.7009 Y5.0293
G01 X8.6357 Y4.8913
G01 X8.6329 Y4.8861
G01 X8.5544 Y4.7552
G01 X8.5512 Y4.7503
G01 X8.4602 Y4.6278
G01 X8.4565 Y4.6232
G01 X8.3540 Y4.5101
G01 X8.3499 Y4.5060
G01 X8.2368 Y4.4035
G01 X8.2322 Y4.3998
G01 X8.1097 Y4.3088
G01 X8.1048 Y4.3056
G01 X7.9739 Y4.2271
G01 X7.9687 Y4.2243
G01 X7.8307 Y4.1591
G01 X7.8253 Y4.1568
G01 X7.6816 Y4.1054
G01 X7.6760 Y4.1037
G01 X7.5280 Y4.0666
G01 X7.5222 Y4.0655
G01 X7.3712 Y4.0431
G01 X7.3654 Y4.0425
G01 X7.2129 Y4.0350
G01 X7.2071 Y4.0350
G01 X7.0546 Y4.0425
G01 X7.0488 Y4.0431
G01 X6.8978 Y4.0655
G01 X6.8920 Y4.0666
G01 X6.7440 Y4.1037
G01 X6.7384 Y4.1054
G01 X6.5947 Y4.1568
G01 X6.5893 Y4.1591
G01 X6.4513 Y4.2243
G01 X6.4461 Y4.2271
G01 X6.3152 Y4.3056
G01 X6.3103 Y4.3088
G01 X6.1878 Y4.3998
G01 X6.1832 Y4.4035
G01 X6.0701 Y4.5060
G01 X6.0660 Y4.5101
G01 X5.9635 Y4.6232
G01 X5.9598 Y4.6278
G01 X5.8688 Y4.7503
G01 X5.8656 Y4.7552
G01 X5.7871 Y4.8861
G01 X5.7843 Y4.8913
G01 X5.7191 Y5.0293
G01 X5.7168 Y5.0347
G01 X5.6654 Y5.1784
G01 X5.6637 Y5.1840
G01 X5.6266 Y5.3320
G01 X5.6255 Y5.3378
G01 X5.6031 Y5.4888
G01 X5.6025 Y5.4946
G01 X5.5950 Y5.6471
G01 X5.5950 Y5.6529
G01 X5.6025 Y5.8054
G01 X5.6031 Y5.8112
G01 X5.6255 Y5.9622
G01 X5.6266 Y5.9680
G01 X5.6637 Y6.1160
G01 X5.6654 Y6.1216
G01 X5.7168 Y6.2653
G01 X5.7191 Y6.2707
G01 X5.7843 Y6.4087
G01 X5.7871 Y6.4139
G01 X5.8656 Y6.5448
G01 X5.8688 Y6.5497
G01 X5.9598 Y6.6722
G01 X5.9635 Y6.6768
G01 X6.0660 Y6.7899
G01 X6.0701 Y6.7940
G01 X6.1832 Y6.8965
G01 X6.1878 Y6.9002
G01 X6.3103 Y6.9912
G01 X6.3152 Y6.9944
G01 X6.4461 Y7.0729
G01 X6.4513 Y7.0757
G01 X6.5893 Y7.1409
G01 X6.5947 Y7.1432
G01 X6.7384 Y7.1946
G01 X6.7440 Y7.1963
G01 X6.8920 Y7.2334
G01 X6.8978 Y7.2345
G01 X7.0488 Y7.2569
G01 X7.0546 Y7.2575
G01 X7.2071 Y7.2650
G01 X7.2129 Y7.2650
G01 X7.3654 Y7.2575
G01 X7.3712 Y7.2569
G01 X7.5222 Y7.2345
G01 X7.5280 Y7.2334
G01 X7.6760 Y7.1963
G01 X7.6816 Y7.1946
G01 X7.8253 Y7.1432
G01 X7.8307 Y7.1409
G01 X7.9687 Y7.0757
G01 X7.9739 Y7.0729
G01 X8.1048 Y6.9944
G01 X8.1097 Y6.9912
G01 X8.2322 Y6.9002
G01 X8.2368 Y6.8965
G01 X8.3499 Y6.7940
G01 X8.3540 Y6.7899
G01 X8.4565 Y6.6768
G01 X8.4602 Y6.6722
G01 X8.5512 Y6.5497
G01 X8.5544 Y6.5448
G01 X8.6329 Y6.4139
G01 X8.6357 Y6.4087
G01 X8.7009 Y6.2707
G01 X8.7032 Y6.2653
G01 X8.7546 Y6.1216
G01 X8.7563 Y6.1160
G01 X8.7934 Y5.9680
G01 X8.7945 Y5.9622
G01 X8.8169 Y5.8112
G01 X8.8175 Y5.8054
G01 X8.8250 Y5.6529
G01 X8.8250 Y5.6471
G00 X8.8250 Y5.6471
G01 F60.00
G01 Z-0.2836
G01 F100.00
G01 X8.8175 Y5.4946
G01 X8.8169 Y5.4888
G01 X8.7945 Y5.3378
G01 X8.7934 Y5.3320
G01 X8.7563 Y5.1840
G01 X8.7546 Y5.1784
G01 X8.7032 Y5.0347
G01 X8.7009 Y5.0293
G01 X8.6357 Y4.8913
G01 X8.6329 Y4.8861
G01 X8.5544 Y4.7552
G01 X8.5512 Y4.7503
G01 X8.4602 Y4.6278
G01 X8.4565 Y4.6232
G01 X8.3540 Y4.5101
G01 X8.3499 Y4.5060
G01 X8.2368 Y4.4035
G01 X8.2322 Y4.3998
G01 X8.1097 Y4.3088
G01 X8.1048 Y4.3056
G01 X7.9739 Y4.2271
G01 X7.9687 Y4.2243
G01 X7.8307 Y4.1591
G01 X7.8253 Y4.1568
G01 X7.6816 Y4.1054
G01 X7.6760 Y4.1037
G01 X7.5280 Y4.0666
G01 X7.5222 Y4.0655
G01 X7.3712 Y4.0431
G01 X7.3654 Y4.0425
G01 X7.2129 Y4.0350
G01 X7.2071 Y4.0350
G01 X7.0546 Y4.0425
G01 X7.0488 Y4.0431
G01 X6.8978 Y4.0655
G01 X6.8920 Y4.0666
G01 X6.7440 Y4.1037
G01 X6.7384 Y4.1054
G01 X6.5947 Y4.1568
G01 X6.5893 Y4.1591
G01 X6.4513 Y4.2243
G01 X6.4461 Y4.2271
G01 X6.3152 Y4.3056
G01 X6.3103 Y4.3088
G01 X6.1878 Y4.3998
G01 X6.1832 Y4.4035
G01 X6.0701 Y4.5060
G01 X6.0660 Y4.5101
G01 X5.9635 Y4.6232
G01 X5.9598 Y4.6278
G01 X5.8688 Y4.7503
G01 X5.8656 Y4.7552
G01 X5.7871 Y4.8861
G01 X5.7843 Y4.8913
G01 X5.7191 Y5.0293
G01 X5.7168 Y5.0347
G01 X5.6654 Y5.1784
G01 X5.6637 Y5.1840
G01 X5.6266 Y5.3320
G01 X5.6255 Y5.3378
G01 X5.6031 Y5.4888
G01 X5.6025 Y5.4946
G01 X5.5950 Y5.6471
G01 X5.5950 Y5.6529
G01 X5.6025 Y5.8054
G01 X5.6031 Y5.8112
G01 X5.6255 Y5.9622
G01 X5.6266 Y5.9680
G01 X5.6637 Y6.1160
G01 X5.6654 Y6.1216
G01 X5.7168 Y6.2653
G01 X5.7191 Y6.2707
G01 X5.7843 Y6.4087
G01 X5.7871 Y6.4139
G01 X5.8656 Y6.5448
G01 X5.8688 Y6.5497
G01 X5.9598 Y6.6722
G01 X5.9635 Y6.6768
G01 X6.0660 Y6.7899
G01 X6.0701 Y6.7940
G01 X6.1832 Y6.8965
G01 X6.1878 Y6.9002
G01 X6.3103 Y6.9912
G01 X6.3152 Y6.9944
G01 X6.4461 Y7.0729
G01 X6.4513 Y7.0757
G01 X6.5893 Y7.1409
G01 X6.5947 Y7.1432
G01 X6.7384 Y7.1946
G01 X6.7440 Y7.1963
G01 X6.8920 Y7.2334
G01 X6.8978 Y7.2345
G01 X7.0488 Y7.2569
G01 X7.0546 Y7.2575
G01 X7.2071 Y7.2650
G01 X7.2129 Y7.2650
G01 X7.3654 Y7.2575
G01 X7.3712 Y7.2569
G01 X7.5222 Y7.2345
G01 X7.5280 Y7.2334
G01 X7.6760 Y7.1963
G01 X7.6816 Y7.1946
G01 X7.8253 Y7.1432
G01 X7.8307 Y7.1409
G01 X7.9687 Y7.0757
G01 X7.9739 Y7.0729
G01 X8.1048 Y6.9944
G01 X8.1097 Y6.9912
G01 X8.2322 Y6.9002
G01 X8.2368 Y6.8965
G01 X8.3499 Y6.7940
G01 X8.3540 Y6.7899
G01 X8.4565 Y6.6768
G01 X8.4602 Y6.6722
G01 X8.5512 Y6.5497
G01 X8.5544 Y6.5448
G01 X8.6329 Y6.4139
G01 X8.6357 Y6.4087
G01 X8.7009 Y6.2707
G01 X8.7032 Y6.2653
G01 X8.7546 Y6.1216
G01 X8.7563 Y6.1160
G01 X8.7934 Y5.9680
G01 X8.7945 Y5.9622
G01 X8.8169 Y5.8112
G01 X8.8175 Y5.8054
G01 X8.8250 Y5.6529
G01 X8.8250 Y5.6471
G00 Z2.0000
G00 X12.5077 Y5.7965
G01 F60.00
G01 Z-0.0750
G01 F100.00
G01 X12.4862 Y5.9416
G01 X12.4505 Y6.0839
G01 X12.4011 Y6.2221
G01 X12.3384 Y6.3547
G01 X12.2630 Y6.4805
G01 X12.1756 Y6.5984
G01 X12.0771 Y6.7071
G01 X11.9684 Y6.8056
G01 X11.8505 Y6.8930
G01 X11.7247 Y6.9684
G01 X11.5921 Y7.0311
G01 X11.4539 Y7.0805
G01 X11.3116 Y7.1162
G01 X11.1665 Y7.1377
G01 X11.0200 Y7.1449
G01 X10.8735 Y7.1377
G01 X10.7284 Y7.1162
G01 X10.5861 Y7.0805
G01 X10.4479 Y7.0311
G01 X10.3153 Y6.9684
G01 X10.1895 Y6.8930
G01 X10.0716 Y6.8056
G01 X9.9629 Y6.7071
G01 X9.8644 Y6.5984
G01 X9.7770 Y6.4805
G01 X9.7016 Y6.3547
G01 X9.6389 Y6.2221
G01 X9.5895 Y6.0839
G01 X9.5538 Y5.9416
G01 X9.5323 Y5.7965
G01 X9.5251 Y5.6500
G01 X9.5323 Y5.5035
G01 X9.5538 Y5.3584
G01 X9.5895 Y5.2161
G01 X9.6389 Y5.0779
G01 X9.7016 Y4.9453
G01 X9.7770 Y4.8195
G01 X9.8644 Y4.7016
G01 X9.9629 Y4.5929
G01 X10.0716 Y4.4944
G01 X10.1895 Y4.4070
G01 X10.3153 Y4.3316
G01 X10.4479 Y4.2689
G01 X10.5861 Y4.2195
G01 X10.7284 Y4.1838
G01 X10.8735 Y4.1623
G01 X11.0200 Y4.1551
G01 X11.1665 Y4.1623
G01 X11.3116 Y4.1838
G01 X11.4539 Y4.2195
G01 X11.5921 Y4.2689
G01 X11.7247 Y4.3316
G01 X11.8505 Y4.4070
G01 X11.9684 Y4.4944
G01 X12.0771 Y4.5929
G01 X12.1756 Y4.7016
G01 X12.2630 Y4.8195
G01 X12.3384 Y4.9453
G01 X12.4011 Y5.0779
G01 X12.4505 Y5.2161
G01 X12.4862 Y5.3584
G01 X12.5077 Y5.5035
G01 X12.5149 Y5.6500
G01 X12.5077 Y5.7965
G00 X12.5077 Y5.7965
G01 F60.00
G01 Z-0.1500
G01 F100.00
G01 X12.4862 Y5.9416
G01 X12.4505 Y6.0839
G01 X12.4011 Y6.2221
G01 X12.3384 Y6.3547
G01 X12.2630 Y6.4805
G01 X12.1756 Y6.5984
G01 X12.0771 Y6.7071
G01 X11.9684 Y6.8056
G01 X11.8505 Y6.8930
G01 X11.7247 Y6.9684
G01 X11.5921 Y7.0311
G01 X11.4539 Y7.0805
G01 X11.3116 Y7.1162
G01 X11.1665 Y7.1377
G01 X11.0200 Y7.1449
G01 X10.8735 Y7.1377
G01 X10.7284 Y7.1162
G01 X10.5861 Y7.0805
G01 X10.4479 Y7.0311
G01 X10.3153 Y6.9684
G01 X10.1895 Y6.8930
G01 X10.0716 Y6.8056
G01 X9.9629 Y6.7071
G01 X9.8644 Y6.5984
G01 X9.7770 Y6.4805
G01 X9.7016 Y6.3547
G01 X9.6389 Y6.2221
G01 X9.5895 Y6.0839
G01 X9.5538 Y5.9416
G01 X9.5323 Y5.7965
G01 X9.5251 Y5.6500
G01 X9.5323 Y5.5035
G01 X9.5538 Y5.3584
G01 X9.5895 Y5.2161
G01 X9.6389 Y5.0779
G01 X9.7016 Y4.9453
G01 X9.7770 Y4.8195
G01 X9.8644 Y4.7016
G01 X9.9629 Y4.5929
G01 X10.0716 Y4.4944
G01 X10.1895 Y4.4070
G01 X10.3153 Y4.3316
G01 X10.4479 Y4.2689
G01 X10.5861 Y4.2195
G01 X10.7284 Y4.1838
G01 X10.8735 Y4.1623
G01 X11.0200 Y4.1551
G01 X11.1665 Y4.1623
G01 X11.3116 Y4.1838
G01 X11.4539 Y4.2195
G01 X11.5921 Y4.2689
G01 X11.7247 Y4.3316
G01 X11.8505 Y4.4070
G01 X11.9684 Y4.4944
G01 X12.0771 Y4.5929
G01 X12.1756 Y4.7016
G01 X12.2630 Y4.8195
G01 X12.3384 Y4.9453
G01 X12.4011 Y5.0779
G01 X12.4505 Y5.2161
G01 X12.4862 Y5.3584
G01 X12.5077 Y5.5035
G01 X12.5149 Y5.6500
G01 X12.5077 Y5.7965
G00 X12.5077 Y5.7965
G01 F60.00
G01 Z-0.2250
G01 F100.00
G01 X12.4862 Y5.9416
G01 X12.4505 Y6.0839
G01 X12.4011 Y6.2221
G01 X12.3384 Y6.3547
G01 X12.2630 Y6.4805
G01 X12.1756 Y6.5984
G01 X12.0771 Y6.7071
G01 X11.9684 Y6.8056
G01 X11.8505 Y6.8930
G01 X11.7247 Y6.9684
G01 X11.5921 Y7.0311
G01 X11.4539 Y7.0805
G01 X11.3116 Y7.1162
G01 X11.1665 Y7.1377
G01 X11.0200 Y7.1449
G01 X10.8735 Y7.1377
G01 X10.7284 Y7.1162
G01 X10.5861 Y7.0805
G01 X10.4479 Y7.0311
G01 X10.3153 Y6.9684
G01 X10.1895 Y6.8930
G01 X10.0716 Y6.8056
G01 X9.9629 Y6.7071
G01 X9.8644 Y6.5984
G01 X9.7770 Y6.4805
G01 X9.7016 Y6.3547
G01 X9.6389 Y6.2221
G01 X9.5895 Y6.0839
G01 X9.5538 Y5.9416
G01 X9.5323 Y5.7965
G01 X9.5251 Y5.6500
G01 X9.5323 Y5.5035
G01 X9.5538 Y5.3584
G01 X9.5895 Y5.2161
G01 X9.6389 Y5.0779
G01 X9.7016 Y4.9453
G01 X9.7770 Y4.8195
G01 X9.8644 Y4.7016
G01 X9.9629 Y4.5929
G01 X10.0716 Y4.4944
G01 X10.1895 Y4.4070
G01 X10.3153 Y4.3316
G01 X10.4479 Y4.2689
G01 X10.5861 Y4.2195
G01 X10.7284 Y4.1838
G01 X10.8735 Y4.1623
G01 X11.0200 Y4.1551
G01 X11.1665 Y4.1623
G01 X11.3116 Y4.1838
G01 X11.4539 Y4.2195
G01 X11.5921 Y4.2689
G01 X11.7247 Y4.3316
G01 X11.8505 Y4.4070
G01 X11.9684 Y4.4944
G01 X12.0771 Y4.5929
G01 X12.1756 Y4.7016
G01 X12.2630 Y4.8195
G01 X12.3384 Y4.9453
G01 X12.4011 Y5.0779
G01 X12.4505 Y5.2161
G01 X12.4862 Y5.3584
G01 X12.5077 Y5.5035
G01 X12.5149 Y5.6500
G01 X12.5077 Y5.7965
G00 X12.5077 Y5.7965
G01 F60.00
G01 Z-0.2836
G01 F100.00
G01 X12.4862 Y5.9416
G01 X12.4505 Y6.0839
G01 X12.4011 Y6.2221
G01 X12.3384 Y6.3547
G01 X12.2630 Y6.4805
G01 X12.1756 Y6.5984
G01 X12.0771 Y6.7071
G01 X11.9684 Y6.8056
G01 X11.8505 Y6.8930
G01 X11.7247 Y6.9684
G01 X11.5921 Y7.0311
G01 X11.4539 Y7.0805
G01 X11.3116 Y7.1162
G01 X11.1665 Y7.1377
G01 X11.0200 Y7.1449
G01 X10.8735 Y7.1377
G01 X10.7284 Y7.1162
G01 X10.5861 Y7.0805
G01 X10.4479 Y7.0311
G01 X10.3153 Y6.9684
G01 X10.1895 Y6.8930
G01 X10.0716 Y6.8056
G01 X9.9629 Y6.7071
G01 X9.8644 Y6.5984
G01 X9.7770 Y6.4805
G01 X9.7016 Y6.3547
G01 X9.6389 Y6.2221
G01 X9.5895 Y6.0839
G01 X9.5538 Y5.9416
G01 X9.5323 Y5.7965
G01 X9.5251 Y5.6500
G01 X9.5323 Y5.5035
G01 X9.5538 Y5.3584
G01 X9.5895 Y5.2161
G01 X9.6389 Y5.0779
G01 X9.7016 Y4.9453
G01 X9.7770 Y4.8195
G01 X9.8644 Y4.7016
G01 X9.9629 Y4.5929
G01 X10.0716 Y4.4944
G01 X10.1895 Y4.4070
G01 X10.3153 Y4.3316
G01 X10.4479 Y4.2689
G01 X10.5861 Y4.2195
G01 X10.7284 Y4.1838
G01 X10.8735 Y4.1623
G01 X11.0200 Y4.1551
G01 X11.1665 Y4.1623
G01 X11.3116 Y4.1838
G01 X11.4539 Y4.2195
G01 X11.5921 Y4.2689
G01 X11.7247 Y4.3316
G01 X11.8505 Y4.4070
G01 X11.9684 Y4.4944
G01 X12.0771 Y4.5929
G01 X12.1756 Y4.7016
G01 X12.2630 Y4.8195
G01 X12.3384 Y4.9453
G01 X12.4011 Y5.0779
G01 X12.4505 Y5.2161
G01 X12.4862 Y5.3584
G01 X12.5077 Y5.5035
G01 X12.5149 Y5.6500
G01 X12.5077 Y5.7965
G00 Z2.0000
G00 X12.6350 Y5.6471
G01 F60.00
G01 Z-0.0750
G01 F100.00
G01 X12.6275 Y5.4946
G01 X12.6269 Y5.4888
G01 X12.6045 Y5.3378
G01 X12.6034 Y5.3320
G01 X12.5663 Y5.1840
G01 X12.5646 Y5.1784
G01 X12.5132 Y5.0347
G01 X12.5109 Y5.0293
G01 X12.4457 Y4.8913
G01 X12.4429 Y4.8861
G01 X12.3644 Y4.7552
G01 X12.3612 Y4.7503
G01 X12.2702 Y4.6278
G01 X12.2665 Y4.6232
G01 X12.1640 Y4.5101
G01 X12.1599 Y4.5060
G01 X12.0468 Y4.4035
G01 X12.0422 Y4.3998
G01 X11.9197 Y4.3088
G01 X11.9148 Y4.3056
G01 X11.7839 Y4.2271
G01 X11.7787 Y4.2243
G01 X11.6407 Y4.1591
G01 X11.6353 Y4.1568
G01 X11.4916 Y4.1054
G01 X11.4860 Y4.1037
G01 X11.3380 Y4.0666
G01 X11.3322 Y4.0655
G01 X11.1812 Y4.0431
G01 X11.1754 Y4.0425
G01 X11.0229 Y4.0350
G01 X11.0171 Y4.0350
G01 X10.8646 Y4.0425
G01 X10.8588 Y4.0431
G01 X10.7078 Y4.0655
G01 X10.7020 Y4.0666
G01 X10.5540 Y4.1037
G01 X10.5484 Y4.1054
G01 X10.4047 Y4.1568
G01 X10.3993 Y4.1591
G01 X10.2613 Y4.2243
G01 X10.2561 Y4.2271
G01 X10.1252 Y4.3056
G01 X10.1203 Y4.3088
G01 X9.9978 Y4.3998
G01 X9.9932 Y4.4035
G01 X9.8801 Y4.5060
G01 X9.8760 Y4.5101
G01 X9.7735 Y4.6232
G01 X9.7698 Y4.6278
G01 X9.6788 Y4.7503
G01 X9.6756 Y4.7552
G01 X9.5971 Y4.8861
G01 X9.5943 Y4.8913
G01 X9.5291 Y5.0293
G01 X9.5268 Y5.0347
G01 X9.4754 Y5.1784
G01 X9.4737 Y5.1840
G01 X9.4366 Y5.3320
G01 X9.4355 Y5.3378
G01 X9.4131 Y5.4888
G01 X9.4125 Y5.4946
G01 X9.4050 Y5.6471
G01 X9.4050 Y5.6529
G01 X9.4125 Y5.8054
G01 X9.4131 Y5.8112
G01 X9.4355 Y5.9622
G01 X9.4366 Y5.9680
G01 X9.4737 Y6.1160
G01 X9.4754 Y6.1216
G01 X9.5268 Y6.2653
G01 X9.5291 Y6.2707
G01 X9.5943 Y6.4087
G01 X9.5971 Y6.4139
G01 X9.6756 Y6.5448
G01 X9.6788 Y6.5497
G01 X9.7698 Y6.6722
G01 X9.7735 Y6.6768
G01 X9.8760 Y6.7899
G01 X9.8801 Y6.7940
G01 X9.9932 Y6.8965
G01 X9.9978 Y6.9002
G01 X10.1203 Y6.9912
G01 X10.1252 Y6.9944
G01 X10.2561 Y7.0729
G01 X10.2613 Y7.0757
G01 X10.3993 Y7.1409
G01 X10.4047 Y7.1432
G01 X10.5484 Y7.1946
G01 X10.5540 Y7.1963
G01 X10.7020 Y7.2334
G01 X10.7078 Y7.2345
G01 X10.8588 Y7.2569
G01 X10.8646 Y7.2575
G01 X11.0171 Y7.2650
G01 X11.0229 Y7.2650
G01 X11.1754 Y7.2575
G01 X11.1812 Y7.2569
G01 X11.3322 Y7.2345
G01 X11.3380 Y7.2334
G01 X11.4860 Y7.1963
G01 X11.4916 Y7.1946
G01 X11.6353 Y7.1432
G01 X11.6407 Y7.1409
G01 X11.7787 Y7.0757
G01 X11.7839 Y7.0729
G01 X11.9148 Y6.9944
G01 X11.9197 Y6.9912
G01 X12.0422 Y6.9002
G01 X12.0468 Y6.8965
G01 X12.1599 Y6.7940
G01 X12.1640 Y6.7899
G01 X12.2665 Y6.6768
G01 X12.2702 Y6.6722
G01 X12.3612 Y6.5497
G01 X12.3644 Y6.5448
G01 X12.4429 Y6.4139
G01 X12.4457 Y6.4087
G01 X12.5109 Y6.2707
G01 X12.5132 Y6.2653
G01 X12.5646 Y6.1216
G01 X12.5663 Y6.1160
G01 X12.6034 Y5.9680
G01 X12.6045 Y5.9622
G01 X12.6269 Y5.8112
G01 X12.6275 Y5.8054
G01 X12.6350 Y5.6529
G01 X12.6350 Y5.6471
G00 X12.6350 Y5.6471
G01 F60.00
G01 Z-0.1500
G01 F100.00
G01 X12.6275 Y5.4946
G01 X12.6269 Y5.4888
G01 X12.6045 Y5.3378
G01 X12.6034 Y5.3320
G01 X12.5663 Y5.1840
G01 X12.5646 Y5.1784
G01 X12.5132 Y5.0347
G01 X12.5109 Y5.0293
G01 X12.4457 Y4.8913
G01 X12.4429 Y4.8861
G01 X12.3644 Y4.7552
G01 X12.3612 Y4.7503
G01 X12.2702 Y4.6278
G01 X12.2665 Y4.6232
G01 X12.1640 Y4.5101
G01 X12.1599 Y4.5060
G01 X12.0468 Y4.4035
G01 X12.0422 Y4.3998
G01 X11.9197 Y4.3088
G01 X11.9148 Y4.3056
G01 X11.7839 Y4.2271
G01 X11.7787 Y4.2243
G01 X11.6407 Y4.1591
G01 X11.6353 Y4.1568
G01 X11.4916 Y4.1054
G01 X11.4860 Y4.1037
G01 X11.3380 Y4.0666
G01 X11.3322 Y4.0655
G01 X11.1812 Y4.0431
G01 X11.1754 Y4.0425
G01 X11.0229 Y4.0350
G01 X11.0171 Y4.0350
G01 X10.8646 Y4.0425
G01 X10.8588 Y4.0431
G01 X10.7078 Y4.0655
G01 X10.7020 Y4.0666
G01 X10.5540 Y4.1037
G01 X10.5484 Y4.1054
G01 X10.4047 Y4.1568
G01 X10.3993 Y4.1591
G01 X10.2613 Y4.2243
G01 X10.2561 Y4.2271
G01 X10.1252 Y4.3056
G01 X10.1203 Y4.3088
G01 X9.9978 Y4.3998
G01 X9.9932 Y4.4035
G01 X9.8801 Y4.5060
G01 X9.8760 Y4.5101
G01 X9.7735 Y4.6232
G01 X9.7698 Y4.6278
G01 X9.6788 Y4.7503
G01 X9.6756 Y4.7552
G01 X9.5971 Y4.8861
G01 X9.5943 Y4.8913
G01 X9.5291 Y5.0293
G01 X9.5268 Y5.0347
G01 X9.4754 Y5.1784
G01 X9.4737 Y5.1840
G01 X9.4366 Y5.3320
G01 X9.4355 Y5.3378
G01 X9.4131 Y5.4888
G01 X9.4125 Y5.4946
G01 X9.4050 Y5.6471
G01 X9.4050 Y5.6529
G01 X9.4125 Y5.8054
G01 X9.4131 Y5.8112
G01 X9.4355 Y5.9622
G01 X9.4366 Y5.9680
G01 X9.4737 Y6.1160
G01 X9.4754 Y6.1216
G01 X9.5268 Y6.2653
G01 X9.5291 Y6.2707
G01 X9.5943 Y6.4087
G01 X9.5971 Y6.4139
G01 X9.6756 Y6.5448
G01 X9.6788 Y6.5497
G01 X9.7698 Y6.6722
G01 X9.7735 Y6.6768
G01 X9.8760 Y6.7899
G01 X9.8801 Y6.7940
G01 X9.9932 Y6.8965
G01 X9.9978 Y6.9002
G01 X10.1203 Y6.9912
G01 X10.1252 Y6.9944
G01 X10.2561 Y7.0729
G01 X10.2613 Y7.0757
G01 X10.3993 Y7.1409
G01 X10.4047 Y7.1432
G01 X10.5484 Y7.1946
G01 X10.5540 Y7.1963
G01 X10.7020 Y7.2334
G01 X10.7078 Y7.2345
G01 X10.8588 Y7.2569
G01 X10.8646 Y7.2575
G01 X11.0171 Y7.2650
G01 X11.0229 Y7.2650
G01 X11.1754 Y7.2575
G01 X11.1812 Y7.2569
G01 X11.3322 Y7.2345
G01 X11.3380 Y7.2334
G01 X11.4860 Y7.1963
G01 X11.4916 Y7.1946
G01 X11.6353 Y7.1432
G01 X11.6407 Y7.1409
G01 X11.7787 Y7.0757
G01 X11.7839 Y7.0729
G01 X11.9148 Y6.9944
G01 X11.9197 Y6.9912
G01 X12.0422 Y6.9002
G01 X12.0468 Y6.8965
G01 X12.1599 Y6.7940
G01 X12.1640 Y6.7899
G01 X12.2665 Y6.6768
G01 X12.2702 Y6.6722
G01 X12.3612 Y6.5497
G01 X12.3644 Y6.5448
G01 X12.4429 Y6.4139
G01 X12.4457 Y6.4087
G01 X12.5109 Y6.2707
G01 X12.5132 Y6.2653
G01 X12.5646 Y6.1216
G01 X12.5663 Y6.1160
G01 X12.6034 Y5.9680
G01 X12.6045 Y5.9622
G01 X12.6269 Y5.8112
G01 X12.6275 Y5.8054
G01 X12.6350 Y5.6529
G01 X12.6350 Y5.6471
G00 X12.6350 Y5.6471
G01 F60.00
G01 Z-0.2250
G01 F100.00
G01 X12.6275 Y5.4946
G01 X12.6269 Y5.4888
G01 X12.6045 Y5.3378
G01 X12.6034 Y5.3320
G01 X12.5663 Y5.1840
G01 X12.5646 Y5.1784
G01 X12.5132 Y5.0347
G01 X12.5109 Y5.0293
G01 X12.4457 Y4.8913
G01 X12.4429 Y4.8861
G01 X12.3644 Y4.7552
G01 X12.3612 Y4.7503
G01 X12.2702 Y4.6278
G01 X12.2665 Y4.6232
G01 X12.1640 Y4.5101
G01 X12.1599 Y4.5060
G01 X12.0468 Y4.4035
G01 X12.0422 Y4.3998
G01 X11.9197 Y4.3088
G01 X11.9148 Y4.3056
G01 X11.7839 Y4.2271
G01 X11.7787 Y4.2243
G01 X11.6407 Y4.1591
G01 X11.6353 Y4.1568
G01 X11.4916 Y4.1054
G01 X11.4860 Y4.1037
G01 X11.3380 Y4.0666
G01 X11.3322 Y4.0655
G01 X11.1812 Y4.0431
G01 X11.1754 Y4.0425
G01 X11.0229 Y4.0350
G01 X11.0171 Y4.0350
G01 X10.8646 Y4.0425
G01 X10.8588 Y4.0431
G01 X10.7078 Y4.0655
G01 X10.7020 Y4.0666
G01 X10.5540 Y4.1037
G01 X10.5484 Y4.1054
G01 X10.4047 Y4.1568
G01 X10.3993 Y4.1591
G01 X10.2613 Y4.2243
G01 X10.2561 Y4.2271
G01 X10.1252 Y4.3056
G01 X10.1203 Y4.3088
G01 X9.9978 Y4.3998
G01 X9.9932 Y4.4035
G01 X9.8801 Y4.5060
G01 X9.8760 Y4.5101
G01 X9.7735 Y4.6232
G01 X9.7698 Y4.6278
G01 X9.6788 Y4.7503
G01 X9.6756 Y4.7552
G01 X9.5971 Y4.8861
G01 X9.5943 Y4.8913
G01 X9.5291 Y5.0293
G01 X9.5268 Y5.0347
G01 X9.4754 Y5.1784
G01 X9.4737 Y5.1840
G01 X9.4366 Y5.3320
G01 X9.4355 Y5.3378
G01 X9.4131 Y5.4888
G01 X9.4125 Y5.4946
G01 X9.4050 Y5.6471
G01 X9.4050 Y5.6529
G01 X9.4125 Y5.8054
G01 X9.4131 Y5.8112
G01 X9.4355 Y5.9622
G01 X9.4366 Y5.9680
G01 X9.4737 Y6.1160
G01 X9.4754 Y6.1216
G01 X9.5268 Y6.2653
G01 X9.5291 Y6.2707
G01 X9.5943 Y6.4087
G01 X9.5971 Y6.4139
G01 X9.6756 Y6.5448
G01 X9.6788 Y6.5497
G01 X9.7698 Y6.6722
G01 X9.7735 Y6.6768
G01 X9.8760 Y6.7899
G01 X9.8801 Y6.7940
G01 X9.9932 Y6.8965
G01 X9.9978 Y6.9002
G01 X10.1203 Y6.9912
G01 X10.1252 Y6.9944
G01 X10.2561 Y7.0729
G01 X10.2613 Y7.0757
G01 X10.3993 Y7.1409
G01 X10.4047 Y7.1432
G01 X10.5484 Y7.1946
G01 X10.5540 Y7.1963
G01 X10.7020 Y7.2334
G01 X10.7078 Y7.2345
G01 X10.8588 Y7.2569
G01 X10.8646 Y7.2575
G01 X11.0171 Y7.2650
G01 X11.0229 Y7.2650
G01 X11.1754 Y7.2575
G01 X11.1812 Y7.2569
G01 X11.3322 Y7.2345
G01 X11.3380 Y7.2334
G01 X11.4860 Y7.1963
G01 X11.4916 Y7.1946
G01 X11.6353 Y7.1432
G01 X11.6407 Y7.1409
G01 X11.7787 Y7.0757
G01 X11.7839 Y7.0729
G01 X11.9148 Y6.9944
G01 X11.9197 Y6.9912
G01 X12.0422 Y6.9002
G01 X12.0468 Y6.8965
G01 X12.1599 Y6.7940
G01 X12.1640 Y6.7899
G01 X12.2665 Y6.6768
G01 X12.2702 Y6.6722
G01 X12.3612 Y6.5497
G01 X12.3644 Y6.5448
G01 X12.4429 Y6.4139
G01 X12.4457 Y6.4087
G01 X12.5109 Y6.2707
G01 X12.5132 Y6.2653
G01 X12.5646 Y6.1216
G01 X12.5663 Y6.1160
G01 X12.6034 Y5.9680
G01 X12.6045 Y5.9622
G01 X12.6269 Y5.8112
G01 X12.6275 Y5.8054
G01 X12.6350 Y5.6529
G01 X12.6350 Y5.6471
G00 X12.6350 Y5.6471
G01 F60.00
G01 Z-0.2836
G01 F100.00
G01 X12.6275 Y5.4946
G01 X12.6269 Y5.4888
G01 X12.6045 Y5.3378
G01 X12.6034 Y5.3320
G01 X12.5663 Y5.1840
G01 X12.5646 Y5.1784
G01 X12.5132 Y5.0347
G01 X12.5109 Y5.0293
G01 X12.4457 Y4.8913
G01 X12.4429 Y4.8861
G01 X12.3644 Y4.7552
G01 X12.3612 Y4.7503
G01 X12.2702 Y4.6278
G01 X12.2665 Y4.6232
G01 X12.1640 Y4.5101
G01 X12.1599 Y4.5060
G01 X12.0468 Y4.4035
G01 X12.0422 Y4.3998
G01 X11.9197 Y4.3088
G01 X11.9148 Y4.3056
G01 X11.7839 Y4.2271
G01 X11.7787 Y4.2243
G01 X11.6407 Y4.1591
G01 X11.6353 Y4.1568
G01 X11.4916 Y4.1054
G01 X11.4860 Y4.1037
G01 X11.3380 Y4.0666
G01 X11.3322 Y4.0655
G01 X11.1812 Y4.0431
G01 X11.1754 Y4.0425
G01 X11.0229 Y4.0350
G01 X11.0171 Y4.0350
G01 X10.8646 Y4.0425
G01 X10.8588 Y4.0431
G01 X10.7078 Y4.0655
G01 X10.7020 Y4.0666
G01 X10.5540 Y4.1037
G01 X10.5484 Y4.1054
G01 X10.4047 Y4.1568
G01 X10.3993 Y4.1591
G01 X10.2613 Y4.2243
G01 X10.2561 Y4.2271
G01 X10.1252 Y4.3056
G01 X10.1203 Y4.3088
G01 X9.9978 Y4.3998
G01 X9.9932 Y4.4035
G01 X9.8801 Y4.5060
G01 X9.8760 Y4.5101
G01 X9.7735 Y4.6232
G01 X9.7698 Y4.6278
G01 X9.6788 Y4.7503
G01 X9.6756 Y4.7552
G01 X9.5971 Y4.8861
G01 X9.5943 Y4.8913
G01 X9.5291 Y5.0293
G01 X9.5268 Y5.0347
G01 X9.4754 Y5.1784
G01 X9.4737 Y5.1840
G01 X9.4366 Y5.3320
G01 X9.4355 Y5.3378
G01 X9.4131 Y5.4888
G01 X9.4125 Y5.4946
G01 X9.4050 Y5.6471
G01 X9.4050 Y5.6529
G01 X9.4125 Y5.8054
G01 X9.4131 Y5.8112
G01 X9.4355 Y5.9622
G01 X9.4366 Y5.9680
G01 X9.4737 Y6.1160
G01 X9.4754 Y6.1216
G01 X9.5268 Y6.2653
G01 X9.5291 Y6.2707
G01 X9.5943 Y6.4087
G01 X9.5971 Y6.4139
G01 X9.6756 Y6.5448
G01 X9.6788 Y6.5497
G01 X9.7698 Y6.6722
G01 X9.7735 Y6.6768
G01 X9.8760 Y6.7899
G01 X9.8801 Y6.7940
G01 X9.9932 Y6.8965
G01 X9.9978 Y6.9002
G01 X10.1203 Y6.9912
G01 X10.1252 Y6.9944
G01 X10.2561 Y7.0729
G01 X10.2613 Y7.0757
G01 X10.3993 Y7.1409
G01 X10.4047 Y7.1432
G01 X10.5484 Y7.1946
G01 X10.5540 Y7.1963
G01 X10.7020 Y7.2334
G01 X10.7078 Y7.2345
G01 X10.8588 Y7.2569
G01 X10.8646 Y7.2575
G01 X11.0171 Y7.2650
G01 X11.0229 Y7.2650
G01 X11.1754 Y7.2575
G01 X11.1812 Y7.2569
G01 X11.3322 Y7.2345
G01 X11.3380 Y7.2334
G01 X11.4860 Y7.1963
G01 X11.4916 Y7.1946
G01 X11.6353 Y7.1432
G01 X11.6407 Y7.1409
G01 X11.7787 Y7.0757
G01 X11.7839 Y7.0729
G01 X11.9148 Y6.9944
G01 X11.9197 Y6.9912
G01 X12.0422 Y6.9002
G01 X12.0468 Y6.8965
G01 X12.1599 Y6.7940
G01 X12.1640 Y6.7899
G01 X12.2665 Y6.6768
G01 X12.2702 Y6.6722
G01 X12.3612 Y6.5497
G01 X12.3644 Y6.5448
G01 X12.4429 Y6.4139
G01 X12.4457 Y6.4087
G01 X12.5109 Y6.2707
G01 X12.5132 Y6.2653
G01 X12.5646 Y6.1216
G01 X12.5663 Y6.1160
G01 X12.6034 Y5.9680
G01 X12.6045 Y5.9622
G01 X12.6269 Y5.8112
G01 X12.6275 Y5.8054
G01 X12.6350 Y5.6529
G01 X12.6350 Y5.6471
G00 Z2.0000
G00 X16.3177 Y5.7965
G01 F60.00
G01 Z-0.0750
G01 F100.00
G01 X16.2962 Y5.9416
G01 X16.2605 Y6.0839
G01 X16.2111 Y6.2221
G01 X16.1484 Y6.3547
G01 X16.0730 Y6.4805
G01 X15.9856 Y6.5984
G01 X15.8871 Y6.7071
G01 X15.7784 Y6.8056
G01 X15.6605 Y6.8930
G01 X15.5347 Y6.9684
G01 X15.4021 Y7.0311
G01 X15.2639 Y7.0805
G01 X15.1216 Y7.1162
G01 X14.9765 Y7.1377
G01 X14.8300 Y7.1449
G01 X14.6835 Y7.1377
G01 X14.5384 Y7.1162
G01 X14.3961 Y7.0805
G01 X14.2579 Y7.0311
G01 X14.1253 Y6.9684
G01 X13.9995 Y6.8930
G01 X13.8816 Y6.8056
G01 X13.7729 Y6.7071
G01 X13.6744 Y6.5984
G01 X13.5870 Y6.4805
G01 X13.5116 Y6.3547
G01 X13.4489 Y6.2221
G01 X13.3995 Y6.0839
G01 X13.3638 Y5.9416
G01 X13.3423 Y5.7965
G01 X13.3351 Y5.6500
G01 X13.3423 Y5.5035
G01 X13.3638 Y5.3584
G01 X13.3995 Y5.2161
G01 X13.4489 Y5.0779
G01 X13.5116 Y4.9453
G01 X13.5870 Y4.8195
G01 X13.6744 Y4.7016
G01 X13.7729 Y4.5929
G01 X13.8816 Y4.4944
G01 X13.9995 Y4.4070
G01 X14.1253 Y4.3316
G01 X14.2579 Y4.2689
G01 X14.3961 Y4.2195
G01 X14.5384 Y4.1838
G01 X14.6835 Y4.1623
G01 X14.8300 Y4.1551
G01 X14.9765 Y4.1623
G01 X15.1216 Y4.1838
G01 X15.2639 Y4.2195
G01 X15.4021 Y4.2689
G01 X15.5347 Y4.3316
G01 X15.6605 Y4.4070
G01 X15.7784 Y4.4944
G01 X15.8871 Y4.5929
G01 X15.9856 Y4.7016
G01 X16.0730 Y4.8195
G01 X16.1484 Y4.9453
G01 X16.2111 Y5.0779
G01 X16.2605 Y5.2161
G01 X16.2962 Y5.3584
G01 X16.3177 Y5.5035
G01 X16.3249 Y5.6500
G01 X16.3177 Y5.7965
G00 X16.3177 Y5.7965
G01 F60.00
G01 Z-0.1500
G01 F100.00
G01 X16.2962 Y5.9416
G01 X16.2605 Y6.0839
G01 X16.2111 Y6.2221
G01 X16.1484 Y6.3547
G01 X16.0730 Y6.4805
G01 X15.9856 Y6.5984
G01 X15.8871 Y6.7071
G01 X15.7784 Y6.8056
G01 X15.6605 Y6.8930
G01 X15.5347 Y6.9684
G01 X15.4021 Y7.0311
G01 X15.2639 Y7.0805
G01 X15.1216 Y7.1162
G01 X14.9765 Y7.1377
G01 X14.8300 Y7.1449
G01 X14.6835 Y7.1377
G01 X14.5384 Y7.1162
G01 X14.3961 Y7.0805
G01 X14.2579 Y7.0311
G01 X14.1253 Y6.9684
G01 X13.9995 Y6.8930
G01 X13.8816 Y6.8056
G01 X13.7729 Y6.7071
G01 X13.6744 Y6.5984
G01 X13.5870 Y6.4805
G01 X13.5116 Y6.3547
G01 X13.4489 Y6.2221
G01 X13.3995 Y6.0839
G01 X13.3638 Y5.9416
G01 X13.3423 Y5.7965
G01 X13.3351 Y5.6500
G01 X13.3423 Y5.5035
G01 X13.3638 Y5.3584
G01 X13.3995 Y5.2161
G01 X13.4489 Y5.0779
G01 X13.5116 Y4.9453
G01 X13.5870 Y4.8195
G01 X13.6744 Y4.7016
G01 X13.7729 Y4.5929
G01 X13.8816 Y4.4944
G01 X13.9995 Y4.4070
G01 X14.1253 Y4.3316
G01 X14.2579 Y4.2689
G01 X14.3961 Y4.2195
G01 X14.5384 Y4.1838
G01 X14.6835 Y4.1623
G01 X14.8300 Y4.1551
G01 X14.9765 Y4.1623
G01 X15.1216 Y4.1838
G01 X15.2639 Y4.2195
G01 X15.4021 Y4.2689
G01 X15.5347 Y4.3316
G01 X15.6605 Y4.4070
G01 X15.7784 Y4.4944
G01 X15.8871 Y4.5929
G01 X15.9856 Y4.7016
G01 X16.0730 Y4.8195
G01 X16.1484 Y4.9453
G01 X16.2111 Y5.0779
G01 X16.2605 Y5.2161
G01 X16.2962 Y5.3584
G01 X16.3177 Y5.5035
G01 X16.3249 Y5.6500
G01 X16.3177 Y5.7965
G00 X16.3177 Y5.7965
G01 F60.00
G01 Z-0.2250
G01 F100.00
G01 X16.2962 Y5.9416
G01 X16.2605 Y6.0839
G01 X16.2111 Y6.2221
G01 X16.1484 Y6.3547
G01 X16.0730 Y6.4805
G01 X15.9856 Y6.5984
G01 X15.8871 Y6.7071
G01 X15.7784 Y6.8056
G01 X15.6605 Y6.8930
G01 X15.5347 Y6.9684
G01 X15.4021 Y7.0311
G01 X15.2639 Y7.0805
G01 X15.1216 Y7.1162
G01 X14.9765 Y7.1377
G01 X14.8300 Y7.1449
G01 X14.6835 Y7.1377
G01 X14.5384 Y7.1162
G01 X14.3961 Y7.0805
G01 X14.2579 Y7.0311
G01 X14.1253 Y6.9684
G01 X13.9995 Y6.8930
G01 X13.8816 Y6.8056
G01 X13.7729 Y6.7071
G01 X13.6744 Y6.5984
G01 X13.5870 Y6.4805
G01 X13.5116 Y6.3547
G01 X13.4489 Y6.2221
G01 X13.3995 Y6.0839
G01 X13.3638 Y5.9416
G01 X13.3423 Y5.7965
G01 X13.3351 Y5.6500
G01 X13.3423 Y5.5035
G01 X13.3638 Y5.3584
G01 X13.3995 Y5.2161
G01 X13.4489 Y5.0779
G01 X13.5116 Y4.9453
G01 X13.5870 Y4.8195
G01 X13.6744 Y4.7016
G01 X13.7729 Y4.5929
G01 X13.8816 Y4.4944
G01 X13.9995 Y4.4070
G01 X14.1253 Y4.3316
G01 X14.2579 Y4.2689
G01 X14.3961 Y4.2195
G01 X14.5384 Y4.1838
G01 X14.6835 Y4.1623
G01 X14.8300 Y4.1551
G01 X14.9765 Y4.1623
G01 X15.1216 Y4.1838
G01 X15.2639 Y4.2195
G01 X15.4021 Y4.2689
G01 X15.5347 Y4.3316
G01 X15.6605 Y4.4070
G01 X15.7784 Y4.4944
G01 X15.8871 Y4.5929
G01 X15.9856 Y4.7016
G01 X16.0730 Y4.8195
G01 X16.1484 Y4.9453
G01 X16.2111 Y5.0779
G01 X16.2605 Y5.2161
G01 X16.2962 Y5.3584
G01 X16.3177 Y5.5035
G01 X16.3249 Y5.6500
G01 X16.3177 Y5.7965
G00 X16.3177 Y5.7965
G01 F60.00
G01 Z-0.2836
G01 F100.00
G01 X16.2962 Y5.9416
G01 X16.2605 Y6.0839
G01 X16.2111 Y6.2221
G01 X16.1484 Y6.3547
G01 X16.0730 Y6.4805
G01 X15.9856 Y6.5984
G01 X15.8871 Y6.7071
G01 X15.7784 Y6.8056
G01 X15.6605 Y6.8930
G01 X15.5347 Y6.9684
G01 X15.4021 Y7.0311
G01 X15.2639 Y7.0805
G01 X15.1216 Y7.1162
G01 X14.9765 Y7.1377
G01 X14.8300 Y7.1449
G01 X14.6835 Y7.1377
G01 X14.5384 Y7.1162
G01 X14.3961 Y7.0805
G01 X14.2579 Y7.0311
G01 X14.1253 Y6.9684
G01 X13.9995 Y6.8930
G01 X13.8816 Y6.8056
G01 X13.7729 Y6.7071
G01 X13.6744 Y6.5984
G01 X13.5870 Y6.4805
G01 X13.5116 Y6.3547
G01 X13.4489 Y6.2221
G01 X13.3995 Y6.0839
G01 X13.3638 Y5.9416
G01 X13.3423 Y5.7965
G01 X13.3351 Y5.6500
G01 X13.3423 Y5.5035
G01 X13.3638 Y5.3584
G01 X13.3995 Y5.2161
G01 X13.4489 Y5.0779
G01 X13.5116 Y4.9453
G01 X13.5870 Y4.8195
G01 X13.6744 Y4.7016
G01 X13.7729 Y4.5929
G01 X13.8816 Y4.4944
G01 X13.9995 Y4.4070
G01 X14.1253 Y4.3316
G01 X14.2579 Y4.2689
G01 X14.3961 Y4.2195
G01 X14.5384 Y4.1838
G01 X14.6835 Y4.1623
G01 X14.8300 Y4.1551
G01 X14.9765 Y4.1623
G01 X15.1216 Y4.1838
G01 X15.2639 Y4.2195
G01 X15.4021 Y4.2689
G01 X15.5347 Y4.3316
G01 X15.6605 Y4.4070
G01 X15.7784 Y4.4944
G01 X15.8871 Y4.5929
G01 X15.9856 Y4.7016
G01 X16.0730 Y4.8195
G01 X16.1484 Y4.9453
G01 X16.2111 Y5.0779
G01 X16.2605 Y5.2161
G01 X16.2962 Y5.3584
G01 X16.3177 Y5.5035
G01 X16.3249 Y5.6500
G01 X16.3177 Y5.7965
G00 Z2.0000
G00 X16.4450 Y5.6471
G01 F60.00
G01 Z-0.0750
G01 F100.00
G01 X16.4375 Y5.4946
G01 X16.4369 Y5.4888
G01 X16.4145 Y5.3378
G01 X16.4134 Y5.3320
G01 X16.3763 Y5.1840
G01 X16.3746 Y5.1784
G01 X16.3232 Y5.0347
G01 X16.3209 Y5.0293
G01 X16.2557 Y4.8913
G01 X16.2529 Y4.8861
G01 X16.1744 Y4.7552
G01 X16.1712 Y4.7503
G01 X16.0802 Y4.6278
G01 X16.0765 Y4.6232
G01 X15.9740 Y4.5101
G01 X15.9699 Y4.5060
G01 X15.8568 Y4.4035
G01 X15.8522 Y4.3998
G01 X15.7297 Y4.3088
G01 X15.7248 Y4.3056
G01 X15.5939 Y4.2271
G01 X15.5887 Y4.2243
G01 X15.4507 Y4.1591
G01 X15.4453 Y4.1568
G01 X15.3016 Y4.1054
G01 X15.2960 Y4.1037
G01 X15.1480 Y4.0666
G01 X15.1422 Y4.0655
G01 X14.9912 Y4.0431
G01 X14.9854 Y4.0425
G01 X14.8329 Y4.0350
G01 X14.8271 Y4.0350
G01 X14.6746 Y4.0425
G01 X14.6688 Y4.0431
G01 X14.5178 Y4.0655
G01 X14.5120 Y4.0666
G01 X14.3640 Y4.1037
G01 X14.3584 Y4.1054
G01 X14.2147 Y4.1568
G01 X14.2093 Y4.1591
G01 X14.0713 Y4.2243
G01 X14.0661 Y4.2271
G01 X13.9352 Y4.3056
G01 X13.9303 Y4.3088
G01 X13.8078 Y4.3998
G01 X13.8032 Y4.4035
G01 X13.6901 Y4.5060
G01 X13.6860 Y4.5101
G01 X13.5835 Y4.6232
G01 X13.5798 Y4.6278
G01 X13.4888 Y4.7503
G01 X13.4856 Y4.7552
G01 X13.4071 Y4.8861
G01 X13.4043 Y4.8913
G01 X13.3391 Y5.0293
G01 X13.3368 Y5.0347
G01 X13.2854 Y5.1784
G01 X13.2837 Y5.1840
G01 X13.2466 Y5.3320
G01 X13.2455 Y5.3378
G01 X13.2231 Y5.4888
G01 X13.2225 Y5.4946
G01 X13.2150 Y5.6471
G01 X13.2150 Y5.6529
G01 X13.2225 Y5.8054
G01 X13.2231 Y5.8112
G01 X13.2455 Y5.9622
G01 X13.2466 Y5.9680
G01 X13.2837 Y6.1160
G01 X13.2854 Y6.1216
G01 X13.3368 Y6.2653
G01 X13.3391 Y6.2707
G01 X13.4043 Y6.4087
G01 X13.4071 Y6.4139
G01 X13.4856 Y6.5448
G01 X13.4888 Y6.5497
G01 X13.5798 Y6.6722
G01 X13.5835 Y6.6768
G01 X13.6860 Y6.7899
G01 X13.6901 Y6.7940
G01 X13.8032 Y6.8965
G01 X13.8078 Y6.9002
G01 X13.9303 Y6.9912
G01 X13.9352 Y6.9944
G01 X14.0661 Y7.0729
G01 X14.0713 Y7.0757
G01 X14.2093 Y7.1409
G01 X14.2147 Y7.1432
G01 X14.3584 Y7.1946
G01 X14.3640 Y7.1963
G01 X14.5120 Y7.2334
G01 X14.5178 Y7.2345
G01 X14.6688 Y7.2569
G01 X14.6746 Y7.2575
G01 X14.8271 Y7.2650
G01 X14.8329 Y7.2650
G01 X14.9854 Y7.2575
G01 X14.9912 Y7.2569
G01 X15.1422 Y7.2345
G01 X15.1480 Y7.2334
G01 X15.2960 Y7.1963
G01 X15.3016 Y7.1946
G01 X15.4453 Y7.1432
G01 X15.4507 Y7.1409
G01 X15.5887 Y7.0757
G01 X15.5939 Y7.0729
G01 X15.7248 Y6.9944
G01 X15.7297 Y6.9912
G01 X15.8522 Y6.9002
G01 X15.8568 Y6.8965
G01 X15.9699 Y6.7940
G01 X15.9740 Y6.7899
G01 X16.0765 Y6.6768
G01 X16.0802 Y6.6722
G01 X16.1712 Y6.5497
G01 X16.1744 Y6.5448
G01 X16.2529 Y6.4139
G01 X16.2557 Y6.4087
G01 X16.3209 Y6.2707
G01 X16.3232 Y6.2653
G01 X16.3746 Y6.1216
G01 X16.3763 Y6.1160
G01 X16.4134 Y5.9680
G01 X16.4145 Y5.9622
G01 X16.4369 Y5.8112
G01 X16.4375 Y5.8054
G01 X16.4450 Y5.6529
G01 X16.4450 Y5.6471
G00 X16.4450 Y5.6471
G01 F60.00
G01 Z-0.1500
G01 F100.00
G01 X16.4375 Y5.4946
G01 X16.4369 Y5.4888
G01 X16.4145 Y5.3378
G01 X16.4134 Y5.3320
G01 X16.3763 Y5.1840
G01 X16.3746 Y5.1784
G01 X16.3232 Y5.0347
G01 X16.3209 Y5.0293
G01 X16.2557 Y4.8913
G01 X16.2529 Y4.8861
G01 X16.1744 Y4.7552
G01 X16.1712 Y4.7503
G01 X16.0802 Y4.6278
G01 X16.0765 Y4.6232
G01 X15.9740 Y4.5101
G01 X15.9699 Y4.5060
G01 X15.8568 Y4.4035
G01 X15.8522 Y4.3998
G01 X15.7297 Y4.3088
G01 X15.7248 Y4.3056
G01 X15.5939 Y4.2271
G01 X15.5887 Y4.2243
G01 X15.4507 Y4.1591
G01 X15.4453 Y4.1568
G01 X15.3016 Y4.1054
G01 X15.2960 Y4.1037
G01 X15.1480 Y4.0666
G01 X15.1422 Y4.0655
G01 X14.9912 Y4.0431
G01 X14.9854 Y4.0425
G01 X14.8329 Y4.0350
G01 X14.8271 Y4.0350
G01 X14.6746 Y4.0425
G01 X14.6688 Y4.0431
G01 X14.5178 Y4.0655
G01 X14.5120 Y4.0666
G01 X14.3640 Y4.1037
G01 X14.3584 Y4.1054
G01 X14.2147 Y4.1568
G01 X14.2093 Y4.1591
G01 X14.0713 Y4.2243
G01 X14.0661 Y4.2271
G01 X13.9352 Y4.3056
G01 X13.9303 Y4.3088
G01 X13.8078 Y4.3998
G01 X13.8032 Y4.4035
G01 X13.6901 Y4.5060
G01 X13.6860 Y4.5101
G01 X13.5835 Y4.6232
G01 X13.5798 Y4.6278
G01 X13.4888 Y4.7503
G01 X13.4856 Y4.7552
G01 X13.4071 Y4.8861
G01 X13.4043 Y4.8913
G01 X13.3391 Y5.0293
G01 X13.3368 Y5.0347
G01 X13.2854 Y5.1784
G01 X13.2837 Y5.1840
G01 X13.2466 Y5.3320
G01 X13.2455 Y5.3378
G01 X13.2231 Y5.4888
G01 X13.2225 Y5.4946
G01 X13.2150 Y5.6471
G01 X13.2150 Y5.6529
G01 X13.2225 Y5.8054
G01 X13.2231 Y5.8112
G01 X13.2455 Y5.9622
G01 X13.2466 Y5.9680
G01 X13.2837 Y6.1160
G01 X13.2854 Y6.1216
G01 X13.3368 Y6.2653
G01 X13.3391 Y6.2707
G01 X13.4043 Y6.4087
G01 X13.4071 Y6.4139
G01 X13.4856 Y6.5448
G01 X13.4888 Y6.5497
G01 X13.5798 Y6.6722
G01 X13.5835 Y6.6768
G01 X13.6860 Y6.7899
G01 X13.6901 Y6.7940
G01 X13.8032 Y6.8965
G01 X13.8078 Y6.9002
G01 X13.9303 Y6.9912
G01 X13.9352 Y6.9944
G01 X14.0661 Y7.0729
G01 X14.0713 Y7.0757
G01 X14.2093 Y7.1409
G01 X14.2147 Y7.1432
G01 X14.3584 Y7.1946
G01 X14.3640 Y7.1963
G01 X14.5120 Y7.2334
G01 X14.5178 Y7.2345
G01 X14.6688 Y7.2569
G01 X14.6746 Y7.2575
G01 X14.8271 Y7.2650
G01 X14.8329 Y7.2650
G01 X14.9854 Y7.2575
G01 X14.9912 Y7.2569
G01 X15.1422 Y7.2345
G01 X15.1480 Y7.2334
G01 X15.2960 Y7.1963
G01 X15.3016 Y7.1946
G01 X15.4453 Y7.1432
G01 X15.4507 Y7.1409
G01 X15.5887 Y7.0757
G01 X15.5939 Y7.0729
G01 X15.7248 Y6.9944
G01 X15.7297 Y6.9912
G01 X15.8522 Y6.9002
G01 X15.8568 Y6.8965
G01 X15.9699 Y6.7940
G01 X15.9740 Y6.7899
G01 X16.0765 Y6.6768
G01 X16.0802 Y6.6722
G01 X16.1712 Y6.5497
G01 X16.1744 Y6.5448
G01 X16.2529 Y6.4139
G01 X16.2557 Y6.4087
G01 X16.3209 Y6.2707
G01 X16.3232 Y6.2653
G01 X16.3746 Y6.1216
G01 X16.3763 Y6.1160
G01 X16.4134 Y5.9680
G01 X16.4145 Y5.9622
G01 X16.4369 Y5.8112
G01 X16.4375 Y5.8054
G01 X16.4450 Y5.6529
G01 X16.4450 Y5.6471
G00 X16.4450 Y5.6471
G01 F60.00
G01 Z-0.2250
G01 F100.00
G01 X16.4375 Y5.4946
G01 X16.4369 Y5.4888
G01 X16.4145 Y5.3378
G01 X16.4134 Y5.3320
G01 X16.3763 Y5.1840
G01 X16.3746 Y5.1784
G01 X16.3232 Y5.0347
G01 X16.3209 Y5.0293
G01 X16.2557 Y4.8913
G01 X16.2529 Y4.8861
G01 X16.1744 Y4.7552
G01 X16.1712 Y4.7503
G01 X16.0802 Y4.6278
G01 X16.0765 Y4.6232
G01 X15.9740 Y4.5101
G01 X15.9699 Y4.5060
G01 X15.8568 Y4.4035
G01 X15.8522 Y4.3998
G01 X15.7297 Y4.3088
G01 X15.7248 Y4.3056
G01 X15.5939 Y4.2271
G01 X15.5887 Y4.2243
G01 X15.4507 Y4.1591
G01 X15.4453 Y4.1568
G01 X15.3016 Y4.1054
G01 X15.2960 Y4.1037
G01 X15.1480 Y4.0666
G01 X15.1422 Y4.0655
G01 X14.9912 Y4.0431
G01 X14.9854 Y4.0425
G01 X14.8329 Y4.0350
G01 X14.8271 Y4.0350
G01 X14.6746 Y4.0425
G01 X14.6688 Y4.0431
G01 X14.5178 Y4.0655
G01 X14.5120 Y4.0666
G01 X14.3640 Y4.1037
G01 X14.3584 Y4.1054
G01 X14.2147 Y4.1568
G01 X14.2093 Y4.1591
G01 X14.0713 Y4.2243
G01 X14.0661 Y4.2271
G01 X13.9352 Y4.3056
G01 X13.9303 Y4.3088
G01 X13.8078 Y4.3998
G01 X13.8032 Y4.4035
G01 X13.6901 Y4.5060
G01 X13.6860 Y4.5101
G01 X13.5835 Y4.6232
G01 X13.5798 Y4.6278
G01 X13.4888 Y4.7503
G01 X13.4856 Y4.7552
G01 X13.4071 Y4.8861
G01 X13.4043 Y4.8913
G01 X13.3391 Y5.0293
G01 X13.3368 Y5.0347
G01 X13.2854 Y5.1784
G01 X13.2837 Y5.1840
G01 X13.2466 Y5.3320
G01 X13.2455 Y5.3378
G01 X13.2231 Y5.4888
G01 X13.2225 Y5.4946
G01 X13.2150 Y5.6471
G01 X13.2150 Y5.6529
G01 X13.2225 Y5.8054
G01 X13.2231 Y5.8112
G01 X13.2455 Y5.9622
G01 X13.2466 Y5.9680
G01 X13.2837 Y6.1160
G01 X13.2854 Y6.1216
G01 X13.3368 Y6.2653
G01 X13.3391 Y6.2707
G01 X13.4043 Y6.4087
G01 X13.4071 Y6.4139
G01 X13.4856 Y6.5448
G01 X13.4888 Y6.5497
G01 X13.5798 Y6.6722
G01 X13.5835 Y6.6768
G01 X13.6860 Y6.7899
G01 X13.6901 Y6.7940
G01 X13.8032 Y6.8965
G01 X13.8078 Y6.9002
G01 X13.9303 Y6.9912
G01 X13.9352 Y6.9944
G01 X14.0661 Y7.0729
G01 X14.0713 Y7.0757
G01 X14.2093 Y7.1409
G01 X14.2147 Y7.1432
G01 X14.3584 Y7.1946
G01 X14.3640 Y7.1963
G01 X14.5120 Y7.2334
G01 X14.5178 Y7.2345
G01 X14.6688 Y7.2569
G01 X14.6746 Y7.2575
G01 X14.8271 Y7.2650
G01 X14.8329 Y7.2650
G01 X14.9854 Y7.2575
G01 X14.9912 Y7.2569
G01 X15.1422 Y7.2345
G01 X15.1480 Y7.2334
G01 X15.2960 Y7.1963
G01 X15.3016 Y7.1946
G01 X15.4453 Y7.1432
G01 X15.4507 Y7.1409
G01 X15.5887 Y7.0757
G01 X15.5939 Y7.0729
G01 X15.7248 Y6.9944
G01 X15.7297 Y6.9912
G01 X15.8522 Y6.9002
G01 X15.8568 Y6.8965
G01 X15.9699 Y6.7940
G01 X15.9740 Y6.7899
G01 X16.0765 Y6.6768
G01 X16.0802 Y6.6722
G01 X16.1712 Y6.5497
G01 X16.1744 Y6.5448
G01 X16.2529 Y6.4139
G01 X16.2557 Y6.4087
G01 X16.3209 Y6.2707
G01 X16.3232 Y6.2653
G01 X16.3746 Y6.1216
G01 X16.3763 Y6.1160
G01 X16.4134 Y5.9680
G01 X16.4145 Y5.9622
G01 X16.4369 Y5.8112
G01 X16.4375 Y5.8054
G01 X16.4450 Y5.6529
G01 X16.4450 Y5.6471
G00 X16.4450 Y5.6471
G01 F60.00
G01 Z-0.2836
G01 F100.00
G01 X16.4375 Y5.4946
G01 X16.4369 Y5.4888
G01 X16.4145 Y5.3378
G01 X16.4134 Y5.3320
G01 X16.3763 Y5.1840
G01 X16.3746 Y5.1784
G01 X16.3232 Y5.0347
G01 X16.3209 Y5.0293
G01 X16.2557 Y4.8913
G01 X16.2529 Y4.8861
G01 X16.1744 Y4.7552
G01 X16.1712 Y4.7503
G01 X16.0802 Y4.6278
G01 X16.0765 Y4.6232
G01 X15.9740 Y4.5101
G01 X15.9699 Y4.5060
G01 X15.8568 Y4.4035
G01 X15.8522 Y4.3998
G01 X15.7297 Y4.3088
G01 X15.7248 Y4.3056
G01 X15.5939 Y4.2271
G01 X15.5887 Y4.2243
G01 X15.4507 Y4.1591
G01 X15.4453 Y4.1568
G01 X15.3016 Y4.1054
G01 X15.2960 Y4.1037
G01 X15.1480 Y4.0666
G01 X15.1422 Y4.0655
G01 X14.9912 Y4.0431
G01 X14.9854 Y4.0425
G01 X14.8329 Y4.0350
G01 X14.8271 Y4.0350
G01 X14.6746 Y4.0425
G01 X14.6688 Y4.0431
G01 X14.5178 Y4.0655
G01 X14.5120 Y4.0666
G01 X14.3640 Y4.1037
G01 X14.3584 Y4.1054
G01 X14.2147 Y4.1568
G01 X14.2093 Y4.1591
G01 X14.0713 Y4.2243
G01 X14.0661 Y4.2271
G01 X13.9352 Y4.3056
G01 X13.9303 Y4.3088
G01 X13.8078 Y4.3998
G01 X13.8032 Y4.4035
G01 X13.6901 Y4.5060
G01 X13.6860 Y4.5101
G01 X13.5835 Y4.6232
G01 X13.5798 Y4.6278
G01 X13.4888 Y4.7503
G01 X13.4856 Y4.7552
G01 X13.4071 Y4.8861
G01 X13.4043 Y4.8913
G01 X13.3391 Y5.0293
G01 X13.3368 Y5.0347
G01 X13.2854 Y5.1784
G01 X13.2837 Y5.1840
G01 X13.2466 Y5.3320
G01 X13.2455 Y5.3378
G01 X13.2231 Y5.4888
G01 X13.2225 Y5.4946
G01 X13.2150 Y5.6471
G01 X13.2150 Y5.6529
G01 X13.2225 Y5.8054
G01 X13.2231 Y5.8112
G01 X13.2455 Y5.9622
G01 X13.2466 Y5.9680
G01 X13.2837 Y6.1160
G01 X13.2854 Y6.1216
G01 X13.3368 Y6.2653
G01 X13.3391 Y6.2707
G01 X13.4043 Y6.4087
G01 X13.4071 Y6.4139
G01 X13.4856 Y6.5448
G01 X13.4888 Y6.5497
G01 X13.5798 Y6.6722
G01 X13.5835 Y6.6768
G01 X13.6860 Y6.7899
G01 X13.6901 Y6.7940
G01 X13.8032 Y6.8965
G01 X13.8078 Y6.9002
G01 X13.9303 Y6.9912
G01 X13.9352 Y6.9944
G01 X14.0661 Y7.0729
G01 X14.0713 Y7.0757
G01 X14.2093 Y7.1409
G01 X14.2147 Y7.1432
G01 X14.3584 Y7.1946
G01 X14.3640 Y7.1963
G01 X14.5120 Y7.2334
G01 X14.5178 Y7.2345
G01 X14.6688 Y7.2569
G01 X14.6746 Y7.2575
G01 X14.8271 Y7.2650
G01 X14.8329 Y7.2650
G01 X14.9854 Y7.2575
G01 X14.9912 Y7.2569
G01 X15.1422 Y7.2345
G01 X15.1480 Y7.2334
G01 X15.2960 Y7.1963
G01 X15.3016 Y7.1946
G01 X15.4453 Y7.1432
G01 X15.4507 Y7.1409
G01 X15.5887 Y7.0757
G01 X15.5939 Y7.0729
G01 X15.7248 Y6.9944
G01 X15.7297 Y6.9912
G01 X15.8522 Y6.9002
G01 X15.8568 Y6.8965
G01 X15.9699 Y6.7940
G01 X15.9740 Y6.7899
G01 X16.0765 Y6.6768
G01 X16.0802 Y6.6722
G01 X16.1712 Y6.5497
G01 X16.1744 Y6.5448
G01 X16.2529 Y6.4139
G01 X16.2557 Y6.4087
G01 X16.3209 Y6.2707
G01 X16.3232 Y6.2653
G01 X16.3746 Y6.1216
G01 X16.3763 Y6.1160
G01 X16.4134 Y5.9680
G01 X16.4145 Y5.9622
G01 X16.4369 Y5.8112
G01 X16.4375 Y5.8054
G01 X16.4450 Y5.6529
G01 X16.4450 Y5.6471
G00 Z2.0000
G00 X20.1277 Y5.7965
G01 F60.00
G01 Z-0.0750
G01 F100.00
G01 X20.1062 Y5.9416
G01 X20.0705 Y6.0839
G01 X20.0211 Y6.2221
G01 X19.9584 Y6.3547
G01 X19.8830 Y6.4805
G01 X19.7956 Y6.5984
G01 X19.6971 Y6.7071
G01 X19.5884 Y6.8056
G01 X19.4705 Y6.8930
G01 X19.3447 Y6.9684
G01 X19.2121 Y7.0311
G01 X19.0739 Y7.0805
G01 X18.9316 Y7.1162
G01 X18.7865 Y7.1377
G01 X18.6400 Y7.1449
G01 X18.4935 Y7.1377
G01 X18.3484 Y7.1162
G01 X18.2061 Y7.0805
G01 X18.0679 Y7.0311
G01 X17.9353 Y6.9684
G01 X17.8095 Y6.8930
G01 X17.6916 Y6.8056
G01 X17.5829 Y6.7071
G01 X17.4844 Y6.5984
G01 X17.3970 Y6.4805
G01 X17.3216 Y6.3547
G01 X17.2589 Y6.2221
G01 X17.2095 Y6.0839
G01 X17.1738 Y5.9416
G01 X17.1523 Y5.7965
G01 X17.1451 Y5.6500
G01 X17.1523 Y5.5035
G01 X17.1738 Y5.3584
G01 X17.2095 Y5.2161
G01 X17.2589 Y5.0779
G01 X17.3216 Y4.9453
G01 X17.3970 Y4.8195
G01 X17.4844 Y4.7016
G01 X17.5829 Y4.5929
G01 X17.6916 Y4.4944
G01 X17.8095 Y4.4070
G01 X17.9353 Y4.3316
G01 X18.0679 Y4.2689
G01 X18.2061 Y4.2195
G01 X18.3484 Y4.1838
G01 X18.4935 Y4.1623
G01 X18.6400 Y4.1551
G01 X18.7865 Y4.1623
G01 X18.9316 Y4.1838
G01 X19.0739 Y4.2195
G01 X19.2121 Y4.2689
G01 X19.3447 Y4.3316
G01 X19.4705 Y4.4070
G01 X19.5884 Y4.4944
G01 X19.6971 Y4.5929
G01 X19.7956 Y4.7016
G01 X19.8830 Y4.8195
G01 X19.9584 Y4.9453
G01 X20.0211 Y5.0779
G01 X20.0705 Y5.2161
G01 X20.1062 Y5.3584
G01 X20.1277 Y5.5035
G01 X20.1349 Y5.6500
G01 X20.1277 Y5.7965
G00 X20.1277 Y5.7965
G01 F60.00
G01 Z-0.1500
G01 F100.00
G01 X20.1062 Y5.9416
G01 X20.0705 Y6.0839
G01 X20.0211 Y6.2221
G01 X19.9584 Y6.3547
G01 X19.8830 Y6.4805
G01 X19.7956 Y6.5984
G01 X19.6971 Y6.7071
G01 X19.5884 Y6.8056
G01 X19.4705 Y6.8930
G01 X19.3447 Y6.9684
G01 X19.2121 Y7.0311
G01 X19.0739 Y7.0805
G01 X18.9316 Y7.1162
G01 X18.7865 Y7.1377
G01 X18.6400 Y7.1449
G01 X18.4935 Y7.1377
G01 X18.3484 Y7.1162
G01 X18.2061 Y7.0805
G01 X18.0679 Y7.0311
G01 X17.9353 Y6.9684
G01 X17.8095 Y6.8930
G01 X17.6916 Y6.8056
G01 X17.5829 Y6.7071
G01 X17.4844 Y6.5984
G01 X17.3970 Y6.4805
G01 X17.3216 Y6.3547
G01 X17.2589 Y6.2221
G01 X17.2095 Y6.0839
G01 X17.1738 Y5.9416
G01 X17.1523 Y5.7965
G01 X17.1451 Y5.6500
G01 X17.1523 Y5.5035
G01 X17.1738 Y5.3584
G01 X17.2095 Y5.2161
G01 X17.2589 Y5.0779
G01 X17.3216 Y4.9453
G01 X17.3970 Y4.8195
G01 X17.4844 Y4.7016
G01 X17.5829 Y4.5929
G01 X17.6916 Y4.4944
G01 X17.8095 Y4.4070
G01 X17.9353 Y4.3316
G01 X18.0679 Y4.2689
G01 X18.2061 Y4.2195
G01 X18.3484 Y4.1838
G01 X18.4935 Y4.1623
G01 X18.6400 Y4.1551
G01 X18.7865 Y4.1623
G01 X18.9316 Y4.1838
G01 X19.0739 Y4.2195
G01 X19.2121 Y4.2689
G01 X19.3447 Y4.3316
G01 X19.4705 Y4.4070
G01 X19.5884 Y4.4944
G01 X19.6971 Y4.5929
G01 X19.7956 Y4.7016
G01 X19.8830 Y4.8195
G01 X19.9584 Y4.9453
G01 X20.0211 Y5.0779
G01 X20.0705 Y5.2161
G01 X20.1062 Y5.3584
G01 X20.1277 Y5.5035
G01 X20.1349 Y5.6500
G01 X20.1277 Y5.7965
G00 X20.1277 Y5.7965
G01 F60.00
G01 Z-0.2250
G01 F100.00
G01 X20.1062 Y5.9416
G01 X20.0705 Y6.0839
G01 X20.0211 Y6.2221
G01 X19.9584 Y6.3547
G01 X19.8830 Y6.4805
G01 X19.7956 Y6.5984
G01 X19.6971 Y6.7071
G01 X19.5884 Y6.8056
G01 X19.4705 Y6.8930
G01 X19.3447 Y6.9684
G01 X19.2121 Y7.0311
G01 X19.0739 Y7.0805
G01 X18.9316 Y7.1162
G01 X18.7865 Y7.1377
G01 X18.6400 Y7.1449
G01 X18.4935 Y7.1377
G01 X18.3484 Y7.1162
G01 X18.2061 Y7.0805
G01 X18.0679 Y7.0311
G01 X17.9353 Y6.9684
G01 X17.8095 Y6.8930
G01 X17.6916 Y6.8056
G01 X17.5829 Y6.7071
G01 X17.4844 Y6.5984
G01 X17.3970 Y6.4805
G01 X17.3216 Y6.3547
G01 X17.2589 Y6.2221
G01 X17.2095 Y6.0839
G01 X17.1738 Y5.9416
G01 X17.1523 Y5.7965
G01 X17.1451 Y5.6500
G01 X17.1523 Y5.5035
G01 X17.1738 Y5.3584
G01 X17.2095 Y5.2161
G01 X17.2589 Y5.0779
G01 X17.3216 Y4.9453
G01 X17.3970 Y4.8195
G01 X17.4844 Y4.7016
G01 X17.5829 Y4.5929
G01 X17.6916 Y4.4944
G01 X17.8095 Y4.4070
G01 X17.9353 Y4.3316
G01 X18.0679 Y4.2689
G01 X18.2061 Y4.2195
G01 X18.3484 Y4.1838
G01 X18.4935 Y4.1623
G01 X18.6400 Y4.1551
G01 X18.7865 Y4.1623
G01 X18.9316 Y4.1838
G01 X19.0739 Y4.2195
G01 X19.2121 Y4.2689
G01 X19.3447 Y4.3316
G01 X19.4705 Y4.4070
G01 X19.5884 Y4.4944
G01 X19.6971 Y4.5929
G01 X19.7956 Y4.7016
G01 X19.8830 Y4.8195
G01 X19.9584 Y4.9453
G01 X20.0211 Y5.0779
G01 X20.0705 Y5.2161
G01 X20.1062 Y5.3584
G01 X20.1277 Y5.5035
G01 X20.1349 Y5.6500
G01 X20.1277 Y5.7965
G00 X20.1277 Y5.7965
G01 F60.00
G01 Z-0.2836
G01 F100.00
G01 X20.1062 Y5.9416
G01 X20.0705 Y6.0839
G01 X20.0211 Y6.2221
G01 X19.9584 Y6.3547
G01 X19.8830 Y6.4805
G01 X19.7956 Y6.5984
G01 X19.6971 Y6.7071
G01 X19.5884 Y6.8056
G01 X19.4705 Y6.8930
G01 X19.3447 Y6.9684
G01 X19.2121 Y7.0311
G01 X19.0739 Y7.0805
G01 X18.9316 Y7.1162
G01 X18.7865 Y7.1377
G01 X18.6400 Y7.1449
G01 X18.4935 Y7.1377
G01 X18.3484 Y7.1162
G01 X18.2061 Y7.0805
G01 X18.0679 Y7.0311
G01 X17.9353 Y6.9684
G01 X17.8095 Y6.8930
G01 X17.6916 Y6.8056
G01 X17.5829 Y6.7071
G01 X17.4844 Y6.5984
G01 X17.3970 Y6.4805
G01 X17.3216 Y6.3547
G01 X17.2589 Y6.2221
G01 X17.2095 Y6.0839
G01 X17.1738 Y5.9416
G01 X17.1523 Y5.7965
G01 X17.1451 Y5.6500
G01 X17.1523 Y5.5035
G01 X17.1738 Y5.3584
G01 X17.2095 Y5.2161
G01 X17.2589 Y5.0779
G01 X17.3216 Y4.9453
G01 X17.3970 Y4.8195
G01 X17.4844 Y4.7016
G01 X17.5829 Y4.5929
G01 X17.6916 Y4.4944
G01 X17.8095 Y4.4070
G01 X17.9353 Y4.3316
G01 X18.0679 Y4.2689
G01 X18.2061 Y4.2195
G01 X18.3484 Y4.1838
G01 X18.4935 Y4.1623
G01 X18.6400 Y4.1551
G01 X18.7865 Y4.1623
G01 X18.9316 Y4.1838
G01 X19.0739 Y4.2195
G01 X19.2121 Y4.2689
G01 X19.3447 Y4.3316
G01 X19.4705 Y4.4070
G01 X19.5884 Y4.4944
G01 X19.6971 Y4.5929
G01 X19.7956 Y4.7016
G01 X19.8830 Y4.8195
G01 X19.9584 Y4.9453
G01 X20.0211 Y5.0779
G01 X20.0705 Y5.2161
G01 X20.1062 Y5.3584
G01 X20.1277 Y5.5035
G01 X20.1349 Y5.6500
G01 X20.1277 Y5.7965
G00 Z2.0000
G00 X20.2550 Y5.6471
G01 F60.00
G01 Z-0.0750
G01 F100.00
G01 X20.2475 Y5.4946
G01 X20.2469 Y5.4888
G01 X20.2245 Y5.3378
G01 X20.2234 Y5.3320
G01 X20.1863 Y5.1840
G01 X20.1846 Y5.1784
G01 X20.1332 Y5.0347
G01 X20.1309 Y5.0293
G01 X20.0657 Y4.8913
G01 X20.0629 Y4.8861
G01 X19.9844 Y4.7552
G01 X19.9812 Y4.7503
G01 X19.8902 Y4.6278
G01 X19.8865 Y4.6232
G01 X19.7840 Y4.5101
G01 X19.7799 Y4.5060
G01 X19.6668 Y4.4035
G01 X19.6622 Y4.3998
G01 X19.5397 Y4.3088
G01 X19.5348 Y4.3056
G01 X19.4039 Y4.2271
G01 X19.3987 Y4.2243
G01 X19.2607 Y4.1591
G01 X19.2553 Y4.1568
G01 X19.1116 Y4.1054
G01 X19.1060 Y4.1037
G01 X18.9580 Y4.0666
G01 X18.9522 Y4.0655
G01 X18.8012 Y4.0431
G01 X18.7954 Y4.0425
G01 X18.6429 Y4.0350
G01 X18.6371 Y4.0350
G01 X18.4846 Y4.0425
G01 X18.4788 Y4.0431
G01 X18.3278 Y4.0655
G01 X18.3220 Y4.0666
G01 X18.1740 Y4.1037
G01 X18.1684 Y4.1054
G01 X18.0247 Y4.1568
G01 X18.0193 Y4.1591
G01 X17.8813 Y4.2243
G01 X17.8761 Y4.2271
G01 X17.7452 Y4.3056
G01 X17.7403 Y4.3088
G01 X17.6178 Y4.3998
G01 X17.6132 Y4.4035
G01 X17.5001 Y4.5060
G01 X17.4960 Y4.5101
G01 X17.3935 Y4.6232
G01 X17.3898 Y4.6278
G01 X17.2988 Y4.7503
G01 X17.2956 Y4.7552
G01 X17.2171 Y4.8861
G01 X17.2143 Y4.8913
G01 X17.1491 Y5.0293
G01 X17.1468 Y5.0347
G01 X17.0954 Y5.1784
G01 X17.0937 Y5.1840
G01 X17.0566 Y5.3320
G01 X17.0555 Y5.3378
G01 X17.0331 Y5.4888
G01 X17.0325 Y5.4946
G01 X17.0250 Y5.6471
G01 X17.0250 Y5.6529
G01 X17.0325 Y5.8054
G01 X17.0331 Y5.8112
G01 X17.0555 Y5.9622
G01 X17.0566 Y5.9680
G01 X17.0937 Y6.1160
G01 X17.0954 Y6.1216
G01 X17.1468 Y6.2653
G01 X17.1491 Y6.2707
G01 X17.2143 Y6.4087
G01 X17.2171 Y6.4139
G01 X17.2956 Y6.5448
G01 X17.2988 Y6.5497
G01 X17.3898 Y6.6722
G01 X17.3935 Y6.6768
G01 X17.4960 Y6.7899
G01 X17.5001 Y6.7940
G01 X17.6132 Y6.8965
G01 X17.6178 Y6.9002
G01 X17.7403 Y6.9912
G01 X17.7452 Y6.9944
G01 X17.8761 Y7.0729
G01 X17.8813 Y7.0757
G01 X18.0193 Y7.1409
G01 X18.0247 Y7.1432
G01 X18.1684 Y7.1946
G01 X18.1740 Y7.1963
G01 X18.3220 Y7.2334
G01 X18.3278 Y7.2345
G01 X18.4788 Y7.2569
G01 X18.4846 Y7.2575
G01 X18.6371 Y7.2650
G01 X18.6429 Y7.2650
G01 X18.7954 Y7.2575
G01 X18.8012 Y7.2569
G01 X18.9522 Y7.2345
G01 X18.9580 Y7.2334
G01 X19.1060 Y7.1963
G01 X19.1116 Y7.1946
G01 X19.2553 Y7.1432
G01 X19.2607 Y7.1409
G01 X19.3987 Y7.0757
G01 X19.4039 Y7.0729
G01 X19.5348 Y6.9944
G01 X19.5397 Y6.9912
G01 X19.6622 Y6.9002
G01 X19.6668 Y6.8965
G01 X19.7799 Y6.7940
G01 X19.7840 Y6.7899
G01 X19.8865 Y6.6768
G01 X19.8902 Y6.6722
G01 X19.9812 Y6.5497
G01 X19.9844 Y6.5448
G01 X20.0629 Y6.4139
G01 X20.0657 Y6.4087
G01 X20.1309 Y6.2707
G01 X20.1332 Y6.2653
G01 X20.1846 Y6.1216
G01 X20.1863 Y6.1160
G01 X20.2234 Y5.9680
G01 X20.2245 Y5.9622
G01 X20.2469 Y5.8112
G01 X20.2475 Y5.8054
G01 X20.2550 Y5.6529
G01 X20.2550 Y5.6471
G00 X20.2550 Y5.6471
G01 F60.00
G01 Z-0.1500
G01 F100.00
G01 X20.2475 Y5.4946
G01 X20.2469 Y5.4888
G01 X20.2245 Y5.3378
G01 X20.2234 Y5.3320
G01 X20.1863 Y5.1840
G01 X20.1846 Y5.1784
G01 X20.1332 Y5.0347
G01 X20.1309 Y5.0293
G01 X20.0657 Y4.8913
G01 X20.0629 Y4.8861
G01 X19.9844 Y4.7552
G01 X19.9812 Y4.7503
G01 X19.8902 Y4.6278
G01 X19.8865 Y4.6232
G01 X19.7840 Y4.5101
G01 X19.7799 Y4.5060
G01 X19.6668 Y4.4035
G01 X19.6622 Y4.3998
G01 X19.5397 Y4.3088
G01 X19.5348 Y4.3056
G01 X19.4039 Y4.2271
G01 X19.3987 Y4.2243
G01 X19.2607 Y4.1591
G01 X19.2553 Y4.1568
G01 X19.1116 Y4.1054
G01 X19.1060 Y4.1037
G01 X18.9580 Y4.0666
G01 X18.9522 Y4.0655
G01 X18.8012 Y4.0431
G01 X18.7954 Y4.0425
G01 X18.6429 Y4.0350
G01 X18.6371 Y4.0350
G01 X18.4846 Y4.0425
G01 X18.4788 Y4.0431
G01 X18.3278 Y4.0655
G01 X18.3220 Y4.0666
G01 X18.1740 Y4.1037
G01 X18.1684 Y4.1054
G01 X18.0247 Y4.1568
G01 X18.0193 Y4.1591
G01 X17.8813 Y4.2243
G01 X17.8761 Y4.2271
G01 X17.7452 Y4.3056
G01 X17.7403 Y4.3088
G01 X17.6178 Y4.3998
G01 X17.6132 Y4.4035
G01 X17.5001 Y4.5060
G01 X17.4960 Y4.5101
G01 X17.3935 Y4.6232
G01 X17.3898 Y4.6278
G01 X17.2988 Y4.7503
G01 X17.2956 Y4.7552
G01 X17.2171 Y4.8861
G01 X17.2143 Y4.8913
G01 X17.1491 Y5.0293
G01 X17.1468 Y5.0347
G01 X17.0954 Y5.1784
G01 X17.0937 Y5.1840
G01 X17.0566 Y5.3320
G01 X17.0555 Y5.3378
G01 X17.0331 Y5.4888
G01 X17.0325 Y5.4946
G01 X17.0250 Y5.6471
G01 X17.0250 Y5.6529
G01 X17.0325 Y5.8054
G01 X17.0331 Y5.8112
G01 X17.0555 Y5.9622
G01 X17.0566 Y5.9680
G01 X17.0937 Y6.1160
G01 X17.0954 Y6.1216
G01 X17.1468 Y6.2653
G01 X17.1491 Y6.2707
G01 X17.2143 Y6.4087
G01 X17.2171 Y6.4139
G01 X17.2956 Y6.5448
G01 X17.2988 Y6.5497
G01 X17.3898 Y6.6722
G01 X17.3935 Y6.6768
G01 X17.4960 Y6.7899
G01 X17.5001 Y6.7940
G01 X17.6132 Y6.8965
G01 X17.6178 Y6.9002
G01 X17.7403 Y6.9912
G01 X17.7452 Y6.9944
G01 X17.8761 Y7.0729
G01 X17.8813 Y7.0757
G01 X18.0193 Y7.1409
G01 X18.0247 Y7.1432
G01 X18.1684 Y7.1946
G01 X18.1740 Y7.1963
G01 X18.3220 Y7.2334
G01 X18.3278 Y7.2345
G01 X18.4788 Y7.2569
G01 X18.4846 Y7.2575
G01 X18.6371 Y7.2650
G01 X18.6429 Y7.2650
G01 X18.7954 Y7.2575
G01 X18.8012 Y7.2569
G01 X18.9522 Y7.2345
G01 X18.9580 Y7.2334
G01 X19.1060 Y7.1963
G01 X19.1116 Y7.1946
G01 X19.2553 Y7.1432
G01 X19.2607 Y7.1409
G01 X19.3987 Y7.0757
G01 X19.4039 Y7.0729
G01 X19.5348 Y6.9944
G01 X19.5397 Y6.9912
G01 X19.6622 Y6.9002
G01 X19.6668 Y6.8965
G01 X19.7799 Y6.7940
G01 X19.7840 Y6.7899
G01 X19.8865 Y6.6768
G01 X19.8902 Y6.6722
G01 X19.9812 Y6.5497
G01 X19.9844 Y6.5448
G01 X20.0629 Y6.4139
G01 X20.0657 Y6.4087
G01 X20.1309 Y6.2707
G01 X20.1332 Y6.2653
G01 X20.1846 Y6.1216
G01 X20.1863 Y6.1160
G01 X20.2234 Y5.9680
G01 X20.2245 Y5.9622
G01 X20.2469 Y5.8112
G01 X20.2475 Y5.8054
G01 X20.2550 Y5.6529
G01 X20.2550 Y5.6471
G00 X20.2550 Y5.6471
G01 F60.00
G01 Z-0.2250
G01 F100.00
G01 X20.2475 Y5.4946
G01 X20.2469 Y5.4888
G01 X20.2245 Y5.3378
G01 X20.2234 Y5.3320
G01 X20.1863 Y5.1840
G01 X20.1846 Y5.1784
G01 X20.1332 Y5.0347
G01 X20.1309 Y5.0293
G01 X20.0657 Y4.8913
G01 X20.0629 Y4.8861
G01 X19.9844 Y4.7552
G01 X19.9812 Y4.7503
G01 X19.8902 Y4.6278
G01 X19.8865 Y4.6232
G01 X19.7840 Y4.5101
G01 X19.7799 Y4.5060
G01 X19.6668 Y4.4035
G01 X19.6622 Y4.3998
G01 X19.5397 Y4.3088
G01 X19.5348 Y4.3056
G01 X19.4039 Y4.2271
G01 X19.3987 Y4.2243
G01 X19.2607 Y4.1591
G01 X19.2553 Y4.1568
G01 X19.1116 Y4.1054
G01 X19.1060 Y4.1037
G01 X18.9580 Y4.0666
G01 X18.9522 Y4.0655
G01 X18.8012 Y4.0431
G01 X18.7954 Y4.0425
G01 X18.6429 Y4.0350
G01 X18.6371 Y4.0350
G01 X18.4846 Y4.0425
G01 X18.4788 Y4.0431
G01 X18.3278 Y4.0655
G01 X18.3220 Y4.0666
G01 X18.1740 Y4.1037
G01 X18.1684 Y4.1054
G01 X18.0247 Y4.1568
G01 X18.0193 Y4.1591
G01 X17.8813 Y4.2243
G01 X17.8761 Y4.2271
G01 X17.7452 Y4.3056
G01 X17.7403 Y4.3088
G01 X17.6178 Y4.3998
G01 X17.6132 Y4.4035
G01 X17.5001 Y4.5060
G01 X17.4960 Y4.5101
G01 X17.3935 Y4.6232
G01 X17.3898 Y4.6278
G01 X17.2988 Y4.7503
G01 X17.2956 Y4.7552
G01 X17.2171 Y4.8861
G01 X17.2143 Y4.8913
G01 X17.1491 Y5.0293
G01 X17.1468 Y5.0347
G01 X17.0954 Y5.1784
G01 X17.0937 Y5.1840
G01 X17.0566 Y5.3320
G01 X17.0555 Y5.3378
G01 X17.0331 Y5.4888
G01 X17.0325 Y5.4946
G01 X17.0250 Y5.6471
G01 X17.0250 Y5.6529
G01 X17.0325 Y5.8054
G01 X17.0331 Y5.8112
G01 X17.0555 Y5.9622
G01 X17.0566 Y5.9680
G01 X17.0937 Y6.1160
G01 X17.0954 Y6.1216
G01 X17.1468 Y6.2653
G01 X17.1491 Y6.2707
G01 X17.2143 Y6.4087
G01 X17.2171 Y6.4139
G01 X17.2956 Y6.5448
G01 X17.2988 Y6.5497
G01 X17.3898 Y6.6722
G01 X17.3935 Y6.6768
G01 X17.4960 Y6.7899
G01 X17.5001 Y6.7940
G01 X17.6132 Y6.8965
G01 X17.6178 Y6.9002
G01 X17.7403 Y6.9912
G01 X17.7452 Y6.9944
G01 X17.8761 Y7.0729
G01 X17.8813 Y7.0757
G01 X18.0193 Y7.1409
G01 X18.0247 Y7.1432
G01 X18.1684 Y7.1946
G01 X18.1740 Y7.1963
G01 X18.3220 Y7.2334
G01 X18.3278 Y7.2345
G01 X18.4788 Y7.2569
G01 X18.4846 Y7.2575
G01 X18.6371 Y7.2650
G01 X18.6429 Y7.2650
G01 X18.7954 Y7.2575
G01 X18.8012 Y7.2569
G01 X18.9522 Y7.2345
G01 X18.9580 Y7.2334
G01 X19.1060 Y7.1963
G01 X19.1116 Y7.1946
G01 X19.2553 Y7.1432
G01 X19.2607 Y7.1409
G01 X19.3987 Y7.0757
G01 X19.4039 Y7.0729
G01 X19.5348 Y6.9944
G01 X19.5397 Y6.9912
G01 X19.6622 Y6.9002
G01 X19.6668 Y6.8965
G01 X19.7799 Y6.7940
G01 X19.7840 Y6.7899
G01 X19.8865 Y6.6768
G01 X19.8902 Y6.6722
G01 X19.9812 Y6.5497
G01 X19.9844 Y6.5448
G01 X20.0629 Y6.4139
G01 X20.0657 Y6.4087
G01 X20.1309 Y6.2707
G01 X20.1332 Y6.2653
G01 X20.1846 Y6.1216
G01 X20.1863 Y6.1160
G01 X20.2234 Y5.9680
G01 X20.2245 Y5.9622
G01 X20.2469 Y5.8112
G01 X20.2475 Y5.8054
G01 X20.2550 Y5.6529
G01 X20.2550 Y5.6471
G00 X20.2550 Y5.6471
G01 F60.00
G01 Z-0.2836
G01 F100.00
G01 X20.2475 Y5.4946
G01 X20.2469 Y5.4888
G01 X20.2245 Y5.3378
G01 X20.2234 Y5.3320
G01 X20.1863 Y5.1840
G01 X20.1846 Y5.1784
G01 X20.1332 Y5.0347
G01 X20.1309 Y5.0293
G01 X20.0657 Y4.8913
G01 X20.0629 Y4.8861
G01 X19.9844 Y4.7552
G01 X19.9812 Y4.7503
G01 X19.8902 Y4.6278
G01 X19.8865 Y4.6232
G01 X19.7840 Y4.5101
G01 X19.7799 Y4.5060
G01 X19.6668 Y4.4035
G01 X19.6622 Y4.3998
G01 X19.5397 Y4.3088
G01 X19.5348 Y4.3056
G01 X19.4039 Y4.2271
G01 X19.3987 Y4.2243
G01 X19.2607 Y4.1591
G01 X19.2553 Y4.1568
G01 X19.1116 Y4.1054
G01 X19.1060 Y4.1037
G01 X18.9580 Y4.0666
G01 X18.9522 Y4.0655
G01 X18.8012 Y4.0431
G01 X18.7954 Y4.0425
G01 X18.6429 Y4.0350
G01 X18.6371 Y4.0350
G01 X18.4846 Y4.0425
G01 X18.4788 Y4.0431
G01 X18.3278 Y4.0655
G01 X18.3220 Y4.0666
G01 X18.1740 Y4.1037
G01 X18.1684 Y4.1054
G01 X18.0247 Y4.1568
G01 X18.0193 Y4.1591
G01 X17.8813 Y4.2243
G01 X17.8761 Y4.2271
G01 X17.7452 Y4.3056
G01 X17.7403 Y4.3088
G01 X17.6178 Y4.3998
G01 X17.6132 Y4.4035
G01 X17.5001 Y4.5060
G01 X17.4960 Y4.5101
G01 X17.3935 Y4.6232
G01 X17.3898 Y4.6278
G01 X17.2988 Y4.7503
G01 X17.2956 Y4.7552
G01 X17.2171 Y4.8861
G01 X17.2143 Y4.8913
G01 X17.1491 Y5.0293
G01 X17.1468 Y5.0347
G01 X17.0954 Y5.1784
G01 X17.0937 Y5.1840
G01 X17.0566 Y5.3320
G01 X17.0555 Y5.3378
G01 X17.0331 Y5.4888
G01 X17.0325 Y5.4946
G01 X17.0250 Y5.6471
G01 X17.0250 Y5.6529
G01 X17.0325 Y5.8054
G01 X17.0331 Y5.8112
G01 X17.0555 Y5.9622
G01 X17.0566 Y5.9680
G01 X17.0937 Y6.1160
G01 X17.0954 Y6.1216
G01 X17.1468 Y6.2653
G01 X17.1491 Y6.2707
G01 X17.2143 Y6.4087
G01 X17.2171 Y6.4139
G01 X17.2956 Y6.5448
G01 X17.2988 Y6.5497
G01 X17.3898 Y6.6722
G01 X17.3935 Y6.6768
G01 X17.4960 Y6.7899
G01 X17.5001 Y6.7940
G01 X17.6132 Y6.8965
G01 X17.6178 Y6.9002
G01 X17.7403 Y6.9912
G01 X17.7452 Y6.9944
G01 X17.8761 Y7.0729
G01 X17.8813 Y7.0757
G01 X18.0193 Y7.1409
G01 X18.0247 Y7.1432
G01 X18.1684 Y7.1946
G01 X18.1740 Y7.1963
G01 X18.3220 Y7.2334
G01 X18.3278 Y7.2345
G01 X18.4788 Y7.2569
G01 X18.4846 Y7.2575
G01 X18.6371 Y7.2650
G01 X18.6429 Y7.2650
G01 X18.7954 Y7.2575
G01 X18.8012 Y7.2569
G01 X18.9522 Y7.2345
G01 X18.9580 Y7.2334
G01 X19.1060 Y7.1963
G01 X19.1116 Y7.1946
G01 X19.2553 Y7.1432
G01 X19.2607 Y7.1409
G01 X19.3987 Y7.0757
G01 X19.4039 Y7.0729
G01 X19.5348 Y6.9944
G01 X19.5397 Y6.9912
G01 X19.6622 Y6.9002
G01 X19.6668 Y6.8965
G01 X19.7799 Y6.7940
G01 X19.7840 Y6.7899
G01 X19.8865 Y6.6768
G01 X19.8902 Y6.6722
G01 X19.9812 Y6.5497
G01 X19.9844 Y6.5448
G01 X20.0629 Y6.4139
G01 X20.0657 Y6.4087
G01 X20.1309 Y6.2707
G01 X20.1332 Y6.2653
G01 X20.1846 Y6.1216
G01 X20.1863 Y6.1160
G01 X20.2234 Y5.9680
G01 X20.2245 Y5.9622
G01 X20.2469 Y5.8112
G01 X20.2475 Y5.8054
G01 X20.2550 Y5.6529
G01 X20.2550 Y5.6471
G00 Z2.0000
G00 X21.6817 Y8.3833
G01 F60.00
G01 Z-0.0750
G01 F100.00
G01 X21.6813 Y8.3753
G01 X21.6800 Y8.3674
G01 X21.6779 Y8.3596
G01 X21.6302 Y8.2167
G01 X21.6277 Y8.2103
G01 X21.6246 Y8.2040
G01 X21.6210 Y8.1981
G01 X21.6168 Y8.1926
G01 X21.6121 Y8.1874
G01 X21.5169 Y8.0922
G01 X21.5117 Y8.0875
G01 X21.5062 Y8.0833
G01 X21.5003 Y8.0796
G01 X21.4940 Y8.0766
G01 X21.4875 Y8.0741
G01 X21.3447 Y8.0264
G01 X21.3369 Y8.0243
G01 X21.3290 Y8.0230
G01 X21.3210 Y8.0226
G01 X21.2257 Y8.0226
G01 X21.2184 Y8.0229
G01 X21.2111 Y8.0240
G01 X21.2039 Y8.0258
G01 X21.1970 Y8.0283
G01 X21.1903 Y8.0314
G01 X21.1840 Y8.0352
G01 X21.1781 Y8.0396
G01 X21.1727 Y8.0446
G01 X21.1677 Y8.0500
G01 X21.1633 Y8.0559
G01 X21.1595 Y8.0622
G01 X21.1564 Y8.0689
G01 X21.1539 Y8.0758
G01 X21.1521 Y8.0830
G01 X21.1510 Y8.0903
G01 X21.1507 Y8.0976
G01 X21.1510 Y8.1050
G01 X21.1521 Y8.1123
G01 X21.1539 Y8.1194
G01 X21.1564 Y8.1263
G01 X21.1595 Y8.1330
G01 X21.1633 Y8.1393
G01 X21.1677 Y8.1452
G01 X21.1727 Y8.1507
G01 X21.1781 Y8.1556
G01 X21.1840 Y8.1600
G01 X21.1903 Y8.1638
G01 X21.1970 Y8.1669
G01 X21.2039 Y8.1694
G01 X21.2111 Y8.1712
G01 X21.2184 Y8.1723
G01 X21.2257 Y8.1727
G01 X21.3088 Y8.1727
G01 X21.4233 Y8.2108
G01 X21.4935 Y8.2810
G01 X21.5316 Y8.3955
G01 X21.5316 Y9.0976
G01 X21.5320 Y9.1050
G01 X21.5331 Y9.1123
G01 X21.5349 Y9.1194
G01 X21.5373 Y9.1263
G01 X21.5405 Y9.1330
G01 X21.5443 Y9.1393
G01 X21.5487 Y9.1452
G01 X21.5536 Y9.1507
G01 X21.5591 Y9.1556
G01 X21.5650 Y9.1600
G01 X21.5713 Y9.1638
G01 X21.5780 Y9.1669
G01 X21.5849 Y9.1694
G01 X21.5920 Y9.1712
G01 X21.5993 Y9.1723
G01 X21.6067 Y9.1727
G01 X21.6140 Y9.1723
G01 X21.6213 Y9.1712
G01 X21.6284 Y9.1694
G01 X21.6354 Y9.1669
G01 X21.6420 Y9.1638
G01 X21.6484 Y9.1600
G01 X21.6543 Y9.1556
G01 X21.6597 Y9.1507
G01 X21.6647 Y9.1452
G01 X21.6691 Y9.1393
G01 X21.6728 Y9.1330
G01 X21.6760 Y9.1263
G01 X21.6785 Y9.1194
G01 X21.6803 Y9.1123
G01 X21.6813 Y9.1050
G01 X21.6817 Y9.0976
G01 X21.6817 Y8.3833
G00 X21.6817 Y8.3833
G01 F60.00
G01 Z-0.1500
G01 F100.00
G01 X21.6813 Y8.3753
G01 X21.6800 Y8.3674
G01 X21.6779 Y8.3596
G01 X21.6302 Y8.2167
G01 X21.6277 Y8.2103
G01 X21.6246 Y8.2040
G01 X21.6210 Y8.1981
G01 X21.6168 Y8.1926
G01 X21.6121 Y8.1874
G01 X21.5169 Y8.0922
G01 X21.5117 Y8.0875
G01 X21.5062 Y8.0833
G01 X21.5003 Y8.0796
G01 X21.4940 Y8.0766
G01 X21.4875 Y8.0741
G01 X21.3447 Y8.0264
G01 X21.3369 Y8.0243
G01 X21.3290 Y8.0230
G01 X21.3210 Y8.0226
G01 X21.2257 Y8.0226
G01 X21.2184 Y8.0229
G01 X21.2111 Y8.0240
G01 X21.2039 Y8.0258
G01 X21.1970 Y8.0283
G01 X21.1903 Y8.0314
G01 X21.1840 Y8.0352
G01 X21.1781 Y8.0396
G01 X21.1727 Y8.0446
G01 X21.1677 Y8.0500
G01 X21.1633 Y8.0559
G01 X21.1595 Y8.0622
G01 X21.1564 Y8.0689
G01 X21.1539 Y8.0758
G01 X21.1521 Y8.0830
G01 X21.1510 Y8.0903
G01 X21.1507 Y8.0976
G01 X21.1510 Y8.1050
G01 X21.1521 Y8.1123
G01 X21.1539 Y8.1194
G01 X21.1564 Y8.1263
G01 X21.1595 Y8.1330
G01 X21.1633 Y8.1393
G01 X21.1677 Y8.1452
G01 X21.1727 Y8.1507
G01 X21.1781 Y8.1556
G01 X21.1840 Y8.1600
G01 X21.1903 Y8.1638
G01 X21.1970 Y8.1669
G01 X21.2039 Y8.1694
G01 X21.2111 Y8.1712
G01 X21.2184 Y8.1723
G01 X21.2257 Y8.1727
G01 X21.3088 Y8.1727
G01 X21.4233 Y8.2108
G01 X21.4935 Y8.2810
G01 X21.5316 Y8.3955
G01 X21.5316 Y9.0976
G01 X21.5320 Y9.1050
G01 X21.5331 Y9.1123
G01 X21.5349 Y9.1194
G01 X21.5373 Y9.1263
G01 X21.5405 Y9.1330
G01 X21.5443 Y9.1393
G01 X21.5487 Y9.1452
G01 X21.5536 Y9.1507
G01 X21.5591 Y9.1556
G01 X21.5650 Y9.1600
G01 X21.5713 Y9.1638
G01 X21.5780 Y9.1669
G01 X21.5849 Y9.1694
G01 X21.5920 Y9.1712
G01 X21.5993 Y9.1723
G01 X21.6067 Y9.1727
G01 X21.6140 Y9.1723
G01 X21.6213 Y9.1712
G01 X21.6284 Y9.1694
G01 X21.6354 Y9.1669
G01 X21.6420 Y9.1638
G01 X21.6484 Y9.1600
G01 X21.6543 Y9.1556
G01 X21.6597 Y9.1507
G01 X21.6647 Y9.1452
G01 X21.6691 Y9.1393
G01 X21.6728 Y9.1330
G01 X21.6760 Y9.1263
G01 X21.6785 Y9.1194
G01 X21.6803 Y9.1123
G01 X21.6813 Y9.1050
G01 X21.6817 Y9.0976
G01 X21.6817 Y8.3833
G00 X21.6817 Y8.3833
G01 F60.00
G01 Z-0.2250
G01 F100.00
G01 X21.6813 Y8.3753
G01 X21.6800 Y8.3674
G01 X21.6779 Y8.3596
G01 X21.6302 Y8.2167
G01 X21.6277 Y8.2103
G01 X21.6246 Y8.2040
G01 X21.6210 Y8.1981
G01 X21.6168 Y8.1926
G01 X21.6121 Y8.1874
G01 X21.5169 Y8.0922
G01 X21.5117 Y8.0875
G01 X21.5062 Y8.0833
G01 X21.5003 Y8.0796
G01 X21.4940 Y8.0766
G01 X21.4875 Y8.0741
G01 X21.3447 Y8.0264
G01 X21.3369 Y8.0243
G01 X21.3290 Y8.0230
G01 X21.3210 Y8.0226
G01 X21.2257 Y8.0226
G01 X21.2184 Y8.0229
G01 X21.2111 Y8.0240
G01 X21.2039 Y8.0258
G01 X21.1970 Y8.0283
G01 X21.1903 Y8.0314
G01 X21.1840 Y8.0352
G01 X21.1781 Y8.0396
G01 X21.1727 Y8.0446
G01 X21.1677 Y8.0500
G01 X21.1633 Y8.0559
G01 X21.1595 Y8.0622
G01 X21.1564 Y8.0689
G01 X21.1539 Y8.0758
G01 X21.1521 Y8.0830
G01 X21.1510 Y8.0903
G01 X21.1507 Y8.0976
G01 X21.1510 Y8.1050
G01 X21.1521 Y8.1123
G01 X21.1539 Y8.1194
G01 X21.1564 Y8.1263
G01 X21.1595 Y8.1330
G01 X21.1633 Y8.1393
G01 X21.1677 Y8.1452
G01 X21.1727 Y8.1507
G01 X21.1781 Y8.1556
G01 X21.1840 Y8.1600
G01 X21.1903 Y8.1638
G01 X21.1970 Y8.1669
G01 X21.2039 Y8.1694
G01 X21.2111 Y8.1712
G01 X21.2184 Y8.1723
G01 X21.2257 Y8.1727
G01 X21.3088 Y8.1727
G01 X21.4233 Y8.2108
G01 X21.4935 Y8.2810
G01 X21.5316 Y8.3955
G01 X21.5316 Y9.0976
G01 X21.5320 Y9.1050
G01 X21.5331 Y9.1123
G01 X21.5349 Y9.1194
G01 X21.5373 Y9.1263
G01 X21.5405 Y9.1330
G01 X21.5443 Y9.1393
G01 X21.5487 Y9.1452
G01 X21.5536 Y9.1507
G01 X21.5591 Y9.1556
G01 X21.5650 Y9.1600
G01 X21.5713 Y9.1638
G01 X21.5780 Y9.1669
G01 X21.5849 Y9.1694
G01 X21.5920 Y9.1712
G01 X21.5993 Y9.1723
G01 X21.6067 Y9.1727
G01 X21.6140 Y9.1723
G01 X21.6213 Y9.1712
G01 X21.6284 Y9.1694
G01 X21.6354 Y9.1669
G01 X21.6420 Y9.1638
G01 X21.6484 Y9.1600
G01 X21.6543 Y9.1556
G01 X21.6597 Y9.1507
G01 X21.6647 Y9.1452
G01 X21.6691 Y9.1393
G01 X21.6728 Y9.1330
G01 X21.6760 Y9.1263
G01 X21.6785 Y9.1194
G01 X21.6803 Y9.1123
G01 X21.6813 Y9.1050
G01 X21.6817 Y9.0976
G01 X21.6817 Y8.3833
G00 X21.6817 Y8.3833
G01 F60.00
G01 Z-0.2836
G01 F100.00
G01 X21.6813 Y8.3753
G01 X21.6800 Y8.3674
G01 X21.6779 Y8.3596
G01 X21.6302 Y8.2167
G01 X21.6277 Y8.2103
G01 X21.6246 Y8.2040
G01 X21.6210 Y8.1981
G01 X21.6168 Y8.1926
G01 X21.6121 Y8.1874
G01 X21.5169 Y8.0922
G01 X21.5117 Y8.0875
G01 X21.5062 Y8.0833
G01 X21.5003 Y8.0796
G01 X21.4940 Y8.0766
G01 X21.4875 Y8.0741
G01 X21.3447 Y8.0264
G01 X21.3369 Y8.0243
G01 X21.3290 Y8.0230
G01 X21.3210 Y8.0226
G01 X21.2257 Y8.0226
G01 X21.2184 Y8.0229
G01 X21.2111 Y8.0240
G01 X21.2039 Y8.0258
G01 X21.1970 Y8.0283
G01 X21.1903 Y8.0314
G01 X21.1840 Y8.0352
G01 X21.1781 Y8.0396
G01 X21.1727 Y8.0446
G01 X21.1677 Y8.0500
G01 X21.1633 Y8.0559
G01 X21.1595 Y8.0622
G01 X21.1564 Y8.0689
G01 X21.1539 Y8.0758
G01 X21.1521 Y8.0830
G01 X21.1510 Y8.0903
G01 X21.1507 Y8.0976
G01 X21.1510 Y8.1050
G01 X21.1521 Y8.1123
G01 X21.1539 Y8.1194
G01 X21.1564 Y8.1263
G01 X21.1595 Y8.1330
G01 X21.1633 Y8.1393
G01 X21.1677 Y8.1452
G01 X21.1727 Y8.1507
G01 X21.1781 Y8.1556
G01 X21.1840 Y8.1600
G01 X21.1903 Y8.1638
G01 X21.1970 Y8.1669
G01 X21.2039 Y8.1694
G01 X21.2111 Y8.1712
G01 X21.2184 Y8.1723
G01 X21.2257 Y8.1727
G01 X21.3088 Y8.1727
G01 X21.4233 Y8.2108
G01 X21.4935 Y8.2810
G01 X21.5316 Y8.3955
G01 X21.5316 Y9.0976
G01 X21.5320 Y9.1050
G01 X21.5331 Y9.1123
G01 X21.5349 Y9.1194
G01 X21.5373 Y9.1263
G01 X21.5405 Y9.1330
G01 X21.5443 Y9.1393
G01 X21.5487 Y9.1452
G01 X21.5536 Y9.1507
G01 X21.5591 Y9.1556
G01 X21.5650 Y9.1600
G01 X21.5713 Y9.1638
G01 X21.5780 Y9.1669
G01 X21.5849 Y9.1694
G01 X21.5920 Y9.1712
G01 X21.5993 Y9.1723
G01 X21.6067 Y9.1727
G01 X21.6140 Y9.1723
G01 X21.6213 Y9.1712
G01 X21.6284 Y9.1694
G01 X21.6354 Y9.1669
G01 X21.6420 Y9.1638
G01 X21.6484 Y9.1600
G01 X21.6543 Y9.1556
G01 X21.6597 Y9.1507
G01 X21.6647 Y9.1452
G01 X21.6691 Y9.1393
G01 X21.6728 Y9.1330
G01 X21.6760 Y9.1263
G01 X21.6785 Y9.1194
G01 X21.6803 Y9.1123
G01 X21.6813 Y9.1050
G01 X21.6817 Y9.0976
G01 X21.6817 Y8.3833
G00 Z2.0000
G00 X22.0298 Y9.1031
G01 F60.00
G01 Z-0.0750
G01 F100.00
G01 X22.0358 Y9.1084
G01 X22.0423 Y9.1131
G01 X22.0493 Y9.1171
G01 X22.1445 Y9.1647
G01 X22.1509 Y9.1676
G01 X22.1575 Y9.1698
G01 X22.1643 Y9.1714
G01 X22.1711 Y9.1723
G01 X22.1781 Y9.1727
G01 X22.4162 Y9.1727
G01 X22.4231 Y9.1723
G01 X22.4300 Y9.1714
G01 X22.4368 Y9.1698
G01 X22.4434 Y9.1676
G01 X22.4497 Y9.1647
G01 X22.5450 Y9.1171
G01 X22.5520 Y9.1131
G01 X22.5585 Y9.1084
G01 X22.5645 Y9.1031
G01 X22.6121 Y9.0554
G01 X22.6175 Y9.0495
G01 X22.6222 Y9.0429
G01 X22.6262 Y9.0359
G01 X22.6738 Y8.9407
G01 X22.6766 Y8.9343
G01 X22.6788 Y8.9277
G01 X22.6804 Y8.9210
G01 X22.6814 Y8.9141
G01 X22.6817 Y8.9071
G01 X22.6817 Y8.8119
G01 X22.6813 Y8.8039
G01 X22.6800 Y8.7959
G01 X22.6779 Y8.7882
G01 X22.6302 Y8.6453
G01 X22.6277 Y8.6388
G01 X22.6246 Y8.6326
G01 X22.6210 Y8.6267
G01 X22.6168 Y8.6211
G01 X22.6121 Y8.6160
G01 X22.1688 Y8.1727
G01 X22.6067 Y8.1727
G01 X22.6140 Y8.1723
G01 X22.6213 Y8.1712
G01 X22.6284 Y8.1694
G01 X22.6354 Y8.1669
G01 X22.6420 Y8.1638
G01 X22.6484 Y8.1600
G01 X22.6543 Y8.1556
G01 X22.6597 Y8.1507
G01 X22.6647 Y8.1452
G01 X22.6691 Y8.1393
G01 X22.6728 Y8.1330
G01 X22.6760 Y8.1263
G01 X22.6785 Y8.1194
G01 X22.6803 Y8.1123
G01 X22.6813 Y8.1050
G01 X22.6817 Y8.0976
G01 X22.6813 Y8.0903
G01 X22.6803 Y8.0830
G01 X22.6785 Y8.0758
G01 X22.6760 Y8.0689
G01 X22.6728 Y8.0622
G01 X22.6691 Y8.0559
G01 X22.6647 Y8.0500
G01 X22.6597 Y8.0446
G01 X22.6543 Y8.0396
G01 X22.6484 Y8.0352
G01 X22.6420 Y8.0314
G01 X22.6354 Y8.0283
G01 X22.6284 Y8.0258
G01 X22.6213 Y8.0240
G01 X22.6140 Y8.0229
G01 X22.6067 Y8.0226
G01 X21.9876 Y8.0226
G01 X21.9803 Y8.0229
G01 X21.9730 Y8.0240
G01 X21.9658 Y8.0258
G01 X21.9589 Y8.0283
G01 X21.9522 Y8.0314
G01 X21.9459 Y8.0352
G01 X21.9400 Y8.0396
G01 X21.9346 Y8.0446
G01 X21.9296 Y8.0500
G01 X21.9252 Y8.0559
G01 X21.9214 Y8.0622
G01 X21.9183 Y8.0689
G01 X21.9158 Y8.0758
G01 X21.9140 Y8.0830
G01 X21.9129 Y8.0903
G01 X21.9126 Y8.0976
G01 X21.9129 Y8.1050
G01 X21.9140 Y8.1123
G01 X21.9158 Y8.1194
G01 X21.9183 Y8.1263
G01 X21.9214 Y8.1330
G01 X21.9252 Y8.1393
G01 X21.9296 Y8.1452
G01 X21.9346 Y8.1507
G01 X22.4935 Y8.7096
G01 X22.5316 Y8.8241
G01 X22.5316 Y8.8894
G01 X22.4974 Y8.9579
G01 X22.4670 Y8.9883
G01 X22.3985 Y9.0226
G01 X22.1958 Y9.0226
G01 X22.1273 Y8.9883
G01 X22.0883 Y8.9493
G01 X22.0828 Y8.9444
G01 X22.0769 Y8.9400
G01 X22.0706 Y8.9362
G01 X22.0640 Y8.9331
G01 X22.0570 Y8.9306
G01 X22.0499 Y8.9288
G01 X22.0426 Y8.9277
G01 X22.0352 Y8.9273
G01 X22.0279 Y8.9277
G01 X22.0206 Y8.9288
G01 X22.0135 Y8.9306
G01 X22.0065 Y8.9331
G01 X21.9999 Y8.9362
G01 X21.9935 Y8.9400
G01 X21.9876 Y8.9444
G01 X21.9822 Y8.9493
G01 X21.9772 Y8.9548
G01 X21.9728 Y8.9607
G01 X21.9691 Y8.9670
G01 X21.9659 Y8.9737
G01 X21.9634 Y8.9806
G01 X21.9616 Y8.9877
G01 X21.9606 Y8.9950
G01 X21.9602 Y9.0024
G01 X21.9606 Y9.0097
G01 X21.9616 Y9.0170
G01 X21.9634 Y9.0242
G01 X21.9659 Y9.0311
G01 X21.9691 Y9.0378
G01 X21.9728 Y9.0441
G01 X21.9772 Y9.0500
G01 X21.9822 Y9.0554
G01 X22.0298 Y9.1031
G00 X22.0298 Y9.1031
G01 F60.00
G01 Z-0.1500
G01 F100.00
G01 X22.0358 Y9.1084
G01 X22.0423 Y9.1131
G01 X22.0493 Y9.1171
G01 X22.1445 Y9.1647
G01 X22.1509 Y9.1676
G01 X22.1575 Y9.1698
G01 X22.1643 Y9.1714
G01 X22.1711 Y9.1723
G01 X22.1781 Y9.1727
G01 X22.4162 Y9.1727
G01 X22.4231 Y9.1723
G01 X22.4300 Y9.1714
G01 X22.4368 Y9.1698
G01 X22.4434 Y9.1676
G01 X22.4497 Y9.1647
G01 X22.5450 Y9.1171
G01 X22.5520 Y9.1131
G01 X22.5585 Y9.1084
G01 X22.5645 Y9.1031
G01 X22.6121 Y9.0554
G01 X22.6175 Y9.0495
G01 X22.6222 Y9.0429
G01 X22.6262 Y9.0359
G01 X22.6738 Y8.9407
G01 X22.6766 Y8.9343
G01 X22.6788 Y8.9277
G01 X22.6804 Y8.9210
G01 X22.6814 Y8.9141
G01 X22.6817 Y8.9071
G01 X22.6817 Y8.8119
G01 X22.6813 Y8.8039
G01 X22.6800 Y8.7959
G01 X22.6779 Y8.7882
G01 X22.6302 Y8.6453
G01 X22.6277 Y8.6388
G01 X22.6246 Y8.6326
G01 X22.6210 Y8.6267
G01 X22.6168 Y8.6211
G01 X22.6121 Y8.6160
G01 X22.1688 Y8.1727
G01 X22.6067 Y8.1727
G01 X22.6140 Y8.1723
G01 X22.6213 Y8.1712
G01 X22.6284 Y8.1694
G01 X22.6354 Y8.1669
G01 X22.6420 Y8.1638
G01 X22.6484 Y8.1600
G01 X22.6543 Y8.1556
G01 X22.6597 Y8.1507
G01 X22.6647 Y8.1452
G01 X22.6691 Y8.1393
G01 X22.6728 Y8.1330
G01 X22.6760 Y8.1263
G01 X22.6785 Y8.1194
G01 X22.6803 Y8.1123
G01 X22.6813 Y8.1050
G01 X22.6817 Y8.0976
G01 X22.6813 Y8.0903
G01 X22.6803 Y8.0830
G01 X22.6785 Y8.0758
G01 X22.6760 Y8.0689
G01 X22.6728 Y8.0622
G01 X22.6691 Y8.0559
G01 X22.6647 Y8.0500
G01 X22.6597 Y8.0446
G01 X22.6543 Y8.0396
G01 X22.6484 Y8.0352
G01 X22.6420 Y8.0314
G01 X22.6354 Y8.0283
G01 X22.6284 Y8.0258
G01 X22.6213 Y8.0240
G01 X22.6140 Y8.0229
G01 X22.6067 Y8.0226
G01 X21.9876 Y8.0226
G01 X21.9803 Y8.0229
G01 X21.9730 Y8.0240
G01 X21.9658 Y8.0258
G01 X21.9589 Y8.0283
G01 X21.9522 Y8.0314
G01 X21.9459 Y8.0352
G01 X21.9400 Y8.0396
G01 X21.9346 Y8.0446
G01 X21.9296 Y8.0500
G01 X21.9252 Y8.0559
G01 X21.9214 Y8.0622
G01 X21.9183 Y8.0689
G01 X21.9158 Y8.0758
G01 X21.9140 Y8.0830
G01 X21.9129 Y8.0903
G01 X21.9126 Y8.0976
G01 X21.9129 Y8.1050
G01 X21.9140 Y8.1123
G01 X21.9158 Y8.1194
G01 X21.9183 Y8.1263
G01 X21.9214 Y8.1330
G01 X21.9252 Y8.1393
G01 X21.9296 Y8.1452
G01 X21.9346 Y8.1507
G01 X22.4935 Y8.7096
G01 X22.5316 Y8.8241
G01 X22.5316 Y8.8894
G01 X22.4974 Y8.9579
G01 X22.4670 Y8.9883
G01 X22.3985 Y9.0226
G01 X22.1958 Y9.0226
G01 X22.1273 Y8.9883
G01 X22.0883 Y8.9493
G01 X22.0828 Y8.9444
G01 X22.0769 Y8.9400
G01 X22.0706 Y8.9362
G01 X22.0640 Y8.9331
G01 X22.0570 Y8.9306
G01 X22.0499 Y8.9288
G01 X22.0426 Y8.9277
G01 X22.0352 Y8.9273
G01 X22.0279 Y8.9277
G01 X22.0206 Y8.9288
G01 X22.0135 Y8.9306
G01 X22.0065 Y8.9331
G01 X21.9999 Y8.9362
G01 X21.9935 Y8.9400
G01 X21.9876 Y8.9444
G01 X21.9822 Y8.9493
G01 X21.9772 Y8.9548
G01 X21.9728 Y8.9607
G01 X21.9691 Y8.9670
G01 X21.9659 Y8.9737
G01 X21.9634 Y8.9806
G01 X21.9616 Y8.9877
G01 X21.9606 Y8.9950
G01 X21.9602 Y9.0024
G01 X21.9606 Y9.0097
G01 X21.9616 Y9.0170
G01 X21.9634 Y9.0242
G01 X21.9659 Y9.0311
G01 X21.9691 Y9.0378
G01 X21.9728 Y9.0441
G01 X21.9772 Y9.0500
G01 X21.9822 Y9.0554
G01 X22.0298 Y9.1031
G00 X22.0298 Y9.1031
G01 F60.00
G01 Z-0.2250
G01 F100.00
G01 X22.0358 Y9.1084
G01 X22.0423 Y9.1131
G01 X22.0493 Y9.1171
G01 X22.1445 Y9.1647
G01 X22.1509 Y9.1676
G01 X22.1575 Y9.1698
G01 X22.1643 Y9.1714
G01 X22.1711 Y9.1723
G01 X22.1781 Y9.1727
G01 X22.4162 Y9.1727
G01 X22.4231 Y9.1723
G01 X22.4300 Y9.1714
G01 X22.4368 Y9.1698
G01 X22.4434 Y9.1676
G01 X22.4497 Y9.1647
G01 X22.5450 Y9.1171
G01 X22.5520 Y9.1131
G01 X22.5585 Y9.1084
G01 X22.5645 Y9.1031
G01 X22.6121 Y9.0554
G01 X22.6175 Y9.0495
G01 X22.6222 Y9.0429
G01 X22.6262 Y9.0359
G01 X22.6738 Y8.9407
G01 X22.6766 Y8.9343
G01 X22.6788 Y8.9277
G01 X22.6804 Y8.9210
G01 X22.6814 Y8.9141
G01 X22.6817 Y8.9071
G01 X22.6817 Y8.8119
G01 X22.6813 Y8.8039
G01 X22.6800 Y8.7959
G01 X22.6779 Y8.7882
G01 X22.6302 Y8.6453
G01 X22.6277 Y8.6388
G01 X22.6246 Y8.6326
G01 X22.6210 Y8.6267
G01 X22.6168 Y8.6211
G01 X22.6121 Y8.6160
G01 X22.1688 Y8.1727
G01 X22.6067 Y8.1727
G01 X22.6140 Y8.1723
G01 X22.6213 Y8.1712
G01 X22.6284 Y8.1694
G01 X22.6354 Y8.1669
G01 X22.6420 Y8.1638
G01 X22.6484 Y8.1600
G01 X22.6543 Y8.1556
G01 X22.6597 Y8.1507
G01 X22.6647 Y8.1452
G01 X22.6691 Y8.1393
G01 X22.6728 Y8.1330
G01 X22.6760 Y8.1263
G01 X22.6785 Y8.1194
G01 X22.6803 Y8.1123
G01 X22.6813 Y8.1050
G01 X22.6817 Y8.0976
G01 X22.6813 Y8.0903
G01 X22.6803 Y8.0830
G01 X22.6785 Y8.0758
G01 X22.6760 Y8.0689
G01 X22.6728 Y8.0622
G01 X22.6691 Y8.0559
G01 X22.6647 Y8.0500
G01 X22.6597 Y8.0446
G01 X22.6543 Y8.0396
G01 X22.6484 Y8.0352
G01 X22.6420 Y8.0314
G01 X22.6354 Y8.0283
G01 X22.6284 Y8.0258
G01 X22.6213 Y8.0240
G01 X22.6140 Y8.0229
G01 X22.6067 Y8.0226
G01 X21.9876 Y8.0226
G01 X21.9803 Y8.0229
G01 X21.9730 Y8.0240
G01 X21.9658 Y8.0258
G01 X21.9589 Y8.0283
G01 X21.9522 Y8.0314
G01 X21.9459 Y8.0352
G01 X21.9400 Y8.0396
G01 X21.9346 Y8.0446
G01 X21.9296 Y8.0500
G01 X21.9252 Y8.0559
G01 X21.9214 Y8.0622
G01 X21.9183 Y8.0689
G01 X21.9158 Y8.0758
G01 X21.9140 Y8.0830
G01 X21.9129 Y8.0903
G01 X21.9126 Y8.0976
G01 X21.9129 Y8.1050
G01 X21.9140 Y8.1123
G01 X21.9158 Y8.1194
G01 X21.9183 Y8.1263
G01 X21.9214 Y8.1330
G01 X21.9252 Y8.1393
G01 X21.9296 Y8.1452
G01 X21.9346 Y8.1507
G01 X22.4935 Y8.7096
G01 X22.5316 Y8.8241
G01 X22.5316 Y8.8894
G01 X22.4974 Y8.9579
G01 X22.4670 Y8.9883
G01 X22.3985 Y9.0226
G01 X22.1958 Y9.0226
G01 X22.1273 Y8.9883
G01 X22.0883 Y8.9493
G01 X22.0828 Y8.9444
G01 X22.0769 Y8.9400
G01 X22.0706 Y8.9362
G01 X22.0640 Y8.9331
G01 X22.0570 Y8.9306
G01 X22.0499 Y8.9288
G01 X22.0426 Y8.9277
G01 X22.0352 Y8.9273
G01 X22.0279 Y8.9277
G01 X22.0206 Y8.9288
G01 X22.0135 Y8.9306
G01 X22.0065 Y8.9331
G01 X21.9999 Y8.9362
G01 X21.9935 Y8.9400
G01 X21.9876 Y8.9444
G01 X21.9822 Y8.9493
G01 X21.9772 Y8.9548
G01 X21.9728 Y8.9607
G01 X21.9691 Y8.9670
G01 X21.9659 Y8.9737
G01 X21.9634 Y8.9806
G01 X21.9616 Y8.9877
G01 X21.9606 Y8.9950
G01 X21.9602 Y9.0024
G01 X21.9606 Y9.0097
G01 X21.9616 Y9.0170
G01 X21.9634 Y9.0242
G01 X21.9659 Y9.0311
G01 X21.9691 Y9.0378
G01 X21.9728 Y9.0441
G01 X21.9772 Y9.0500
G01 X21.9822 Y9.0554
G01 X22.0298 Y9.1031
G00 X22.0298 Y9.1031
G01 F60.00
G01 Z-0.2836
G01 F100.00
G01 X22.0358 Y9.1084
G01 X22.0423 Y9.1131
G01 X22.0493 Y9.1171
G01 X22.1445 Y9.1647
G01 X22.1509 Y9.1676
G01 X22.1575 Y9.1698
G01 X22.1643 Y9.1714
G01 X22.1711 Y9.1723
G01 X22.1781 Y9.1727
G01 X22.4162 Y9.1727
G01 X22.4231 Y9.1723
G01 X22.4300 Y9.1714
G01 X22.4368 Y9.1698
G01 X22.4434 Y9.1676
G01 X22.4497 Y9.1647
G01 X22.5450 Y9.1171
G01 X22.5520 Y9.1131
G01 X22.5585 Y9.1084
G01 X22.5645 Y9.1031
G01 X22.6121 Y9.0554
G01 X22.6175 Y9.0495
G01 X22.6222 Y9.0429
G01 X22.6262 Y9.0359
G01 X22.6738 Y8.9407
G01 X22.6766 Y8.9343
G01 X22.6788 Y8.9277
G01 X22.6804 Y8.9210
G01 X22.6814 Y8.9141
G01 X22.6817 Y8.9071
G01 X22.6817 Y8.8119
G01 X22.6813 Y8.8039
G01 X22.6800 Y8.7959
G01 X22.6779 Y8.7882
G01 X22.6302 Y8.6453
G01 X22.6277 Y8.6388
G01 X22.6246 Y8.6326
G01 X22.6210 Y8.6267
G01 X22.6168 Y8.6211
G01 X22.6121 Y8.6160
G01 X22.1688 Y8.1727
G01 X22.6067 Y8.1727
G01 X22.6140 Y8.1723
G01 X22.6213 Y8.1712
G01 X22.6284 Y8.1694
G01 X22.6354 Y8.1669
G01 X22.6420 Y8.1638
