(Exported by FreeCAD)
(Post Processor: grbl_post)
(Output Time:2021-02-26 23:53:12.953234)
(begin preamble)
G17 G90
G21
(begin operation: T2: Flute)
(Path: T2: Flute)
(T2: Flute)
(begin toolchange)
; M6 T2
M3 S12000.0000
(finish operation: T2: Flute)
(begin operation: Pocket_Shape)
(Path: Pocket_Shape)
(Pocket_Shape)
G0 Z5.0000
G0 X189.3771 Y10.6908
G0 Z3.0000
G1 X189.3771 Y10.6908 Z-0.5000 F9000.00
G1 X191.0000 Y12.3137 Z-0.5000 F9000.00
G1 X191.0000 Y15.1421 Z-0.5000 F9000.00
G1 X189.5000 Y13.6421 Z-0.5000 F9000.00
G1 X189.5000 Y16.4706 Z-0.5000 F9000.00
G1 X191.0000 Y17.9706 Z-0.5000 F9000.00
G1 X191.0000 Y20.7990 Z-0.5000 F9000.00
G1 X189.5000 Y19.2990 Z-0.5000 F9000.00
G1 X189.5000 Y22.1274 Z-0.5000 F9000.00
G1 X191.0000 Y23.6274 Z-0.5000 F9000.00
G1 X191.0000 Y26.4558 Z-0.5000 F9000.00
G1 X189.5000 Y24.9558 Z-0.5000 F9000.00
G1 X189.5000 Y27.7843 Z-0.5000 F9000.00
G1 X191.0000 Y29.2843 Z-0.5000 F9000.00
G1 X191.0000 Y32.1127 Z-0.5000 F9000.00
G1 X189.5000 Y30.6127 Z-0.5000 F9000.00
G1 X189.5000 Y33.4411 Z-0.5000 F9000.00
G1 X191.0000 Y34.9411 Z-0.5000 F9000.00
G1 X191.0000 Y37.7696 Z-0.5000 F9000.00
G1 X189.5000 Y36.2696 Z-0.5000 F9000.00
G1 X189.5000 Y39.0980 Z-0.5000 F9000.00
G1 X191.0000 Y40.5980 Z-0.5000 F9000.00
G1 X191.0000 Y43.4264 Z-0.5000 F9000.00
G1 X189.5000 Y41.9264 Z-0.5000 F9000.00
G1 X189.5000 Y44.7548 Z-0.5000 F9000.00
G1 X191.0000 Y46.2548 Z-0.5000 F9000.00
G1 X191.0000 Y49.0833 Z-0.5000 F9000.00
G1 X189.5000 Y47.5833 Z-0.5000 F9000.00
G1 X189.5000 Y50.4117 Z-0.5000 F9000.00
G1 X191.0000 Y51.9117 Z-0.5000 F9000.00
G1 X191.0000 Y54.7401 Z-0.5000 F9000.00
G1 X189.5000 Y53.2401 Z-0.5000 F9000.00
G1 X189.5000 Y56.0685 Z-0.5000 F9000.00
G1 X191.0000 Y57.5685 Z-0.5000 F9000.00
G1 X191.0000 Y60.3970 Z-0.5000 F9000.00
G1 X189.5000 Y58.8970 Z-0.5000 F9000.00
G1 X189.5000 Y61.7254 Z-0.5000 F9000.00
G1 X191.0000 Y63.2254 Z-0.5000 F9000.00
G1 X191.0000 Y66.0538 Z-0.5000 F9000.00
G1 X189.5000 Y64.5538 Z-0.5000 F9000.00
G1 X189.5000 Y67.3823 Z-0.5000 F9000.00
G1 X191.0000 Y68.8823 Z-0.5000 F9000.00
G1 X191.0000 Y71.7107 Z-0.5000 F9000.00
G1 X189.5000 Y70.2107 Z-0.5000 F9000.00
G1 X189.5000 Y73.0391 Z-0.5000 F9000.00
G1 X191.0000 Y74.5391 Z-0.5000 F9000.00
G1 X191.0000 Y77.3675 Z-0.5000 F9000.00
G1 X189.5000 Y75.8675 Z-0.5000 F9000.00
G1 X189.5000 Y78.6960 Z-0.5000 F9000.00
G1 X191.0000 Y80.1960 Z-0.5000 F9000.00
G1 X191.0000 Y83.0244 Z-0.5000 F9000.00
G1 X189.5000 Y81.5244 Z-0.5000 F9000.00
G3 X189.4992 Y84.0393 Z-0.5000 I-48.0805 J1.2427 F9000.00
G3 X189.4837 Y84.3365 Z-0.5000 I-22.7151 J-1.0348 F9000.00
G1 X191.0000 Y85.8528 Z-0.5000 F9000.00
G1 X191.0000 Y88.6812 Z-0.5000 F9000.00
G1 X188.9963 Y86.6775 Z-0.5000 F9000.00
G3 X187.9930 Y88.5027 Z-0.5000 I-6.4877 J-2.3777 F9000.00
G1 X191.0000 Y91.5097 Z-0.5000 F9000.00
G1 X191.0000 Y94.3381 Z-0.5000 F9000.00
G1 X186.5868 Y89.9249 Z-0.5000 F9000.00
G3 X184.7875 Y90.9540 Z-0.5000 I-4.2286 J-5.3059 F9000.00
G1 X188.8335 Y95.0000 Z-0.5000 F9000.00
G1 X186.0051 Y95.0000 Z-0.5000 F9000.00
G1 X182.4812 Y91.4762 Z-0.5000 F9000.00
G3 X182.0000 Y91.5000 Z-0.5000 I-0.5500 J-6.2310 F9000.00
G1 X179.6766 Y91.5000 Z-0.5000 F9000.00
G1 X183.1766 Y95.0000 Z-0.5000 F9000.00
G1 X180.3482 Y95.0000 Z-0.5000 F9000.00
G1 X176.8482 Y91.5000 Z-0.5000 F9000.00
G1 X174.0198 Y91.5000 Z-0.5000 F9000.00
G1 X177.5198 Y95.0000 Z-0.5000 F9000.00
G1 X174.6913 Y95.0000 Z-0.5000 F9000.00
G1 X171.1913 Y91.5000 Z-0.5000 F9000.00
G1 X168.3629 Y91.5000 Z-0.5000 F9000.00
G1 X171.8629 Y95.0000 Z-0.5000 F9000.00
G1 X169.0345 Y95.0000 Z-0.5000 F9000.00
G1 X165.5345 Y91.5000 Z-0.5000 F9000.00
G1 X162.7061 Y91.5000 Z-0.5000 F9000.00
G1 X166.2061 Y95.0000 Z-0.5000 F9000.00
G1 X163.3776 Y95.0000 Z-0.5000 F9000.00
G1 X159.8776 Y91.5000 Z-0.5000 F9000.00
G1 X157.0492 Y91.5000 Z-0.5000 F9000.00
G1 X160.5492 Y95.0000 Z-0.5000 F9000.00
G1 X157.7208 Y95.0000 Z-0.5000 F9000.00
G1 X154.2208 Y91.5000 Z-0.5000 F9000.00
G1 X151.3924 Y91.5000 Z-0.5000 F9000.00
G1 X154.8924 Y95.0000 Z-0.5000 F9000.00
G1 X152.0639 Y95.0000 Z-0.5000 F9000.00
G1 X148.5639 Y91.5000 Z-0.5000 F9000.00
G1 X145.7355 Y91.5000 Z-0.5000 F9000.00
G1 X149.2355 Y95.0000 Z-0.5000 F9000.00
G1 X146.4071 Y95.0000 Z-0.5000 F9000.00
G1 X142.9071 Y91.5000 Z-0.5000 F9000.00
G1 X140.0786 Y91.5000 Z-0.5000 F9000.00
G1 X143.5786 Y95.0000 Z-0.5000 F9000.00
G1 X140.7502 Y95.0000 Z-0.5000 F9000.00
G1 X137.2502 Y91.5000 Z-0.5000 F9000.00
G1 X134.4218 Y91.5000 Z-0.5000 F9000.00
G1 X137.9218 Y95.0000 Z-0.5000 F9000.00
G1 X135.0934 Y95.0000 Z-0.5000 F9000.00
G1 X131.5934 Y91.5000 Z-0.5000 F9000.00
G1 X128.7649 Y91.5000 Z-0.5000 F9000.00
G1 X132.2649 Y95.0000 Z-0.5000 F9000.00
G1 X129.4365 Y95.0000 Z-0.5000 F9000.00
G1 X125.9365 Y91.5000 Z-0.5000 F9000.00
G1 X123.1081 Y91.5000 Z-0.5000 F9000.00
G1 X126.6081 Y95.0000 Z-0.5000 F9000.00
G1 X123.7797 Y95.0000 Z-0.5000 F9000.00
G1 X120.2797 Y91.5000 Z-0.5000 F9000.00
G1 X117.4512 Y91.5000 Z-0.5000 F9000.00
G1 X120.9512 Y95.0000 Z-0.5000 F9000.00
G1 X118.1228 Y95.0000 Z-0.5000 F9000.00
G1 X114.6228 Y91.5000 Z-0.5000 F9000.00
G1 X111.7944 Y91.5000 Z-0.5000 F9000.00
G1 X115.2944 Y95.0000 Z-0.5000 F9000.00
G1 X112.4659 Y95.0000 Z-0.5000 F9000.00
G1 X108.9659 Y91.5000 Z-0.5000 F9000.00
G1 X106.1375 Y91.5000 Z-0.5000 F9000.00
G1 X109.6375 Y95.0000 Z-0.5000 F9000.00
G1 X106.8091 Y95.0000 Z-0.5000 F9000.00
G1 X103.3091 Y91.5000 Z-0.5000 F9000.00
G1 X100.4807 Y91.5000 Z-0.5000 F9000.00
G1 X103.9807 Y95.0000 Z-0.5000 F9000.00
G1 X101.1522 Y95.0000 Z-0.5000 F9000.00
G1 X97.6522 Y91.5000 Z-0.5000 F9000.00
G1 X94.8238 Y91.5000 Z-0.5000 F9000.00
G1 X98.3238 Y95.0000 Z-0.5000 F9000.00
G1 X95.4954 Y95.0000 Z-0.5000 F9000.00
G1 X91.9954 Y91.5000 Z-0.5000 F9000.00
G1 X89.1670 Y91.5000 Z-0.5000 F9000.00
G1 X92.6670 Y95.0000 Z-0.5000 F9000.00
G1 X89.8385 Y95.0000 Z-0.5000 F9000.00
G1 X86.3385 Y91.5000 Z-0.5000 F9000.00
G1 X83.5101 Y91.5000 Z-0.5000 F9000.00
G1 X87.0101 Y95.0000 Z-0.5000 F9000.00
G1 X84.1817 Y95.0000 Z-0.5000 F9000.00
G1 X80.6817 Y91.5000 Z-0.5000 F9000.00
G1 X77.8532 Y91.5000 Z-0.5000 F9000.00
G1 X81.3532 Y95.0000 Z-0.5000 F9000.00
G1 X78.5248 Y95.0000 Z-0.5000 F9000.00
G1 X75.0248 Y91.5000 Z-0.5000 F9000.00
G1 X72.1964 Y91.5000 Z-0.5000 F9000.00
G1 X75.6964 Y95.0000 Z-0.5000 F9000.00
G1 X72.8680 Y95.0000 Z-0.5000 F9000.00
G1 X69.3680 Y91.5000 Z-0.5000 F9000.00
G1 X66.5395 Y91.5000 Z-0.5000 F9000.00
G1 X70.0395 Y95.0000 Z-0.5000 F9000.00
G1 X67.2111 Y95.0000 Z-0.5000 F9000.00
G1 X63.7111 Y91.5000 Z-0.5000 F9000.00
G1 X60.8827 Y91.5000 Z-0.5000 F9000.00
G1 X64.3827 Y95.0000 Z-0.5000 F9000.00
G1 X61.5543 Y95.0000 Z-0.5000 F9000.00
G1 X58.0543 Y91.5000 Z-0.5000 F9000.00
G1 X55.2258 Y91.5000 Z-0.5000 F9000.00
G1 X58.7258 Y95.0000 Z-0.5000 F9000.00
G1 X55.8974 Y95.0000 Z-0.5000 F9000.00
G1 X52.3974 Y91.5000 Z-0.5000 F9000.00
G1 X49.5690 Y91.5000 Z-0.5000 F9000.00
G1 X53.0690 Y95.0000 Z-0.5000 F9000.00
G1 X50.2405 Y95.0000 Z-0.5000 F9000.00
G1 X46.7405 Y91.5000 Z-0.5000 F9000.00
G1 X43.9121 Y91.5000 Z-0.5000 F9000.00
G1 X47.4121 Y95.0000 Z-0.5000 F9000.00
G1 X44.5837 Y95.0000 Z-0.5000 F9000.00
G1 X41.0837 Y91.5000 Z-0.5000 F9000.00
G1 X38.2553 Y91.5000 Z-0.5000 F9000.00
G1 X41.7553 Y95.0000 Z-0.5000 F9000.00
G1 X38.9268 Y95.0000 Z-0.5000 F9000.00
G1 X35.4268 Y91.5000 Z-0.5000 F9000.00
G1 X32.5984 Y91.5000 Z-0.5000 F9000.00
G1 X36.0984 Y95.0000 Z-0.5000 F9000.00
G1 X33.2700 Y95.0000 Z-0.5000 F9000.00
G1 X29.7700 Y91.5000 Z-0.5000 F9000.00
G1 X26.9416 Y91.5000 Z-0.5000 F9000.00
G1 X30.4416 Y95.0000 Z-0.5000 F9000.00
G1 X27.6131 Y95.0000 Z-0.5000 F9000.00
G1 X24.1131 Y91.5000 Z-0.5000 F9000.00
G1 X21.2847 Y91.5000 Z-0.5000 F9000.00
G1 X24.7847 Y95.0000 Z-0.5000 F9000.00
G1 X21.9563 Y95.0000 Z-0.5000 F9000.00
G1 X18.4563 Y91.5000 Z-0.5000 F9000.00
G1 X15.6279 Y91.5000 Z-0.5000 F9000.00
G1 X19.1279 Y95.0000 Z-0.5000 F9000.00
G1 X16.2994 Y95.0000 Z-0.5000 F9000.00
G1 X12.7994 Y91.5000 Z-0.5000 F9000.00
G3 X9.9705 Y91.4996 Z-0.5000 I-1.4043 J-63.6239 F9000.00
G1 X13.4710 Y95.0000 Z-0.5000 F9000.00
G1 X10.6426 Y95.0000 Z-0.5000 F9000.00
G1 X5.9345 Y90.2919 Z-0.5000 F9000.00
G3 X3.7081 Y88.0655 Z-0.5000 I3.8215 J-6.0480 F9000.00
G1 X1.0000 Y85.3574 Z-0.5000 F9000.00
G1 X1.0000 Y88.1859 Z-0.5000 F9000.00
G1 X7.8141 Y95.0000 Z-0.5000 F9000.00
G1 X4.9857 Y95.0000 Z-0.5000 F9000.00
G1 X1.0000 Y91.0143 Z-0.5000 F9000.00
G1 X1.0000 Y93.8427 Z-0.5000 F9000.00
G1 X1.0000 Y95.0000 Z-0.5000 F9000.00
G1 X2.1573 Y95.0000 Z-0.5000 F9000.00
G1 X1.0000 Y93.8427 Z-0.5000 F9000.00
G0 X1.0000 Y93.8427 Z5.0000
G0 X1.0000 Y85.3574 Z5.0000
G0 X1.0000 Y85.3574 Z2.5000
G1 X1.0000 Y85.3574 Z-0.5000 F9000.00
G1 X3.7081 Y88.0655 Z-0.5000 F9000.00
G3 X2.5004 Y84.0295 Z-0.5000 I6.1775 J-4.0470 F9000.00
G1 X1.0000 Y82.5290 Z-0.5000 F9000.00
G1 X1.0000 Y79.7006 Z-0.5000 F9000.00
G1 X2.5000 Y81.2006 Z-0.5000 F9000.00
G1 X2.5000 Y78.3721 Z-0.5000 F9000.00
G1 X1.0000 Y76.8721 Z-0.5000 F9000.00
G1 X1.0000 Y74.0437 Z-0.5000 F9000.00
G1 X2.5000 Y75.5437 Z-0.5000 F9000.00
G1 X2.5000 Y72.7153 Z-0.5000 F9000.00
G1 X1.0000 Y71.2153 Z-0.5000 F9000.00
G1 X1.0000 Y68.3869 Z-0.5000 F9000.00
G1 X2.5000 Y69.8869 Z-0.5000 F9000.00
G1 X2.5000 Y67.0584 Z-0.5000 F9000.00
G1 X1.0000 Y65.5584 Z-0.5000 F9000.00
G1 X1.0000 Y62.7300 Z-0.5000 F9000.00
G1 X2.5000 Y64.2300 Z-0.5000 F9000.00
G1 X2.5000 Y61.4016 Z-0.5000 F9000.00
G1 X1.0000 Y59.9016 Z-0.5000 F9000.00
G1 X1.0000 Y57.0732 Z-0.5000 F9000.00
G1 X2.5000 Y58.5732 Z-0.5000 F9000.00
G1 X2.5000 Y55.7447 Z-0.5000 F9000.00
G1 X1.0000 Y54.2447 Z-0.5000 F9000.00
G1 X1.0000 Y51.4163 Z-0.5000 F9000.00
G1 X2.5000 Y52.9163 Z-0.5000 F9000.00
G1 X2.5000 Y50.0879 Z-0.5000 F9000.00
G1 X1.0000 Y48.5879 Z-0.5000 F9000.00
G1 X1.0000 Y45.7595 Z-0.5000 F9000.00
G1 X2.5000 Y47.2595 Z-0.5000 F9000.00
G1 X2.5000 Y44.4310 Z-0.5000 F9000.00
G1 X1.0000 Y42.9310 Z-0.5000 F9000.00
G1 X1.0000 Y40.1026 Z-0.5000 F9000.00
G1 X2.5000 Y41.6026 Z-0.5000 F9000.00
G1 X2.5000 Y38.7742 Z-0.5000 F9000.00
G1 X1.0000 Y37.2742 Z-0.5000 F9000.00
G1 X1.0000 Y34.4457 Z-0.5000 F9000.00
G1 X2.5000 Y35.9457 Z-0.5000 F9000.00
G1 X2.5000 Y33.1173 Z-0.5000 F9000.00
G1 X1.0000 Y31.6173 Z-0.5000 F9000.00
G1 X1.0000 Y28.7889 Z-0.5000 F9000.00
G1 X2.5000 Y30.2889 Z-0.5000 F9000.00
G1 X2.5000 Y27.4605 Z-0.5000 F9000.00
G1 X1.0000 Y25.9605 Z-0.5000 F9000.00
G1 X1.0000 Y23.1320 Z-0.5000 F9000.00
G1 X2.5000 Y24.6320 Z-0.5000 F9000.00
G1 X2.5000 Y21.8036 Z-0.5000 F9000.00
G1 X1.0000 Y20.3036 Z-0.5000 F9000.00
G1 X1.0000 Y17.4752 Z-0.5000 F9000.00
G1 X2.5000 Y18.9752 Z-0.5000 F9000.00
G1 X2.5000 Y16.1468 Z-0.5000 F9000.00
G1 X1.0000 Y14.6468 Z-0.5000 F9000.00
G1 X1.0000 Y11.8183 Z-0.5000 F9000.00
G1 X2.5000 Y13.3183 Z-0.5000 F9000.00
G3 X2.6336 Y10.6235 Z-0.5000 I13.7033 J-0.6716 F9000.00
G1 X1.0000 Y8.9899 Z-0.5000 F9000.00
G1 X1.0000 Y6.1615 Z-0.5000 F9000.00
G1 X3.3633 Y8.5248 Z-0.5000 F9000.00
G3 X4.5365 Y6.8695 Z-0.5000 I6.0991 J3.0796 F9000.00
G1 X1.0000 Y3.3330 Z-0.5000 F9000.00
G1 X1.0000 Y1.0000 Z-0.5000 F9000.00
G1 X1.4954 Y1.0000 Z-0.5000 F9000.00
G1 X6.0976 Y5.6022 Z-0.5000 F9000.00
G3 X8.0823 Y4.7585 Z-0.5000 I3.6413 J5.8098 F9000.00
G1 X4.3238 Y1.0000 Z-0.5000 F9000.00
G1 X7.1522 Y1.0000 Z-0.5000 F9000.00
G1 X10.6522 Y4.5000 Z-0.5000 F9000.00
G1 X13.4807 Y4.5000 Z-0.5000 F9000.00
G1 X9.9807 Y1.0000 Z-0.5000 F9000.00
G1 X12.8091 Y1.0000 Z-0.5000 F9000.00
G1 X16.3091 Y4.5000 Z-0.5000 F9000.00
G1 X19.1375 Y4.5000 Z-0.5000 F9000.00
G1 X15.6375 Y1.0000 Z-0.5000 F9000.00
G1 X18.4659 Y1.0000 Z-0.5000 F9000.00
G1 X21.9659 Y4.5000 Z-0.5000 F9000.00
G1 X24.7944 Y4.5000 Z-0.5000 F9000.00
G1 X21.2944 Y1.0000 Z-0.5000 F9000.00
G1 X24.1228 Y1.0000 Z-0.5000 F9000.00
G1 X27.6228 Y4.5000 Z-0.5000 F9000.00
G1 X30.4512 Y4.5000 Z-0.5000 F9000.00
G1 X26.9512 Y1.0000 Z-0.5000 F9000.00
G1 X29.7797 Y1.0000 Z-0.5000 F9000.00
G1 X33.2797 Y4.5000 Z-0.5000 F9000.00
G1 X36.1081 Y4.5000 Z-0.5000 F9000.00
G1 X32.6081 Y1.0000 Z-0.5000 F9000.00
G1 X35.4365 Y1.0000 Z-0.5000 F9000.00
G1 X38.9365 Y4.5000 Z-0.5000 F9000.00
G1 X41.7649 Y4.5000 Z-0.5000 F9000.00
G1 X38.2649 Y1.0000 Z-0.5000 F9000.00
G1 X41.0934 Y1.0000 Z-0.5000 F9000.00
G1 X44.5934 Y4.5000 Z-0.5000 F9000.00
G1 X47.4218 Y4.5000 Z-0.5000 F9000.00
G1 X43.9218 Y1.0000 Z-0.5000 F9000.00
G1 X46.7502 Y1.0000 Z-0.5000 F9000.00
G1 X50.2502 Y4.5000 Z-0.5000 F9000.00
G1 X53.0786 Y4.5000 Z-0.5000 F9000.00
G1 X49.5786 Y1.0000 Z-0.5000 F9000.00
G1 X52.4071 Y1.0000 Z-0.5000 F9000.00
G1 X55.9071 Y4.5000 Z-0.5000 F9000.00
G1 X58.7355 Y4.5000 Z-0.5000 F9000.00
G1 X55.2355 Y1.0000 Z-0.5000 F9000.00
G1 X58.0639 Y1.0000 Z-0.5000 F9000.00
G1 X61.5639 Y4.5000 Z-0.5000 F9000.00
G1 X64.3924 Y4.5000 Z-0.5000 F9000.00
G1 X60.8924 Y1.0000 Z-0.5000 F9000.00
G1 X63.7208 Y1.0000 Z-0.5000 F9000.00
G1 X67.2208 Y4.5000 Z-0.5000 F9000.00
G1 X70.0492 Y4.5000 Z-0.5000 F9000.00
G1 X66.5492 Y1.0000 Z-0.5000 F9000.00
G1 X69.3776 Y1.0000 Z-0.5000 F9000.00
G1 X72.8776 Y4.5000 Z-0.5000 F9000.00
G1 X75.7061 Y4.5000 Z-0.5000 F9000.00
G1 X72.2061 Y1.0000 Z-0.5000 F9000.00
G1 X75.0345 Y1.0000 Z-0.5000 F9000.00
G1 X78.5345 Y4.5000 Z-0.5000 F9000.00
G1 X81.3629 Y4.5000 Z-0.5000 F9000.00
G1 X77.8629 Y1.0000 Z-0.5000 F9000.00
G1 X80.6913 Y1.0000 Z-0.5000 F9000.00
G1 X84.1913 Y4.5000 Z-0.5000 F9000.00
G1 X87.0198 Y4.5000 Z-0.5000 F9000.00
G1 X83.5198 Y1.0000 Z-0.5000 F9000.00
G1 X86.3482 Y1.0000 Z-0.5000 F9000.00
G1 X89.8482 Y4.5000 Z-0.5000 F9000.00
G1 X92.6766 Y4.5000 Z-0.5000 F9000.00
G1 X89.1766 Y1.0000 Z-0.5000 F9000.00
G1 X92.0051 Y1.0000 Z-0.5000 F9000.00
G1 X95.5051 Y4.5000 Z-0.5000 F9000.00
G1 X98.3335 Y4.5000 Z-0.5000 F9000.00
G1 X94.8335 Y1.0000 Z-0.5000 F9000.00
G1 X97.6619 Y1.0000 Z-0.5000 F9000.00
G1 X101.1619 Y4.5000 Z-0.5000 F9000.00
G1 X103.9903 Y4.5000 Z-0.5000 F9000.00
G1 X100.4903 Y1.0000 Z-0.5000 F9000.00
G1 X103.3188 Y1.0000 Z-0.5000 F9000.00
G1 X106.8188 Y4.5000 Z-0.5000 F9000.00
G1 X109.6472 Y4.5000 Z-0.5000 F9000.00
G1 X106.1472 Y1.0000 Z-0.5000 F9000.00
G1 X108.9756 Y1.0000 Z-0.5000 F9000.00
G1 X112.4756 Y4.5000 Z-0.5000 F9000.00
G1 X115.3040 Y4.5000 Z-0.5000 F9000.00
G1 X111.8040 Y1.0000 Z-0.5000 F9000.00
G1 X114.6325 Y1.0000 Z-0.5000 F9000.00
G1 X118.1325 Y4.5000 Z-0.5000 F9000.00
G1 X120.9609 Y4.5000 Z-0.5000 F9000.00
G1 X117.4609 Y1.0000 Z-0.5000 F9000.00
G1 X120.2893 Y1.0000 Z-0.5000 F9000.00
G1 X123.7893 Y4.5000 Z-0.5000 F9000.00
G1 X126.6177 Y4.5000 Z-0.5000 F9000.00
G1 X123.1177 Y1.0000 Z-0.5000 F9000.00
G1 X125.9462 Y1.0000 Z-0.5000 F9000.00
G1 X129.4462 Y4.5000 Z-0.5000 F9000.00
G1 X132.2746 Y4.5000 Z-0.5000 F9000.00
G1 X128.7746 Y1.0000 Z-0.5000 F9000.00
G1 X131.6030 Y1.0000 Z-0.5000 F9000.00
G1 X135.1030 Y4.5000 Z-0.5000 F9000.00
G1 X137.9315 Y4.5000 Z-0.5000 F9000.00
G1 X134.4315 Y1.0000 Z-0.5000 F9000.00
G1 X137.2599 Y1.0000 Z-0.5000 F9000.00
G1 X140.7599 Y4.5000 Z-0.5000 F9000.00
G1 X143.5883 Y4.5000 Z-0.5000 F9000.00
G1 X140.0883 Y1.0000 Z-0.5000 F9000.00
G1 X142.9167 Y1.0000 Z-0.5000 F9000.00
G1 X146.4167 Y4.5000 Z-0.5000 F9000.00
G1 X149.2452 Y4.5000 Z-0.5000 F9000.00
G1 X145.7452 Y1.0000 Z-0.5000 F9000.00
G1 X148.5736 Y1.0000 Z-0.5000 F9000.00
G1 X152.0736 Y4.5000 Z-0.5000 F9000.00
G1 X154.9020 Y4.5000 Z-0.5000 F9000.00
G1 X151.4020 Y1.0000 Z-0.5000 F9000.00
G1 X154.2304 Y1.0000 Z-0.5000 F9000.00
G1 X157.7304 Y4.5000 Z-0.5000 F9000.00
G1 X160.5589 Y4.5000 Z-0.5000 F9000.00
G1 X157.0589 Y1.0000 Z-0.5000 F9000.00
G1 X159.8873 Y1.0000 Z-0.5000 F9000.00
G1 X163.3873 Y4.5000 Z-0.5000 F9000.00
G1 X166.2157 Y4.5000 Z-0.5000 F9000.00
G1 X162.7157 Y1.0000 Z-0.5000 F9000.00
G1 X165.5442 Y1.0000 Z-0.5000 F9000.00
G1 X169.0442 Y4.5000 Z-0.5000 F9000.00
G1 X171.8726 Y4.5000 Z-0.5000 F9000.00
G1 X168.3726 Y1.0000 Z-0.5000 F9000.00
G1 X171.2010 Y1.0000 Z-0.5000 F9000.00
G1 X174.7010 Y4.5000 Z-0.5000 F9000.00
G1 X177.5294 Y4.5000 Z-0.5000 F9000.00
G1 X174.0294 Y1.0000 Z-0.5000 F9000.00
G1 X176.8579 Y1.0000 Z-0.5000 F9000.00
G1 X180.3579 Y4.5000 Z-0.5000 F9000.00
G3 X183.3092 Y4.6229 Z-0.5000 I0.8347 J15.4545 F9000.00
G1 X179.6863 Y1.0000 Z-0.5000 F9000.00
G1 X182.5147 Y1.0000 Z-0.5000 F9000.00
G1 X191.0000 Y9.4853 Z-0.5000 F9000.00
G1 X191.0000 Y6.6569 Z-0.5000 F9000.00
G1 X185.3431 Y1.0000 Z-0.5000 F9000.00
G1 X188.1716 Y1.0000 Z-0.5000 F9000.00
G1 X191.0000 Y3.8284 Z-0.5000 F9000.00
G1 X191.0000 Y1.0000 Z-0.5000 F9000.00
G1 X191.0000 Y1.0000 Z-1.0000 F9000.00
G1 X191.0000 Y3.8284 Z-1.0000 F9000.00
G1 X188.1716 Y1.0000 Z-1.0000 F9000.00
G1 X185.3431 Y1.0000 Z-1.0000 F9000.00
G1 X191.0000 Y6.6569 Z-1.0000 F9000.00
G1 X191.0000 Y9.4853 Z-1.0000 F9000.00
G1 X182.5147 Y1.0000 Z-1.0000 F9000.00
G1 X179.6863 Y1.0000 Z-1.0000 F9000.00
G1 X183.3092 Y4.6229 Z-1.0000 F9000.00
G2 X180.3579 Y4.5000 Z-1.0000 I-2.1166 J15.3316 F9000.00
G1 X176.8579 Y1.0000 Z-1.0000 F9000.00
G1 X174.0294 Y1.0000 Z-1.0000 F9000.00
G1 X177.5294 Y4.5000 Z-1.0000 F9000.00
G1 X174.7010 Y4.5000 Z-1.0000 F9000.00
G1 X171.2010 Y1.0000 Z-1.0000 F9000.00
G1 X168.3726 Y1.0000 Z-1.0000 F9000.00
G1 X171.8726 Y4.5000 Z-1.0000 F9000.00
G1 X169.0442 Y4.5000 Z-1.0000 F9000.00
G1 X165.5442 Y1.0000 Z-1.0000 F9000.00
G1 X162.7157 Y1.0000 Z-1.0000 F9000.00
G1 X166.2157 Y4.5000 Z-1.0000 F9000.00
G1 X163.3873 Y4.5000 Z-1.0000 F9000.00
G1 X159.8873 Y1.0000 Z-1.0000 F9000.00
G1 X157.0589 Y1.0000 Z-1.0000 F9000.00
G1 X160.5589 Y4.5000 Z-1.0000 F9000.00
G1 X157.7304 Y4.5000 Z-1.0000 F9000.00
G1 X154.2304 Y1.0000 Z-1.0000 F9000.00
G1 X151.4020 Y1.0000 Z-1.0000 F9000.00
G1 X154.9020 Y4.5000 Z-1.0000 F9000.00
G1 X152.0736 Y4.5000 Z-1.0000 F9000.00
G1 X148.5736 Y1.0000 Z-1.0000 F9000.00
G1 X145.7452 Y1.0000 Z-1.0000 F9000.00
G1 X149.2452 Y4.5000 Z-1.0000 F9000.00
G1 X146.4167 Y4.5000 Z-1.0000 F9000.00
G1 X142.9167 Y1.0000 Z-1.0000 F9000.00
G1 X140.0883 Y1.0000 Z-1.0000 F9000.00
G1 X143.5883 Y4.5000 Z-1.0000 F9000.00
G1 X140.7599 Y4.5000 Z-1.0000 F9000.00
G1 X137.2599 Y1.0000 Z-1.0000 F9000.00
G1 X134.4315 Y1.0000 Z-1.0000 F9000.00
G1 X137.9315 Y4.5000 Z-1.0000 F9000.00
G1 X135.1030 Y4.5000 Z-1.0000 F9000.00
G1 X131.6030 Y1.0000 Z-1.0000 F9000.00
G1 X128.7746 Y1.0000 Z-1.0000 F9000.00
G1 X132.2746 Y4.5000 Z-1.0000 F9000.00
G1 X129.4462 Y4.5000 Z-1.0000 F9000.00
G1 X125.9462 Y1.0000 Z-1.0000 F9000.00
G1 X123.1177 Y1.0000 Z-1.0000 F9000.00
G1 X126.6177 Y4.5000 Z-1.0000 F9000.00
G1 X123.7893 Y4.5000 Z-1.0000 F9000.00
G1 X120.2893 Y1.0000 Z-1.0000 F9000.00
G1 X117.4609 Y1.0000 Z-1.0000 F9000.00
G1 X120.9609 Y4.5000 Z-1.0000 F9000.00
G1 X118.1325 Y4.5000 Z-1.0000 F9000.00
G1 X114.6325 Y1.0000 Z-1.0000 F9000.00
G1 X111.8040 Y1.0000 Z-1.0000 F9000.00
G1 X115.3040 Y4.5000 Z-1.0000 F9000.00
G1 X112.4756 Y4.5000 Z-1.0000 F9000.00
G1 X108.9756 Y1.0000 Z-1.0000 F9000.00
G1 X106.1472 Y1.0000 Z-1.0000 F9000.00
G1 X109.6472 Y4.5000 Z-1.0000 F9000.00
G1 X106.8188 Y4.5000 Z-1.0000 F9000.00
G1 X103.3188 Y1.0000 Z-1.0000 F9000.00
G1 X100.4903 Y1.0000 Z-1.0000 F9000.00
G1 X103.9903 Y4.5000 Z-1.0000 F9000.00
G1 X101.1619 Y4.5000 Z-1.0000 F9000.00
G1 X97.6619 Y1.0000 Z-1.0000 F9000.00
G1 X94.8335 Y1.0000 Z-1.0000 F9000.00
G1 X98.3335 Y4.5000 Z-1.0000 F9000.00
G1 X95.5051 Y4.5000 Z-1.0000 F9000.00
G1 X92.0051 Y1.0000 Z-1.0000 F9000.00
G1 X89.1766 Y1.0000 Z-1.0000 F9000.00
G1 X92.6766 Y4.5000 Z-1.0000 F9000.00
G1 X89.8482 Y4.5000 Z-1.0000 F9000.00
G1 X86.3482 Y1.0000 Z-1.0000 F9000.00
G1 X83.5198 Y1.0000 Z-1.0000 F9000.00
G1 X87.0198 Y4.5000 Z-1.0000 F9000.00
G1 X84.1913 Y4.5000 Z-1.0000 F9000.00
G1 X80.6913 Y1.0000 Z-1.0000 F9000.00
G1 X77.8629 Y1.0000 Z-1.0000 F9000.00
G1 X81.3629 Y4.5000 Z-1.0000 F9000.00
G1 X78.5345 Y4.5000 Z-1.0000 F9000.00
G1 X75.0345 Y1.0000 Z-1.0000 F9000.00
G1 X72.2061 Y1.0000 Z-1.0000 F9000.00
G1 X75.7061 Y4.5000 Z-1.0000 F9000.00
G1 X72.8776 Y4.5000 Z-1.0000 F9000.00
G1 X69.3776 Y1.0000 Z-1.0000 F9000.00
G1 X66.5492 Y1.0000 Z-1.0000 F9000.00
G1 X70.0492 Y4.5000 Z-1.0000 F9000.00
G1 X67.2208 Y4.5000 Z-1.0000 F9000.00
G1 X63.7208 Y1.0000 Z-1.0000 F9000.00
G1 X60.8924 Y1.0000 Z-1.0000 F9000.00
G1 X64.3924 Y4.5000 Z-1.0000 F9000.00
G1 X61.5639 Y4.5000 Z-1.0000 F9000.00
G1 X58.0639 Y1.0000 Z-1.0000 F9000.00
G1 X55.2355 Y1.0000 Z-1.0000 F9000.00
G1 X58.7355 Y4.5000 Z-1.0000 F9000.00
G1 X55.9071 Y4.5000 Z-1.0000 F9000.00
G1 X52.4071 Y1.0000 Z-1.0000 F9000.00
G1 X49.5786 Y1.0000 Z-1.0000 F9000.00
G1 X53.0786 Y4.5000 Z-1.0000 F9000.00
G1 X50.2502 Y4.5000 Z-1.0000 F9000.00
G1 X46.7502 Y1.0000 Z-1.0000 F9000.00
G1 X43.9218 Y1.0000 Z-1.0000 F9000.00
G1 X47.4218 Y4.5000 Z-1.0000 F9000.00
G1 X44.5934 Y4.5000 Z-1.0000 F9000.00
G1 X41.0934 Y1.0000 Z-1.0000 F9000.00
G1 X38.2649 Y1.0000 Z-1.0000 F9000.00
G1 X41.7649 Y4.5000 Z-1.0000 F9000.00
G1 X38.9365 Y4.5000 Z-1.0000 F9000.00
G1 X35.4365 Y1.0000 Z-1.0000 F9000.00
G1 X32.6081 Y1.0000 Z-1.0000 F9000.00
G1 X36.1081 Y4.5000 Z-1.0000 F9000.00
G1 X33.2797 Y4.5000 Z-1.0000 F9000.00
G1 X29.7797 Y1.0000 Z-1.0000 F9000.00
G1 X26.9512 Y1.0000 Z-1.0000 F9000.00
G1 X30.4512 Y4.5000 Z-1.0000 F9000.00
G1 X27.6228 Y4.5000 Z-1.0000 F9000.00
G1 X24.1228 Y1.0000 Z-1.0000 F9000.00
G1 X21.2944 Y1.0000 Z-1.0000 F9000.00
G1 X24.7944 Y4.5000 Z-1.0000 F9000.00
G1 X21.9659 Y4.5000 Z-1.0000 F9000.00
G1 X18.4659 Y1.0000 Z-1.0000 F9000.00
G1 X15.6375 Y1.0000 Z-1.0000 F9000.00
G1 X19.1375 Y4.5000 Z-1.0000 F9000.00
G1 X16.3091 Y4.5000 Z-1.0000 F9000.00
G1 X12.8091 Y1.0000 Z-1.0000 F9000.00
G1 X9.9807 Y1.0000 Z-1.0000 F9000.00
G1 X13.4807 Y4.5000 Z-1.0000 F9000.00
G1 X10.6522 Y4.5000 Z-1.0000 F9000.00
G1 X7.1522 Y1.0000 Z-1.0000 F9000.00
G1 X4.3238 Y1.0000 Z-1.0000 F9000.00
G1 X8.0823 Y4.7585 Z-1.0000 F9000.00
G2 X6.0976 Y5.6022 Z-1.0000 I1.6566 J6.6534 F9000.00
G1 X1.4954 Y1.0000 Z-1.0000 F9000.00
G1 X1.0000 Y1.0000 Z-1.0000 F9000.00
G1 X1.0000 Y3.3330 Z-1.0000 F9000.00
G1 X4.5365 Y6.8695 Z-1.0000 F9000.00
G2 X3.3633 Y8.5248 Z-1.0000 I4.9259 J4.7348 F9000.00
G1 X1.0000 Y6.1615 Z-1.0000 F9000.00
G1 X1.0000 Y8.9899 Z-1.0000 F9000.00
G1 X2.6336 Y10.6235 Z-1.0000 F9000.00
G2 X2.5000 Y13.3183 Z-1.0000 I13.5697 J2.0232 F9000.00
G1 X1.0000 Y11.8183 Z-1.0000 F9000.00
G1 X1.0000 Y14.6468 Z-1.0000 F9000.00
G1 X2.5000 Y16.1468 Z-1.0000 F9000.00
G1 X2.5000 Y18.9752 Z-1.0000 F9000.00
G1 X1.0000 Y17.4752 Z-1.0000 F9000.00
G1 X1.0000 Y20.3036 Z-1.0000 F9000.00
G1 X2.5000 Y21.8036 Z-1.0000 F9000.00
G1 X2.5000 Y24.6320 Z-1.0000 F9000.00
G1 X1.0000 Y23.1320 Z-1.0000 F9000.00
G1 X1.0000 Y25.9605 Z-1.0000 F9000.00
G1 X2.5000 Y27.4605 Z-1.0000 F9000.00
G1 X2.5000 Y30.2889 Z-1.0000 F9000.00
G1 X1.0000 Y28.7889 Z-1.0000 F9000.00
G1 X1.0000 Y31.6173 Z-1.0000 F9000.00
G1 X2.5000 Y33.1173 Z-1.0000 F9000.00
G1 X2.5000 Y35.9457 Z-1.0000 F9000.00
G1 X1.0000 Y34.4457 Z-1.0000 F9000.00
G1 X1.0000 Y37.2742 Z-1.0000 F9000.00
G1 X2.5000 Y38.7742 Z-1.0000 F9000.00
G1 X2.5000 Y41.6026 Z-1.0000 F9000.00
G1 X1.0000 Y40.1026 Z-1.0000 F9000.00
G1 X1.0000 Y42.9310 Z-1.0000 F9000.00
G1 X2.5000 Y44.4310 Z-1.0000 F9000.00
G1 X2.5000 Y47.2595 Z-1.0000 F9000.00
G1 X1.0000 Y45.7595 Z-1.0000 F9000.00
G1 X1.0000 Y48.5879 Z-1.0000 F9000.00
G1 X2.5000 Y50.0879 Z-1.0000 F9000.00
G1 X2.5000 Y52.9163 Z-1.0000 F9000.00
G1 X1.0000 Y51.4163 Z-1.0000 F9000.00
G1 X1.0000 Y54.2447 Z-1.0000 F9000.00
G1 X2.5000 Y55.7447 Z-1.0000 F9000.00
G1 X2.5000 Y58.5732 Z-1.0000 F9000.00
G1 X1.0000 Y57.0732 Z-1.0000 F9000.00
G1 X1.0000 Y59.9016 Z-1.0000 F9000.00
G1 X2.5000 Y61.4016 Z-1.0000 F9000.00
G1 X2.5000 Y64.2300 Z-1.0000 F9000.00
G1 X1.0000 Y62.7300 Z-1.0000 F9000.00
G1 X1.0000 Y65.5584 Z-1.0000 F9000.00
G1 X2.5000 Y67.0584 Z-1.0000 F9000.00
G1 X2.5000 Y69.8869 Z-1.0000 F9000.00
G1 X1.0000 Y68.3869 Z-1.0000 F9000.00
G1 X1.0000 Y71.2153 Z-1.0000 F9000.00
G1 X2.5000 Y72.7153 Z-1.0000 F9000.00
G1 X2.5000 Y75.5437 Z-1.0000 F9000.00
G1 X1.0000 Y74.0437 Z-1.0000 F9000.00
G1 X1.0000 Y76.8721 Z-1.0000 F9000.00
G1 X2.5000 Y78.3721 Z-1.0000 F9000.00
G1 X2.5000 Y81.2006 Z-1.0000 F9000.00
G1 X1.0000 Y79.7006 Z-1.0000 F9000.00
G1 X1.0000 Y82.5290 Z-1.0000 F9000.00
G1 X2.5004 Y84.0295 Z-1.0000 F9000.00
G2 X3.7081 Y88.0655 Z-1.0000 I7.3851 J-0.0110 F9000.00
G1 X1.0000 Y85.3574 Z-1.0000 F9000.00
G0 X1.0000 Y85.3574 Z5.0000
G0 X1.0000 Y93.8427 Z5.0000
G0 X1.0000 Y93.8427 Z2.0000
G1 X1.0000 Y93.8427 Z-1.0000 F9000.00
G1 X2.1573 Y95.0000 Z-1.0000 F9000.00
G1 X1.0000 Y95.0000 Z-1.0000 F9000.00
G1 X1.0000 Y93.8427 Z-1.0000 F9000.00
G1 X1.0000 Y91.0143 Z-1.0000 F9000.00
G1 X4.9857 Y95.0000 Z-1.0000 F9000.00
G1 X7.8141 Y95.0000 Z-1.0000 F9000.00
G1 X1.0000 Y88.1859 Z-1.0000 F9000.00
G1 X1.0000 Y85.3574 Z-1.0000 F9000.00
G1 X3.7081 Y88.0655 Z-1.0000 F9000.00
G2 X5.9345 Y90.2919 Z-1.0000 I6.0480 J-3.8215 F9000.00
G1 X10.6426 Y95.0000 Z-1.0000 F9000.00
G1 X13.4710 Y95.0000 Z-1.0000 F9000.00
G1 X9.9705 Y91.4996 Z-1.0000 F9000.00
G2 X12.7994 Y91.5000 Z-1.0000 I1.4246 J-63.6235 F9000.00
G1 X16.2994 Y95.0000 Z-1.0000 F9000.00
G1 X19.1279 Y95.0000 Z-1.0000 F9000.00
G1 X15.6279 Y91.5000 Z-1.0000 F9000.00
G1 X18.4563 Y91.5000 Z-1.0000 F9000.00
G1 X21.9563 Y95.0000 Z-1.0000 F9000.00
G1 X24.7847 Y95.0000 Z-1.0000 F9000.00
G1 X21.2847 Y91.5000 Z-1.0000 F9000.00
G1 X24.1131 Y91.5000 Z-1.0000 F9000.00
G1 X27.6131 Y95.0000 Z-1.0000 F9000.00
G1 X30.4416 Y95.0000 Z-1.0000 F9000.00
G1 X26.9416 Y91.5000 Z-1.0000 F9000.00
G1 X29.7700 Y91.5000 Z-1.0000 F9000.00
G1 X33.2700 Y95.0000 Z-1.0000 F9000.00
G1 X36.0984 Y95.0000 Z-1.0000 F9000.00
G1 X32.5984 Y91.5000 Z-1.0000 F9000.00
G1 X35.4268 Y91.5000 Z-1.0000 F9000.00
G1 X38.9268 Y95.0000 Z-1.0000 F9000.00
G1 X41.7553 Y95.0000 Z-1.0000 F9000.00
G1 X38.2553 Y91.5000 Z-1.0000 F9000.00
G1 X41.0837 Y91.5000 Z-1.0000 F9000.00
G1 X44.5837 Y95.0000 Z-1.0000 F9000.00
G1 X47.4121 Y95.0000 Z-1.0000 F9000.00
G1 X43.9121 Y91.5000 Z-1.0000 F9000.00
G1 X46.7405 Y91.5000 Z-1.0000 F9000.00
G1 X50.2405 Y95.0000 Z-1.0000 F9000.00
G1 X53.0690 Y95.0000 Z-1.0000 F9000.00
G1 X49.5690 Y91.5000 Z-1.0000 F9000.00
G1 X52.3974 Y91.5000 Z-1.0000 F9000.00
G1 X55.8974 Y95.0000 Z-1.0000 F9000.00
G1 X58.7258 Y95.0000 Z-1.0000 F9000.00
G1 X55.2258 Y91.5000 Z-1.0000 F9000.00
G1 X58.0543 Y91.5000 Z-1.0000 F9000.00
G1 X61.5543 Y95.0000 Z-1.0000 F9000.00
G1 X64.3827 Y95.0000 Z-1.0000 F9000.00
G1 X60.8827 Y91.5000 Z-1.0000 F9000.00
G1 X63.7111 Y91.5000 Z-1.0000 F9000.00
G1 X67.2111 Y95.0000 Z-1.0000 F9000.00
G1 X70.0395 Y95.0000 Z-1.0000 F9000.00
G1 X66.5395 Y91.5000 Z-1.0000 F9000.00
G1 X69.3680 Y91.5000 Z-1.0000 F9000.00
G1 X72.8680 Y95.0000 Z-1.0000 F9000.00
G1 X75.6964 Y95.0000 Z-1.0000 F9000.00
G1 X72.1964 Y91.5000 Z-1.0000 F9000.00
G1 X75.0248 Y91.5000 Z-1.0000 F9000.00
G1 X78.5248 Y95.0000 Z-1.0000 F9000.00
G1 X81.3532 Y95.0000 Z-1.0000 F9000.00
G1 X77.8532 Y91.5000 Z-1.0000 F9000.00
G1 X80.6817 Y91.5000 Z-1.0000 F9000.00
G1 X84.1817 Y95.0000 Z-1.0000 F9000.00
G1 X87.0101 Y95.0000 Z-1.0000 F9000.00
G1 X83.5101 Y91.5000 Z-1.0000 F9000.00
G1 X86.3385 Y91.5000 Z-1.0000 F9000.00
G1 X89.8385 Y95.0000 Z-1.0000 F9000.00
G1 X92.6670 Y95.0000 Z-1.0000 F9000.00
G1 X89.1670 Y91.5000 Z-1.0000 F9000.00
G1 X91.9954 Y91.5000 Z-1.0000 F9000.00
G1 X95.4954 Y95.0000 Z-1.0000 F9000.00
G1 X98.3238 Y95.0000 Z-1.0000 F9000.00
G1 X94.8238 Y91.5000 Z-1.0000 F9000.00
G1 X97.6522 Y91.5000 Z-1.0000 F9000.00
G1 X101.1522 Y95.0000 Z-1.0000 F9000.00
G1 X103.9807 Y95.0000 Z-1.0000 F9000.00
G1 X100.4807 Y91.5000 Z-1.0000 F9000.00
G1 X103.3091 Y91.5000 Z-1.0000 F9000.00
G1 X106.8091 Y95.0000 Z-1.0000 F9000.00
G1 X109.6375 Y95.0000 Z-1.0000 F9000.00
G1 X106.1375 Y91.5000 Z-1.0000 F9000.00
G1 X108.9659 Y91.5000 Z-1.0000 F9000.00
G1 X112.4659 Y95.0000 Z-1.0000 F9000.00
G1 X115.2944 Y95.0000 Z-1.0000 F9000.00
G1 X111.7944 Y91.5000 Z-1.0000 F9000.00
G1 X114.6228 Y91.5000 Z-1.0000 F9000.00
G1 X118.1228 Y95.0000 Z-1.0000 F9000.00
G1 X120.9512 Y95.0000 Z-1.0000 F9000.00
G1 X117.4512 Y91.5000 Z-1.0000 F9000.00
G1 X120.2797 Y91.5000 Z-1.0000 F9000.00
G1 X123.7797 Y95.0000 Z-1.0000 F9000.00
G1 X126.6081 Y95.0000 Z-1.0000 F9000.00
G1 X123.1081 Y91.5000 Z-1.0000 F9000.00
G1 X125.9365 Y91.5000 Z-1.0000 F9000.00
G1 X129.4365 Y95.0000 Z-1.0000 F9000.00
G1 X132.2649 Y95.0000 Z-1.0000 F9000.00
G1 X128.7649 Y91.5000 Z-1.0000 F9000.00
G1 X131.5934 Y91.5000 Z-1.0000 F9000.00
G1 X135.0934 Y95.0000 Z-1.0000 F9000.00
G1 X137.9218 Y95.0000 Z-1.0000 F9000.00
G1 X134.4218 Y91.5000 Z-1.0000 F9000.00
G1 X137.2502 Y91.5000 Z-1.0000 F9000.00
G1 X140.7502 Y95.0000 Z-1.0000 F9000.00
G1 X143.5786 Y95.0000 Z-1.0000 F9000.00
G1 X140.0786 Y91.5000 Z-1.0000 F9000.00
G1 X142.9071 Y91.5000 Z-1.0000 F9000.00
G1 X146.4071 Y95.0000 Z-1.0000 F9000.00
G1 X149.2355 Y95.0000 Z-1.0000 F9000.00
G1 X145.7355 Y91.5000 Z-1.0000 F9000.00
G1 X148.5639 Y91.5000 Z-1.0000 F9000.00
G1 X152.0639 Y95.0000 Z-1.0000 F9000.00
G1 X154.8924 Y95.0000 Z-1.0000 F9000.00
G1 X151.3924 Y91.5000 Z-1.0000 F9000.00
G1 X154.2208 Y91.5000 Z-1.0000 F9000.00
G1 X157.7208 Y95.0000 Z-1.0000 F9000.00
G1 X160.5492 Y95.0000 Z-1.0000 F9000.00
G1 X157.0492 Y91.5000 Z-1.0000 F9000.00
G1 X159.8776 Y91.5000 Z-1.0000 F9000.00
G1 X163.3776 Y95.0000 Z-1.0000 F9000.00
G1 X166.2061 Y95.0000 Z-1.0000 F9000.00
G1 X162.7061 Y91.5000 Z-1.0000 F9000.00
G1 X165.5345 Y91.5000 Z-1.0000 F9000.00
G1 X169.0345 Y95.0000 Z-1.0000 F9000.00
G1 X171.8629 Y95.0000 Z-1.0000 F9000.00
G1 X168.3629 Y91.5000 Z-1.0000 F9000.00
G1 X171.1913 Y91.5000 Z-1.0000 F9000.00
G1 X174.6913 Y95.0000 Z-1.0000 F9000.00
G1 X177.5198 Y95.0000 Z-1.0000 F9000.00
G1 X174.0198 Y91.5000 Z-1.0000 F9000.00
G1 X176.8482 Y91.5000 Z-1.0000 F9000.00
G1 X180.3482 Y95.0000 Z-1.0000 F9000.00
G1 X183.1766 Y95.0000 Z-1.0000 F9000.00
G1 X179.6766 Y91.5000 Z-1.0000 F9000.00
G1 X182.0000 Y91.5000 Z-1.0000 F9000.00
G2 X182.4812 Y91.4762 Z-1.0000 I-0.0688 J-6.2548 F9000.00
G1 X186.0051 Y95.0000 Z-1.0000 F9000.00
G1 X188.8335 Y95.0000 Z-1.0000 F9000.00
G1 X184.7875 Y90.9540 Z-1.0000 F9000.00
G2 X186.5868 Y89.9249 Z-1.0000 I-2.4293 J-6.3350 F9000.00
G1 X191.0000 Y94.3381 Z-1.0000 F9000.00
G1 X191.0000 Y91.5097 Z-1.0000 F9000.00
G1 X187.9930 Y88.5027 Z-1.0000 F9000.00
G2 X188.9963 Y86.6775 Z-1.0000 I-5.4845 J-4.2029 F9000.00
G1 X191.0000 Y88.6812 Z-1.0000 F9000.00
G1 X191.0000 Y85.8528 Z-1.0000 F9000.00
G1 X189.4837 Y84.3365 Z-1.0000 F9000.00
G2 X189.4992 Y84.0393 Z-1.0000 I-22.6996 J-1.3321 F9000.00
G2 X189.5000 Y81.5244 Z-1.0000 I-48.0797 J-1.2722 F9000.00
G1 X191.0000 Y83.0244 Z-1.0000 F9000.00
G1 X191.0000 Y80.1960 Z-1.0000 F9000.00
G1 X189.5000 Y78.6960 Z-1.0000 F9000.00
G1 X189.5000 Y75.8675 Z-1.0000 F9000.00
G1 X191.0000 Y77.3675 Z-1.0000 F9000.00
G1 X191.0000 Y74.5391 Z-1.0000 F9000.00
G1 X189.5000 Y73.0391 Z-1.0000 F9000.00
G1 X189.5000 Y70.2107 Z-1.0000 F9000.00
G1 X191.0000 Y71.7107 Z-1.0000 F9000.00
G1 X191.0000 Y68.8823 Z-1.0000 F9000.00
G1 X189.5000 Y67.3823 Z-1.0000 F9000.00
G1 X189.5000 Y64.5538 Z-1.0000 F9000.00
G1 X191.0000 Y66.0538 Z-1.0000 F9000.00
G1 X191.0000 Y63.2254 Z-1.0000 F9000.00
G1 X189.5000 Y61.7254 Z-1.0000 F9000.00
G1 X189.5000 Y58.8970 Z-1.0000 F9000.00
G1 X191.0000 Y60.3970 Z-1.0000 F9000.00
G1 X191.0000 Y57.5685 Z-1.0000 F9000.00
G1 X189.5000 Y56.0685 Z-1.0000 F9000.00
G1 X189.5000 Y53.2401 Z-1.0000 F9000.00
G1 X191.0000 Y54.7401 Z-1.0000 F9000.00
G1 X191.0000 Y51.9117 Z-1.0000 F9000.00
G1 X189.5000 Y50.4117 Z-1.0000 F9000.00
G1 X189.5000 Y47.5833 Z-1.0000 F9000.00
G1 X191.0000 Y49.0833 Z-1.0000 F9000.00
G1 X191.0000 Y46.2548 Z-1.0000 F9000.00
G1 X189.5000 Y44.7548 Z-1.0000 F9000.00
G1 X189.5000 Y41.9264 Z-1.0000 F9000.00
G1 X191.0000 Y43.4264 Z-1.0000 F9000.00
G1 X191.0000 Y40.5980 Z-1.0000 F9000.00
G1 X189.5000 Y39.0980 Z-1.0000 F9000.00
G1 X189.5000 Y36.2696 Z-1.0000 F9000.00
G1 X191.0000 Y37.7696 Z-1.0000 F9000.00
G1 X191.0000 Y34.9411 Z-1.0000 F9000.00
G1 X189.5000 Y33.4411 Z-1.0000 F9000.00
G1 X189.5000 Y30.6127 Z-1.0000 F9000.00
G1 X191.0000 Y32.1127 Z-1.0000 F9000.00
G1 X191.0000 Y29.2843 Z-1.0000 F9000.00
G1 X189.5000 Y27.7843 Z-1.0000 F9000.00
G1 X189.5000 Y24.9558 Z-1.0000 F9000.00
G1 X191.0000 Y26.4558 Z-1.0000 F9000.00
G1 X191.0000 Y23.6274 Z-1.0000 F9000.00
G1 X189.5000 Y22.1274 Z-1.0000 F9000.00
G1 X189.5000 Y19.2990 Z-1.0000 F9000.00
G1 X191.0000 Y20.7990 Z-1.0000 F9000.00
G1 X191.0000 Y17.9706 Z-1.0000 F9000.00
G1 X189.5000 Y16.4706 Z-1.0000 F9000.00
G1 X189.5000 Y13.6421 Z-1.0000 F9000.00
G1 X191.0000 Y15.1421 Z-1.0000 F9000.00
G1 X191.0000 Y12.3137 Z-1.0000 F9000.00
G1 X189.3771 Y10.6908 Z-1.0000 F9000.00
G1 X189.3771 Y10.6908 Z-1.5000 F9000.00
G1 X191.0000 Y12.3137 Z-1.5000 F9000.00
G1 X191.0000 Y15.1421 Z-1.5000 F9000.00
G1 X189.5000 Y13.6421 Z-1.5000 F9000.00
G1 X189.5000 Y16.4706 Z-1.5000 F9000.00
G1 X191.0000 Y17.9706 Z-1.5000 F9000.00
G1 X191.0000 Y20.7990 Z-1.5000 F9000.00
G1 X189.5000 Y19.2990 Z-1.5000 F9000.00
G1 X189.5000 Y22.1274 Z-1.5000 F9000.00
G1 X191.0000 Y23.6274 Z-1.5000 F9000.00
G1 X191.0000 Y26.4558 Z-1.5000 F9000.00
G1 X189.5000 Y24.9558 Z-1.5000 F9000.00
G1 X189.5000 Y27.7843 Z-1.5000 F9000.00
G1 X191.0000 Y29.2843 Z-1.5000 F9000.00
G1 X191.0000 Y32.1127 Z-1.5000 F9000.00
G1 X189.5000 Y30.6127 Z-1.5000 F9000.00
G1 X189.5000 Y33.4411 Z-1.5000 F9000.00
G1 X191.0000 Y34.9411 Z-1.5000 F9000.00
G1 X191.0000 Y37.7696 Z-1.5000 F9000.00
G1 X189.5000 Y36.2696 Z-1.5000 F9000.00
G1 X189.5000 Y39.0980 Z-1.5000 F9000.00
G1 X191.0000 Y40.5980 Z-1.5000 F9000.00
G1 X191.0000 Y43.4264 Z-1.5000 F9000.00
G1 X189.5000 Y41.9264 Z-1.5000 F9000.00
G1 X189.5000 Y44.7548 Z-1.5000 F9000.00
G1 X191.0000 Y46.2548 Z-1.5000 F9000.00
G1 X191.0000 Y49.0833 Z-1.5000 F9000.00
G1 X189.5000 Y47.5833 Z-1.5000 F9000.00
G1 X189.5000 Y50.4117 Z-1.5000 F9000.00
G1 X191.0000 Y51.9117 Z-1.5000 F9000.00
G1 X191.0000 Y54.7401 Z-1.5000 F9000.00
G1 X189.5000 Y53.2401 Z-1.5000 F9000.00
G1 X189.5000 Y56.0685 Z-1.5000 F9000.00
G1 X191.0000 Y57.5685 Z-1.5000 F9000.00
G1 X191.0000 Y60.3970 Z-1.5000 F9000.00
G1 X189.5000 Y58.8970 Z-1.5000 F9000.00
G1 X189.5000 Y61.7254 Z-1.5000 F9000.00
G1 X191.0000 Y63.2254 Z-1.5000 F9000.00
G1 X191.0000 Y66.0538 Z-1.5000 F9000.00
G1 X189.5000 Y64.5538 Z-1.5000 F9000.00
G1 X189.5000 Y67.3823 Z-1.5000 F9000.00
G1 X191.0000 Y68.8823 Z-1.5000 F9000.00
G1 X191.0000 Y71.7107 Z-1.5000 F9000.00
G1 X189.5000 Y70.2107 Z-1.5000 F9000.00
G1 X189.5000 Y73.0391 Z-1.5000 F9000.00
G1 X191.0000 Y74.5391 Z-1.5000 F9000.00
G1 X191.0000 Y77.3675 Z-1.5000 F9000.00
G1 X189.5000 Y75.8675 Z-1.5000 F9000.00
G1 X189.5000 Y78.6960 Z-1.5000 F9000.00
G1 X191.0000 Y80.1960 Z-1.5000 F9000.00
G1 X191.0000 Y83.0244 Z-1.5000 F9000.00
G1 X189.5000 Y81.5244 Z-1.5000 F9000.00
G3 X189.4992 Y84.0393 Z-1.5000 I-48.0805 J1.2427 F9000.00
G3 X189.4837 Y84.3365 Z-1.5000 I-22.7151 J-1.0348 F9000.00
G1 X191.0000 Y85.8528 Z-1.5000 F9000.00
G1 X191.0000 Y88.6812 Z-1.5000 F9000.00
G1 X188.9963 Y86.6775 Z-1.5000 F9000.00
G3 X187.9930 Y88.5027 Z-1.5000 I-6.4877 J-2.3777 F9000.00
G1 X191.0000 Y91.5097 Z-1.5000 F9000.00
G1 X191.0000 Y94.3381 Z-1.5000 F9000.00
G1 X186.5868 Y89.9249 Z-1.5000 F9000.00
G3 X184.7875 Y90.9540 Z-1.5000 I-4.2286 J-5.3059 F9000.00
G1 X188.8335 Y95.0000 Z-1.5000 F9000.00
G1 X186.0051 Y95.0000 Z-1.5000 F9000.00
G1 X182.4812 Y91.4762 Z-1.5000 F9000.00
G3 X182.0000 Y91.5000 Z-1.5000 I-0.5500 J-6.2310 F9000.00
G1 X179.6766 Y91.5000 Z-1.5000 F9000.00
G1 X183.1766 Y95.0000 Z-1.5000 F9000.00
G1 X180.3482 Y95.0000 Z-1.5000 F9000.00
G1 X176.8482 Y91.5000 Z-1.5000 F9000.00
G1 X174.0198 Y91.5000 Z-1.5000 F9000.00
G1 X177.5198 Y95.0000 Z-1.5000 F9000.00
G1 X174.6913 Y95.0000 Z-1.5000 F9000.00
G1 X171.1913 Y91.5000 Z-1.5000 F9000.00
G1 X168.3629 Y91.5000 Z-1.5000 F9000.00
G1 X171.8629 Y95.0000 Z-1.5000 F9000.00
G1 X169.0345 Y95.0000 Z-1.5000 F9000.00
G1 X165.5345 Y91.5000 Z-1.5000 F9000.00
G1 X162.7061 Y91.5000 Z-1.5000 F9000.00
G1 X166.2061 Y95.0000 Z-1.5000 F9000.00
G1 X163.3776 Y95.0000 Z-1.5000 F9000.00
G1 X159.8776 Y91.5000 Z-1.5000 F9000.00
G1 X157.0492 Y91.5000 Z-1.5000 F9000.00
G1 X160.5492 Y95.0000 Z-1.5000 F9000.00
G1 X157.7208 Y95.0000 Z-1.5000 F9000.00
G1 X154.2208 Y91.5000 Z-1.5000 F9000.00
G1 X151.3924 Y91.5000 Z-1.5000 F9000.00
G1 X154.8924 Y95.0000 Z-1.5000 F9000.00
G1 X152.0639 Y95.0000 Z-1.5000 F9000.00
G1 X148.5639 Y91.5000 Z-1.5000 F9000.00
G1 X145.7355 Y91.5000 Z-1.5000 F9000.00
G1 X149.2355 Y95.0000 Z-1.5000 F9000.00
G1 X146.4071 Y95.0000 Z-1.5000 F9000.00
G1 X142.9071 Y91.5000 Z-1.5000 F9000.00
G1 X140.0786 Y91.5000 Z-1.5000 F9000.00
G1 X143.5786 Y95.0000 Z-1.5000 F9000.00
G1 X140.7502 Y95.0000 Z-1.5000 F9000.00
G1 X137.2502 Y91.5000 Z-1.5000 F9000.00
G1 X134.4218 Y91.5000 Z-1.5000 F9000.00
G1 X137.9218 Y95.0000 Z-1.5000 F9000.00
G1 X135.0934 Y95.0000 Z-1.5000 F9000.00
G1 X131.5934 Y91.5000 Z-1.5000 F9000.00
G1 X128.7649 Y91.5000 Z-1.5000 F9000.00
G1 X132.2649 Y95.0000 Z-1.5000 F9000.00
G1 X129.4365 Y95.0000 Z-1.5000 F9000.00
G1 X125.9365 Y91.5000 Z-1.5000 F9000.00
G1 X123.1081 Y91.5000 Z-1.5000 F9000.00
G1 X126.6081 Y95.0000 Z-1.5000 F9000.00
G1 X123.7797 Y95.0000 Z-1.5000 F9000.00
G1 X120.2797 Y91.5000 Z-1.5000 F9000.00
G1 X117.4512 Y91.5000 Z-1.5000 F9000.00
G1 X120.9512 Y95.0000 Z-1.5000 F9000.00
G1 X118.1228 Y95.0000 Z-1.5000 F9000.00
G1 X114.6228 Y91.5000 Z-1.5000 F9000.00
G1 X111.7944 Y91.5000 Z-1.5000 F9000.00
G1 X115.2944 Y95.0000 Z-1.5000 F9000.00
G1 X112.4659 Y95.0000 Z-1.5000 F9000.00
G1 X108.9659 Y91.5000 Z-1.5000 F9000.00
G1 X106.1375 Y91.5000 Z-1.5000 F9000.00
G1 X109.6375 Y95.0000 Z-1.5000 F9000.00
G1 X106.8091 Y95.0000 Z-1.5000 F9000.00
G1 X103.3091 Y91.5000 Z-1.5000 F9000.00
G1 X100.4807 Y91.5000 Z-1.5000 F9000.00
G1 X103.9807 Y95.0000 Z-1.5000 F9000.00
G1 X101.1522 Y95.0000 Z-1.5000 F9000.00
G1 X97.6522 Y91.5000 Z-1.5000 F9000.00
G1 X94.8238 Y91.5000 Z-1.5000 F9000.00
G1 X98.3238 Y95.0000 Z-1.5000 F9000.00
G1 X95.4954 Y95.0000 Z-1.5000 F9000.00
G1 X91.9954 Y91.5000 Z-1.5000 F9000.00
G1 X89.1670 Y91.5000 Z-1.5000 F9000.00
G1 X92.6670 Y95.0000 Z-1.5000 F9000.00
G1 X89.8385 Y95.0000 Z-1.5000 F9000.00
G1 X86.3385 Y91.5000 Z-1.5000 F9000.00
G1 X83.5101 Y91.5000 Z-1.5000 F9000.00
G1 X87.0101 Y95.0000 Z-1.5000 F9000.00
G1 X84.1817 Y95.0000 Z-1.5000 F9000.00
G1 X80.6817 Y91.5000 Z-1.5000 F9000.00
G1 X77.8532 Y91.5000 Z-1.5000 F9000.00
G1 X81.3532 Y95.0000 Z-1.5000 F9000.00
G1 X78.5248 Y95.0000 Z-1.5000 F9000.00
G1 X75.0248 Y91.5000 Z-1.5000 F9000.00
G1 X72.1964 Y91.5000 Z-1.5000 F9000.00
G1 X75.6964 Y95.0000 Z-1.5000 F9000.00
G1 X72.8680 Y95.0000 Z-1.5000 F9000.00
G1 X69.3680 Y91.5000 Z-1.5000 F9000.00
G1 X66.5395 Y91.5000 Z-1.5000 F9000.00
G1 X70.0395 Y95.0000 Z-1.5000 F9000.00
G1 X67.2111 Y95.0000 Z-1.5000 F9000.00
G1 X63.7111 Y91.5000 Z-1.5000 F9000.00
G1 X60.8827 Y91.5000 Z-1.5000 F9000.00
G1 X64.3827 Y95.0000 Z-1.5000 F9000.00
G1 X61.5543 Y95.0000 Z-1.5000 F9000.00
G1 X58.0543 Y91.5000 Z-1.5000 F9000.00
G1 X55.2258 Y91.5000 Z-1.5000 F9000.00
G1 X58.7258 Y95.0000 Z-1.5000 F9000.00
G1 X55.8974 Y95.0000 Z-1.5000 F9000.00
G1 X52.3974 Y91.5000 Z-1.5000 F9000.00
G1 X49.5690 Y91.5000 Z-1.5000 F9000.00
G1 X53.0690 Y95.0000 Z-1.5000 F9000.00
G1 X50.2405 Y95.0000 Z-1.5000 F9000.00
G1 X46.7405 Y91.5000 Z-1.5000 F9000.00
G1 X43.9121 Y91.5000 Z-1.5000 F9000.00
G1 X47.4121 Y95.0000 Z-1.5000 F9000.00
G1 X44.5837 Y95.0000 Z-1.5000 F9000.00
G1 X41.0837 Y91.5000 Z-1.5000 F9000.00
G1 X38.2553 Y91.5000 Z-1.5000 F9000.00
G1 X41.7553 Y95.0000 Z-1.5000 F9000.00
G1 X38.9268 Y95.0000 Z-1.5000 F9000.00
G1 X35.4268 Y91.5000 Z-1.5000 F9000.00
G1 X32.5984 Y91.5000 Z-1.5000 F9000.00
G1 X36.0984 Y95.0000 Z-1.5000 F9000.00
G1 X33.2700 Y95.0000 Z-1.5000 F9000.00
G1 X29.7700 Y91.5000 Z-1.5000 F9000.00
G1 X26.9416 Y91.5000 Z-1.5000 F9000.00
G1 X30.4416 Y95.0000 Z-1.5000 F9000.00
G1 X27.6131 Y95.0000 Z-1.5000 F9000.00
G1 X24.1131 Y91.5000 Z-1.5000 F9000.00
G1 X21.2847 Y91.5000 Z-1.5000 F9000.00
G1 X24.7847 Y95.0000 Z-1.5000 F9000.00
G1 X21.9563 Y95.0000 Z-1.5000 F9000.00
G1 X18.4563 Y91.5000 Z-1.5000 F9000.00
G1 X15.6279 Y91.5000 Z-1.5000 F9000.00
G1 X19.1279 Y95.0000 Z-1.5000 F9000.00
G1 X16.2994 Y95.0000 Z-1.5000 F9000.00
G1 X12.7994 Y91.5000 Z-1.5000 F9000.00
G3 X9.9705 Y91.4996 Z-1.5000 I-1.4043 J-63.6239 F9000.00
G1 X13.4710 Y95.0000 Z-1.5000 F9000.00
G1 X10.6426 Y95.0000 Z-1.5000 F9000.00
G1 X5.9345 Y90.2919 Z-1.5000 F9000.00
G3 X3.7081 Y88.0655 Z-1.5000 I3.8215 J-6.0480 F9000.00
G1 X1.0000 Y85.3574 Z-1.5000 F9000.00
G1 X1.0000 Y88.1859 Z-1.5000 F9000.00
G1 X7.8141 Y95.0000 Z-1.5000 F9000.00
G1 X4.9857 Y95.0000 Z-1.5000 F9000.00
G1 X1.0000 Y91.0143 Z-1.5000 F9000.00
G1 X1.0000 Y93.8427 Z-1.5000 F9000.00
G1 X1.0000 Y95.0000 Z-1.5000 F9000.00
G1 X2.1573 Y95.0000 Z-1.5000 F9000.00
G1 X1.0000 Y93.8427 Z-1.5000 F9000.00
G0 X1.0000 Y93.8427 Z5.0000
G0 X1.0000 Y85.3574 Z5.0000
G0 X1.0000 Y85.3574 Z1.5000
G1 X1.0000 Y85.3574 Z-1.5000 F9000.00
G1 X3.7081 Y88.0655 Z-1.5000 F9000.00
G3 X2.5004 Y84.0295 Z-1.5000 I6.1775 J-4.0470 F9000.00
G1 X1.0000 Y82.5290 Z-1.5000 F9000.00
G1 X1.0000 Y79.7006 Z-1.5000 F9000.00
G1 X2.5000 Y81.2006 Z-1.5000 F9000.00
G1 X2.5000 Y78.3721 Z-1.5000 F9000.00
G1 X1.0000 Y76.8721 Z-1.5000 F9000.00
G1 X1.0000 Y74.0437 Z-1.5000 F9000.00
G1 X2.5000 Y75.5437 Z-1.5000 F9000.00
G1 X2.5000 Y72.7153 Z-1.5000 F9000.00
G1 X1.0000 Y71.2153 Z-1.5000 F9000.00
G1 X1.0000 Y68.3869 Z-1.5000 F9000.00
G1 X2.5000 Y69.8869 Z-1.5000 F9000.00
G1 X2.5000 Y67.0584 Z-1.5000 F9000.00
G1 X1.0000 Y65.5584 Z-1.5000 F9000.00
G1 X1.0000 Y62.7300 Z-1.5000 F9000.00
G1 X2.5000 Y64.2300 Z-1.5000 F9000.00
G1 X2.5000 Y61.4016 Z-1.5000 F9000.00
G1 X1.0000 Y59.9016 Z-1.5000 F9000.00
G1 X1.0000 Y57.0732 Z-1.5000 F9000.00
G1 X2.5000 Y58.5732 Z-1.5000 F9000.00
G1 X2.5000 Y55.7447 Z-1.5000 F9000.00
G1 X1.0000 Y54.2447 Z-1.5000 F9000.00
G1 X1.0000 Y51.4163 Z-1.5000 F9000.00
G1 X2.5000 Y52.9163 Z-1.5000 F9000.00
G1 X2.5000 Y50.0879 Z-1.5000 F9000.00
G1 X1.0000 Y48.5879 Z-1.5000 F9000.00
G1 X1.0000 Y45.7595 Z-1.5000 F9000.00
G1 X2.5000 Y47.2595 Z-1.5000 F9000.00
G1 X2.5000 Y44.4310 Z-1.5000 F9000.00
G1 X1.0000 Y42.9310 Z-1.5000 F9000.00
G1 X1.0000 Y40.1026 Z-1.5000 F9000.00
G1 X2.5000 Y41.6026 Z-1.5000 F9000.00
G1 X2.5000 Y38.7742 Z-1.5000 F9000.00
G1 X1.0000 Y37.2742 Z-1.5000 F9000.00
G1 X1.0000 Y34.4457 Z-1.5000 F9000.00
G1 X2.5000 Y35.9457 Z-1.5000 F9000.00
G1 X2.5000 Y33.1173 Z-1.5000 F9000.00
G1 X1.0000 Y31.6173 Z-1.5000 F9000.00
G1 X1.0000 Y28.7889 Z-1.5000 F9000.00
G1 X2.5000 Y30.2889 Z-1.5000 F9000.00
G1 X2.5000 Y27.4605 Z-1.5000 F9000.00
G1 X1.0000 Y25.9605 Z-1.5000 F9000.00
G1 X1.0000 Y23.1320 Z-1.5000 F9000.00
G1 X2.5000 Y24.6320 Z-1.5000 F9000.00
G1 X2.5000 Y21.8036 Z-1.5000 F9000.00
G1 X1.0000 Y20.3036 Z-1.5000 F9000.00
G1 X1.0000 Y17.4752 Z-1.5000 F9000.00
G1 X2.5000 Y18.9752 Z-1.5000 F9000.00
G1 X2.5000 Y16.1468 Z-1.5000 F9000.00
G1 X1.0000 Y14.6468 Z-1.5000 F9000.00
G1 X1.0000 Y11.8183 Z-1.5000 F9000.00
G1 X2.5000 Y13.3183 Z-1.5000 F9000.00
G3 X2.6336 Y10.6235 Z-1.5000 I13.7033 J-0.6716 F9000.00
G1 X1.0000 Y8.9899 Z-1.5000 F9000.00
G1 X1.0000 Y6.1615 Z-1.5000 F9000.00
G1 X3.3633 Y8.5248 Z-1.5000 F9000.00
G3 X4.5365 Y6.8695 Z-1.5000 I6.0991 J3.0796 F9000.00
G1 X1.0000 Y3.3330 Z-1.5000 F9000.00
G1 X1.0000 Y1.0000 Z-1.5000 F9000.00
G1 X1.4954 Y1.0000 Z-1.5000 F9000.00
G1 X6.0976 Y5.6022 Z-1.5000 F9000.00
G3 X8.0823 Y4.7585 Z-1.5000 I3.6413 J5.8098 F9000.00
G1 X4.3238 Y1.0000 Z-1.5000 F9000.00
G1 X7.1522 Y1.0000 Z-1.5000 F9000.00
G1 X10.6522 Y4.5000 Z-1.5000 F9000.00
G1 X13.4807 Y4.5000 Z-1.5000 F9000.00
G1 X9.9807 Y1.0000 Z-1.5000 F9000.00
G1 X12.8091 Y1.0000 Z-1.5000 F9000.00
G1 X16.3091 Y4.5000 Z-1.5000 F9000.00
G1 X19.1375 Y4.5000 Z-1.5000 F9000.00
G1 X15.6375 Y1.0000 Z-1.5000 F9000.00
G1 X18.4659 Y1.0000 Z-1.5000 F9000.00
G1 X21.9659 Y4.5000 Z-1.5000 F9000.00
G1 X24.7944 Y4.5000 Z-1.5000 F9000.00
G1 X21.2944 Y1.0000 Z-1.5000 F9000.00
G1 X24.1228 Y1.0000 Z-1.5000 F9000.00
G1 X27.6228 Y4.5000 Z-1.5000 F9000.00
G1 X30.4512 Y4.5000 Z-1.5000 F9000.00
G1 X26.9512 Y1.0000 Z-1.5000 F9000.00
G1 X29.7797 Y1.0000 Z-1.5000 F9000.00
G1 X33.2797 Y4.5000 Z-1.5000 F9000.00
G1 X36.1081 Y4.5000 Z-1.5000 F9000.00
G1 X32.6081 Y1.0000 Z-1.5000 F9000.00
G1 X35.4365 Y1.0000 Z-1.5000 F9000.00
G1 X38.9365 Y4.5000 Z-1.5000 F9000.00
G1 X41.7649 Y4.5000 Z-1.5000 F9000.00
G1 X38.2649 Y1.0000 Z-1.5000 F9000.00
G1 X41.0934 Y1.0000 Z-1.5000 F9000.00
G1 X44.5934 Y4.5000 Z-1.5000 F9000.00
G1 X47.4218 Y4.5000 Z-1.5000 F9000.00
G1 X43.9218 Y1.0000 Z-1.5000 F9000.00
G1 X46.7502 Y1.0000 Z-1.5000 F9000.00
G1 X50.2502 Y4.5000 Z-1.5000 F9000.00
G1 X53.0786 Y4.5000 Z-1.5000 F9000.00
G1 X49.5786 Y1.0000 Z-1.5000 F9000.00
G1 X52.4071 Y1.0000 Z-1.5000 F9000.00
G1 X55.9071 Y4.5000 Z-1.5000 F9000.00
G1 X58.7355 Y4.5000 Z-1.5000 F9000.00
G1 X55.2355 Y1.0000 Z-1.5000 F9000.00
G1 X58.0639 Y1.0000 Z-1.5000 F9000.00
G1 X61.5639 Y4.5000 Z-1.5000 F9000.00
G1 X64.3924 Y4.5000 Z-1.5000 F9000.00
G1 X60.8924 Y1.0000 Z-1.5000 F9000.00
G1 X63.7208 Y1.0000 Z-1.5000 F9000.00
G1 X67.2208 Y4.5000 Z-1.5000 F9000.00
G1 X70.0492 Y4.5000 Z-1.5000 F9000.00
G1 X66.5492 Y1.0000 Z-1.5000 F9000.00
G1 X69.3776 Y1.0000 Z-1.5000 F9000.00
G1 X72.8776 Y4.5000 Z-1.5000 F9000.00
G1 X75.7061 Y4.5000 Z-1.5000 F9000.00
G1 X72.2061 Y1.0000 Z-1.5000 F9000.00
G1 X75.0345 Y1.0000 Z-1.5000 F9000.00
G1 X78.5345 Y4.5000 Z-1.5000 F9000.00
G1 X81.3629 Y4.5000 Z-1.5000 F9000.00
G1 X77.8629 Y1.0000 Z-1.5000 F9000.00
G1 X80.6913 Y1.0000 Z-1.5000 F9000.00
G1 X84.1913 Y4.5000 Z-1.5000 F9000.00
G1 X87.0198 Y4.5000 Z-1.5000 F9000.00
G1 X83.5198 Y1.0000 Z-1.5000 F9000.00
G1 X86.3482 Y1.0000 Z-1.5000 F9000.00
G1 X89.8482 Y4.5000 Z-1.5000 F9000.00
G1 X92.6766 Y4.5000 Z-1.5000 F9000.00
G1 X89.1766 Y1.0000 Z-1.5000 F9000.00
G1 X92.0051 Y1.0000 Z-1.5000 F9000.00
G1 X95.5051 Y4.5000 Z-1.5000 F9000.00
G1 X98.3335 Y4.5000 Z-1.5000 F9000.00
G1 X94.8335 Y1.0000 Z-1.5000 F9000.00
G1 X97.6619 Y1.0000 Z-1.5000 F9000.00
G1 X101.1619 Y4.5000 Z-1.5000 F9000.00
G1 X103.9903 Y4.5000 Z-1.5000 F9000.00
G1 X100.4903 Y1.0000 Z-1.5000 F9000.00
G1 X103.3188 Y1.0000 Z-1.5000 F9000.00
G1 X106.8188 Y4.5000 Z-1.5000 F9000.00
G1 X109.6472 Y4.5000 Z-1.5000 F9000.00
G1 X106.1472 Y1.0000 Z-1.5000 F9000.00
G1 X108.9756 Y1.0000 Z-1.5000 F9000.00
G1 X112.4756 Y4.5000 Z-1.5000 F9000.00
G1 X115.3040 Y4.5000 Z-1.5000 F9000.00
G1 X111.8040 Y1.0000 Z-1.5000 F9000.00
G1 X114.6325 Y1.0000 Z-1.5000 F9000.00
G1 X118.1325 Y4.5000 Z-1.5000 F9000.00
G1 X120.9609 Y4.5000 Z-1.5000 F9000.00
G1 X117.4609 Y1.0000 Z-1.5000 F9000.00
G1 X120.2893 Y1.0000 Z-1.5000 F9000.00
G1 X123.7893 Y4.5000 Z-1.5000 F9000.00
G1 X126.6177 Y4.5000 Z-1.5000 F9000.00
G1 X123.1177 Y1.0000 Z-1.5000 F9000.00
G1 X125.9462 Y1.0000 Z-1.5000 F9000.00
G1 X129.4462 Y4.5000 Z-1.5000 F9000.00
G1 X132.2746 Y4.5000 Z-1.5000 F9000.00
G1 X128.7746 Y1.0000 Z-1.5000 F9000.00
G1 X131.6030 Y1.0000 Z-1.5000 F9000.00
G1 X135.1030 Y4.5000 Z-1.5000 F9000.00
G1 X137.9315 Y4.5000 Z-1.5000 F9000.00
G1 X134.4315 Y1.0000 Z-1.5000 F9000.00
G1 X137.2599 Y1.0000 Z-1.5000 F9000.00
G1 X140.7599 Y4.5000 Z-1.5000 F9000.00
G1 X143.5883 Y4.5000 Z-1.5000 F9000.00
G1 X140.0883 Y1.0000 Z-1.5000 F9000.00
G1 X142.9167 Y1.0000 Z-1.5000 F9000.00
G1 X146.4167 Y4.5000 Z-1.5000 F9000.00
G1 X149.2452 Y4.5000 Z-1.5000 F9000.00
G1 X145.7452 Y1.0000 Z-1.5000 F9000.00
G1 X148.5736 Y1.0000 Z-1.5000 F9000.00
G1 X152.0736 Y4.5000 Z-1.5000 F9000.00
G1 X154.9020 Y4.5000 Z-1.5000 F9000.00
G1 X151.4020 Y1.0000 Z-1.5000 F9000.00
G1 X154.2304 Y1.0000 Z-1.5000 F9000.00
G1 X157.7304 Y4.5000 Z-1.5000 F9000.00
G1 X160.5589 Y4.5000 Z-1.5000 F9000.00
G1 X157.0589 Y1.0000 Z-1.5000 F9000.00
G1 X159.8873 Y1.0000 Z-1.5000 F9000.00
G1 X163.3873 Y4.5000 Z-1.5000 F9000.00
G1 X166.2157 Y4.5000 Z-1.5000 F9000.00
G1 X162.7157 Y1.0000 Z-1.5000 F9000.00
G1 X165.5442 Y1.0000 Z-1.5000 F9000.00
G1 X169.0442 Y4.5000 Z-1.5000 F9000.00
G1 X171.8726 Y4.5000 Z-1.5000 F9000.00
G1 X168.3726 Y1.0000 Z-1.5000 F9000.00
G1 X171.2010 Y1.0000 Z-1.5000 F9000.00
G1 X174.7010 Y4.5000 Z-1.5000 F9000.00
G1 X177.5294 Y4.5000 Z-1.5000 F9000.00
G1 X174.0294 Y1.0000 Z-1.5000 F9000.00
G1 X176.8579 Y1.0000 Z-1.5000 F9000.00
G1 X180.3579 Y4.5000 Z-1.5000 F9000.00
G3 X183.3092 Y4.6229 Z-1.5000 I0.8347 J15.4545 F9000.00
G1 X179.6863 Y1.0000 Z-1.5000 F9000.00
G1 X182.5147 Y1.0000 Z-1.5000 F9000.00
G1 X191.0000 Y9.4853 Z-1.5000 F9000.00
G1 X191.0000 Y6.6569 Z-1.5000 F9000.00
G1 X185.3431 Y1.0000 Z-1.5000 F9000.00
G1 X188.1716 Y1.0000 Z-1.5000 F9000.00
G1 X191.0000 Y3.8284 Z-1.5000 F9000.00
G1 X191.0000 Y1.0000 Z-1.5000 F9000.00
G1 X191.0000 Y1.0000 Z-2.0000 F9000.00
G1 X191.0000 Y3.8284 Z-2.0000 F9000.00
G1 X188.1716 Y1.0000 Z-2.0000 F9000.00
G1 X185.3431 Y1.0000 Z-2.0000 F9000.00
G1 X191.0000 Y6.6569 Z-2.0000 F9000.00
G1 X191.0000 Y9.4853 Z-2.0000 F9000.00
G1 X182.5147 Y1.0000 Z-2.0000 F9000.00
G1 X179.6863 Y1.0000 Z-2.0000 F9000.00
G1 X183.3092 Y4.6229 Z-2.0000 F9000.00
G2 X180.3579 Y4.5000 Z-2.0000 I-2.1166 J15.3316 F9000.00
G1 X176.8579 Y1.0000 Z-2.0000 F9000.00
G1 X174.0294 Y1.0000 Z-2.0000 F9000.00
G1 X177.5294 Y4.5000 Z-2.0000 F9000.00
G1 X174.7010 Y4.5000 Z-2.0000 F9000.00
G1 X171.2010 Y1.0000 Z-2.0000 F9000.00
G1 X168.3726 Y1.0000 Z-2.0000 F9000.00
G1 X171.8726 Y4.5000 Z-2.0000 F9000.00
G1 X169.0442 Y4.5000 Z-2.0000 F9000.00
G1 X165.5442 Y1.0000 Z-2.0000 F9000.00
G1 X162.7157 Y1.0000 Z-2.0000 F9000.00
G1 X166.2157 Y4.5000 Z-2.0000 F9000.00
G1 X163.3873 Y4.5000 Z-2.0000 F9000.00
G1 X159.8873 Y1.0000 Z-2.0000 F9000.00
G1 X157.0589 Y1.0000 Z-2.0000 F9000.00
G1 X160.5589 Y4.5000 Z-2.0000 F9000.00
G1 X157.7304 Y4.5000 Z-2.0000 F9000.00
G1 X154.2304 Y1.0000 Z-2.0000 F9000.00
G1 X151.4020 Y1.0000 Z-2.0000 F9000.00
G1 X154.9020 Y4.5000 Z-2.0000 F9000.00
G1 X152.0736 Y4.5000 Z-2.0000 F9000.00
G1 X148.5736 Y1.0000 Z-2.0000 F9000.00
G1 X145.7452 Y1.0000 Z-2.0000 F9000.00
G1 X149.2452 Y4.5000 Z-2.0000 F9000.00
G1 X146.4167 Y4.5000 Z-2.0000 F9000.00
G1 X142.9167 Y1.0000 Z-2.0000 F9000.00
G1 X140.0883 Y1.0000 Z-2.0000 F9000.00
G1 X143.5883 Y4.5000 Z-2.0000 F9000.00
G1 X140.7599 Y4.5000 Z-2.0000 F9000.00
G1 X137.2599 Y1.0000 Z-2.0000 F9000.00
G1 X134.4315 Y1.0000 Z-2.0000 F9000.00
G1 X137.9315 Y4.5000 Z-2.0000 F9000.00
G1 X135.1030 Y4.5000 Z-2.0000 F9000.00
G1 X131.6030 Y1.0000 Z-2.0000 F9000.00
G1 X128.7746 Y1.0000 Z-2.0000 F9000.00
G1 X132.2746 Y4.5000 Z-2.0000 F9000.00
G1 X129.4462 Y4.5000 Z-2.0000 F9000.00
G1 X125.9462 Y1.0000 Z-2.0000 F9000.00
G1 X123.1177 Y1.0000 Z-2.0000 F9000.00
G1 X126.6177 Y4.5000 Z-2.0000 F9000.00
G1 X123.7893 Y4.5000 Z-2.0000 F9000.00
G1 X120.2893 Y1.0000 Z-2.0000 F9000.00
G1 X117.4609 Y1.0000 Z-2.0000 F9000.00
G1 X120.9609 Y4.5000 Z-2.0000 F9000.00
G1 X118.1325 Y4.5000 Z-2.0000 F9000.00
G1 X114.6325 Y1.0000 Z-2.0000 F9000.00
G1 X111.8040 Y1.0000 Z-2.0000 F9000.00
G1 X115.3040 Y4.5000 Z-2.0000 F9000.00
G1 X112.4756 Y4.5000 Z-2.0000 F9000.00
G1 X108.9756 Y1.0000 Z-2.0000 F9000.00
G1 X106.1472 Y1.0000 Z-2.0000 F9000.00
G1 X109.6472 Y4.5000 Z-2.0000 F9000.00
G1 X106.8188 Y4.5000 Z-2.0000 F9000.00
G1 X103.3188 Y1.0000 Z-2.0000 F9000.00
G1 X100.4903 Y1.0000 Z-2.0000 F9000.00
G1 X103.9903 Y4.5000 Z-2.0000 F9000.00
G1 X101.1619 Y4.5000 Z-2.0000 F9000.00
G1 X97.6619 Y1.0000 Z-2.0000 F9000.00
G1 X94.8335 Y1.0000 Z-2.0000 F9000.00
G1 X98.3335 Y4.5000 Z-2.0000 F9000.00
G1 X95.5051 Y4.5000 Z-2.0000 F9000.00
G1 X92.0051 Y1.0000 Z-2.0000 F9000.00
G1 X89.1766 Y1.0000 Z-2.0000 F9000.00
G1 X92.6766 Y4.5000 Z-2.0000 F9000.00
G1 X89.8482 Y4.5000 Z-2.0000 F9000.00
G1 X86.3482 Y1.0000 Z-2.0000 F9000.00
G1 X83.5198 Y1.0000 Z-2.0000 F9000.00
G1 X87.0198 Y4.5000 Z-2.0000 F9000.00
G1 X84.1913 Y4.5000 Z-2.0000 F9000.00
G1 X80.6913 Y1.0000 Z-2.0000 F9000.00
G1 X77.8629 Y1.0000 Z-2.0000 F9000.00
G1 X81.3629 Y4.5000 Z-2.0000 F9000.00
G1 X78.5345 Y4.5000 Z-2.0000 F9000.00
G1 X75.0345 Y1.0000 Z-2.0000 F9000.00
G1 X72.2061 Y1.0000 Z-2.0000 F9000.00
G1 X75.7061 Y4.5000 Z-2.0000 F9000.00
G1 X72.8776 Y4.5000 Z-2.0000 F9000.00
G1 X69.3776 Y1.0000 Z-2.0000 F9000.00
G1 X66.5492 Y1.0000 Z-2.0000 F9000.00
G1 X70.0492 Y4.5000 Z-2.0000 F9000.00
G1 X67.2208 Y4.5000 Z-2.0000 F9000.00
G1 X63.7208 Y1.0000 Z-2.0000 F9000.00
G1 X60.8924 Y1.0000 Z-2.0000 F9000.00
G1 X64.3924 Y4.5000 Z-2.0000 F9000.00
G1 X61.5639 Y4.5000 Z-2.0000 F9000.00
G1 X58.0639 Y1.0000 Z-2.0000 F9000.00
G1 X55.2355 Y1.0000 Z-2.0000 F9000.00
G1 X58.7355 Y4.5000 Z-2.0000 F9000.00
G1 X55.9071 Y4.5000 Z-2.0000 F9000.00
G1 X52.4071 Y1.0000 Z-2.0000 F9000.00
G1 X49.5786 Y1.0000 Z-2.0000 F9000.00
G1 X53.0786 Y4.5000 Z-2.0000 F9000.00
G1 X50.2502 Y4.5000 Z-2.0000 F9000.00
G1 X46.7502 Y1.0000 Z-2.0000 F9000.00
G1 X43.9218 Y1.0000 Z-2.0000 F9000.00
G1 X47.4218 Y4.5000 Z-2.0000 F9000.00
G1 X44.5934 Y4.5000 Z-2.0000 F9000.00
G1 X41.0934 Y1.0000 Z-2.0000 F9000.00
G1 X38.2649 Y1.0000 Z-2.0000 F9000.00
G1 X41.7649 Y4.5000 Z-2.0000 F9000.00
G1 X38.9365 Y4.5000 Z-2.0000 F9000.00
G1 X35.4365 Y1.0000 Z-2.0000 F9000.00
G1 X32.6081 Y1.0000 Z-2.0000 F9000.00
G1 X36.1081 Y4.5000 Z-2.0000 F9000.00
G1 X33.2797 Y4.5000 Z-2.0000 F9000.00
G1 X29.7797 Y1.0000 Z-2.0000 F9000.00
G1 X26.9512 Y1.0000 Z-2.0000 F9000.00
G1 X30.4512 Y4.5000 Z-2.0000 F9000.00
G1 X27.6228 Y4.5000 Z-2.0000 F9000.00
G1 X24.1228 Y1.0000 Z-2.0000 F9000.00
G1 X21.2944 Y1.0000 Z-2.0000 F9000.00
G1 X24.7944 Y4.5000 Z-2.0000 F9000.00
G1 X21.9659 Y4.5000 Z-2.0000 F9000.00
G1 X18.4659 Y1.0000 Z-2.0000 F9000.00
G1 X15.6375 Y1.0000 Z-2.0000 F9000.00
G1 X19.1375 Y4.5000 Z-2.0000 F9000.00
G1 X16.3091 Y4.5000 Z-2.0000 F9000.00
G1 X12.8091 Y1.0000 Z-2.0000 F9000.00
G1 X9.9807 Y1.0000 Z-2.0000 F9000.00
G1 X13.4807 Y4.5000 Z-2.0000 F9000.00
G1 X10.6522 Y4.5000 Z-2.0000 F9000.00
G1 X7.1522 Y1.0000 Z-2.0000 F9000.00
G1 X4.3238 Y1.0000 Z-2.0000 F9000.00
G1 X8.0823 Y4.7585 Z-2.0000 F9000.00
G2 X6.0976 Y5.6022 Z-2.0000 I1.6566 J6.6534 F9000.00
G1 X1.4954 Y1.0000 Z-2.0000 F9000.00
G1 X1.0000 Y1.0000 Z-2.0000 F9000.00
G1 X1.0000 Y3.3330 Z-2.0000 F9000.00
G1 X4.5365 Y6.8695 Z-2.0000 F9000.00
G2 X3.3633 Y8.5248 Z-2.0000 I4.9259 J4.7348 F9000.00
G1 X1.0000 Y6.1615 Z-2.0000 F9000.00
G1 X1.0000 Y8.9899 Z-2.0000 F9000.00
G1 X2.6336 Y10.6235 Z-2.0000 F9000.00
G2 X2.5000 Y13.3183 Z-2.0000 I13.5697 J2.0232 F9000.00
G1 X1.0000 Y11.8183 Z-2.0000 F9000.00
G1 X1.0000 Y14.6468 Z-2.0000 F9000.00
G1 X2.5000 Y16.1468 Z-2.0000 F9000.00
G1 X2.5000 Y18.9752 Z-2.0000 F9000.00
G1 X1.0000 Y17.4752 Z-2.0000 F9000.00
G1 X1.0000 Y20.3036 Z-2.0000 F9000.00
G1 X2.5000 Y21.8036 Z-2.0000 F9000.00
G1 X2.5000 Y24.6320 Z-2.0000 F9000.00
G1 X1.0000 Y23.1320 Z-2.0000 F9000.00
G1 X1.0000 Y25.9605 Z-2.0000 F9000.00
G1 X2.5000 Y27.4605 Z-2.0000 F9000.00
G1 X2.5000 Y30.2889 Z-2.0000 F9000.00
G1 X1.0000 Y28.7889 Z-2.0000 F9000.00
G1 X1.0000 Y31.6173 Z-2.0000 F9000.00
G1 X2.5000 Y33.1173 Z-2.0000 F9000.00
G1 X2.5000 Y35.9457 Z-2.0000 F9000.00
G1 X1.0000 Y34.4457 Z-2.0000 F9000.00
G1 X1.0000 Y37.2742 Z-2.0000 F9000.00
G1 X2.5000 Y38.7742 Z-2.0000 F9000.00
G1 X2.5000 Y41.6026 Z-2.0000 F9000.00
G1 X1.0000 Y40.1026 Z-2.0000 F9000.00
G1 X1.0000 Y42.9310 Z-2.0000 F9000.00
G1 X2.5000 Y44.4310 Z-2.0000 F9000.00
G1 X2.5000 Y47.2595 Z-2.0000 F9000.00
G1 X1.0000 Y45.7595 Z-2.0000 F9000.00
G1 X1.0000 Y48.5879 Z-2.0000 F9000.00
G1 X2.5000 Y50.0879 Z-2.0000 F9000.00
G1 X2.5000 Y52.9163 Z-2.0000 F9000.00
G1 X1.0000 Y51.4163 Z-2.0000 F9000.00
G1 X1.0000 Y54.2447 Z-2.0000 F9000.00
G1 X2.5000 Y55.7447 Z-2.0000 F9000.00
G1 X2.5000 Y58.5732 Z-2.0000 F9000.00
G1 X1.0000 Y57.0732 Z-2.0000 F9000.00
G1 X1.0000 Y59.9016 Z-2.0000 F9000.00
G1 X2.5000 Y61.4016 Z-2.0000 F9000.00
G1 X2.5000 Y64.2300 Z-2.0000 F9000.00
G1 X1.0000 Y62.7300 Z-2.0000 F9000.00
G1 X1.0000 Y65.5584 Z-2.0000 F9000.00
G1 X2.5000 Y67.0584 Z-2.0000 F9000.00
G1 X2.5000 Y69.8869 Z-2.0000 F9000.00
G1 X1.0000 Y68.3869 Z-2.0000 F9000.00
G1 X1.0000 Y71.2153 Z-2.0000 F9000.00
G1 X2.5000 Y72.7153 Z-2.0000 F9000.00
G1 X2.5000 Y75.5437 Z-2.0000 F9000.00
G1 X1.0000 Y74.0437 Z-2.0000 F9000.00
G1 X1.0000 Y76.8721 Z-2.0000 F9000.00
G1 X2.5000 Y78.3721 Z-2.0000 F9000.00
G1 X2.5000 Y81.2006 Z-2.0000 F9000.00
G1 X1.0000 Y79.7006 Z-2.0000 F9000.00
G1 X1.0000 Y82.5290 Z-2.0000 F9000.00
G1 X2.5004 Y84.0295 Z-2.0000 F9000.00
G2 X3.7081 Y88.0655 Z-2.0000 I7.3851 J-0.0110 F9000.00
G1 X1.0000 Y85.3574 Z-2.0000 F9000.00
G0 X1.0000 Y85.3574 Z5.0000
G0 X1.0000 Y93.8427 Z5.0000
G0 X1.0000 Y93.8427 Z1.0000
G1 X1.0000 Y93.8427 Z-2.0000 F9000.00
G1 X2.1573 Y95.0000 Z-2.0000 F9000.00
G1 X1.0000 Y95.0000 Z-2.0000 F9000.00
G1 X1.0000 Y93.8427 Z-2.0000 F9000.00
G1 X1.0000 Y91.0143 Z-2.0000 F9000.00
G1 X4.9857 Y95.0000 Z-2.0000 F9000.00
G1 X7.8141 Y95.0000 Z-2.0000 F9000.00
G1 X1.0000 Y88.1859 Z-2.0000 F9000.00
G1 X1.0000 Y85.3574 Z-2.0000 F9000.00
G1 X3.7081 Y88.0655 Z-2.0000 F9000.00
G2 X5.9345 Y90.2919 Z-2.0000 I6.0480 J-3.8215 F9000.00
G1 X10.6426 Y95.0000 Z-2.0000 F9000.00
G1 X13.4710 Y95.0000 Z-2.0000 F9000.00
G1 X9.9705 Y91.4996 Z-2.0000 F9000.00
G2 X12.7994 Y91.5000 Z-2.0000 I1.4246 J-63.6235 F9000.00
G1 X16.2994 Y95.0000 Z-2.0000 F9000.00
G1 X19.1279 Y95.0000 Z-2.0000 F9000.00
G1 X15.6279 Y91.5000 Z-2.0000 F9000.00
G1 X18.4563 Y91.5000 Z-2.0000 F9000.00
G1 X21.9563 Y95.0000 Z-2.0000 F9000.00
G1 X24.7847 Y95.0000 Z-2.0000 F9000.00
G1 X21.2847 Y91.5000 Z-2.0000 F9000.00
G1 X24.1131 Y91.5000 Z-2.0000 F9000.00
G1 X27.6131 Y95.0000 Z-2.0000 F9000.00
G1 X30.4416 Y95.0000 Z-2.0000 F9000.00
G1 X26.9416 Y91.5000 Z-2.0000 F9000.00
G1 X29.7700 Y91.5000 Z-2.0000 F9000.00
G1 X33.2700 Y95.0000 Z-2.0000 F9000.00
G1 X36.0984 Y95.0000 Z-2.0000 F9000.00
G1 X32.5984 Y91.5000 Z-2.0000 F9000.00
G1 X35.4268 Y91.5000 Z-2.0000 F9000.00
G1 X38.9268 Y95.0000 Z-2.0000 F9000.00
G1 X41.7553 Y95.0000 Z-2.0000 F9000.00
G1 X38.2553 Y91.5000 Z-2.0000 F9000.00
G1 X41.0837 Y91.5000 Z-2.0000 F9000.00
G1 X44.5837 Y95.0000 Z-2.0000 F9000.00
G1 X47.4121 Y95.0000 Z-2.0000 F9000.00
G1 X43.9121 Y91.5000 Z-2.0000 F9000.00
G1 X46.7405 Y91.5000 Z-2.0000 F9000.00
G1 X50.2405 Y95.0000 Z-2.0000 F9000.00
G1 X53.0690 Y95.0000 Z-2.0000 F9000.00
G1 X49.5690 Y91.5000 Z-2.0000 F9000.00
G1 X52.3974 Y91.5000 Z-2.0000 F9000.00
G1 X55.8974 Y95.0000 Z-2.0000 F9000.00
G1 X58.7258 Y95.0000 Z-2.0000 F9000.00
G1 X55.2258 Y91.5000 Z-2.0000 F9000.00
G1 X58.0543 Y91.5000 Z-2.0000 F9000.00
G1 X61.5543 Y95.0000 Z-2.0000 F9000.00
G1 X64.3827 Y95.0000 Z-2.0000 F9000.00
G1 X60.8827 Y91.5000 Z-2.0000 F9000.00
G1 X63.7111 Y91.5000 Z-2.0000 F9000.00
G1 X67.2111 Y95.0000 Z-2.0000 F9000.00
G1 X70.0395 Y95.0000 Z-2.0000 F9000.00
G1 X66.5395 Y91.5000 Z-2.0000 F9000.00
G1 X69.3680 Y91.5000 Z-2.0000 F9000.00
G1 X72.8680 Y95.0000 Z-2.0000 F9000.00
G1 X75.6964 Y95.0000 Z-2.0000 F9000.00
G1 X72.1964 Y91.5000 Z-2.0000 F9000.00
G1 X75.0248 Y91.5000 Z-2.0000 F9000.00
G1 X78.5248 Y95.0000 Z-2.0000 F9000.00
G1 X81.3532 Y95.0000 Z-2.0000 F9000.00
G1 X77.8532 Y91.5000 Z-2.0000 F9000.00
G1 X80.6817 Y91.5000 Z-2.0000 F9000.00
G1 X84.1817 Y95.0000 Z-2.0000 F9000.00
G1 X87.0101 Y95.0000 Z-2.0000 F9000.00
G1 X83.5101 Y91.5000 Z-2.0000 F9000.00
G1 X86.3385 Y91.5000 Z-2.0000 F9000.00
G1 X89.8385 Y95.0000 Z-2.0000 F9000.00
G1 X92.6670 Y95.0000 Z-2.0000 F9000.00
G1 X89.1670 Y91.5000 Z-2.0000 F9000.00
G1 X91.9954 Y91.5000 Z-2.0000 F9000.00
G1 X95.4954 Y95.0000 Z-2.0000 F9000.00
G1 X98.3238 Y95.0000 Z-2.0000 F9000.00
G1 X94.8238 Y91.5000 Z-2.0000 F9000.00
G1 X97.6522 Y91.5000 Z-2.0000 F9000.00
G1 X101.1522 Y95.0000 Z-2.0000 F9000.00
G1 X103.9807 Y95.0000 Z-2.0000 F9000.00
G1 X100.4807 Y91.5000 Z-2.0000 F9000.00
G1 X103.3091 Y91.5000 Z-2.0000 F9000.00
G1 X106.8091 Y95.0000 Z-2.0000 F9000.00
G1 X109.6375 Y95.0000 Z-2.0000 F9000.00
G1 X106.1375 Y91.5000 Z-2.0000 F9000.00
G1 X108.9659 Y91.5000 Z-2.0000 F9000.00
G1 X112.4659 Y95.0000 Z-2.0000 F9000.00
G1 X115.2944 Y95.0000 Z-2.0000 F9000.00
G1 X111.7944 Y91.5000 Z-2.0000 F9000.00
G1 X114.6228 Y91.5000 Z-2.0000 F9000.00
G1 X118.1228 Y95.0000 Z-2.0000 F9000.00
G1 X120.9512 Y95.0000 Z-2.0000 F9000.00
G1 X117.4512 Y91.5000 Z-2.0000 F9000.00
G1 X120.2797 Y91.5000 Z-2.0000 F9000.00
G1 X123.7797 Y95.0000 Z-2.0000 F9000.00
G1 X126.6081 Y95.0000 Z-2.0000 F9000.00
G1 X123.1081 Y91.5000 Z-2.0000 F9000.00
G1 X125.9365 Y91.5000 Z-2.0000 F9000.00
G1 X129.4365 Y95.0000 Z-2.0000 F9000.00
G1 X132.2649 Y95.0000 Z-2.0000 F9000.00
G1 X128.7649 Y91.5000 Z-2.0000 F9000.00
G1 X131.5934 Y91.5000 Z-2.0000 F9000.00
G1 X135.0934 Y95.0000 Z-2.0000 F9000.00
G1 X137.9218 Y95.0000 Z-2.0000 F9000.00
G1 X134.4218 Y91.5000 Z-2.0000 F9000.00
G1 X137.2502 Y91.5000 Z-2.0000 F9000.00
G1 X140.7502 Y95.0000 Z-2.0000 F9000.00
G1 X143.5786 Y95.0000 Z-2.0000 F9000.00
G1 X140.0786 Y91.5000 Z-2.0000 F9000.00
G1 X142.9071 Y91.5000 Z-2.0000 F9000.00
G1 X146.4071 Y95.0000 Z-2.0000 F9000.00
G1 X149.2355 Y95.0000 Z-2.0000 F9000.00
G1 X145.7355 Y91.5000 Z-2.0000 F9000.00
G1 X148.5639 Y91.5000 Z-2.0000 F9000.00
G1 X152.0639 Y95.0000 Z-2.0000 F9000.00
G1 X154.8924 Y95.0000 Z-2.0000 F9000.00
G1 X151.3924 Y91.5000 Z-2.0000 F9000.00
G1 X154.2208 Y91.5000 Z-2.0000 F9000.00
G1 X157.7208 Y95.0000 Z-2.0000 F9000.00
G1 X160.5492 Y95.0000 Z-2.0000 F9000.00
G1 X157.0492 Y91.5000 Z-2.0000 F9000.00
G1 X159.8776 Y91.5000 Z-2.0000 F9000.00
G1 X163.3776 Y95.0000 Z-2.0000 F9000.00
G1 X166.2061 Y95.0000 Z-2.0000 F9000.00
G1 X162.7061 Y91.5000 Z-2.0000 F9000.00
G1 X165.5345 Y91.5000 Z-2.0000 F9000.00
G1 X169.0345 Y95.0000 Z-2.0000 F9000.00
G1 X171.8629 Y95.0000 Z-2.0000 F9000.00
G1 X168.3629 Y91.5000 Z-2.0000 F9000.00
G1 X171.1913 Y91.5000 Z-2.0000 F9000.00
G1 X174.6913 Y95.0000 Z-2.0000 F9000.00
G1 X177.5198 Y95.0000 Z-2.0000 F9000.00
G1 X174.0198 Y91.5000 Z-2.0000 F9000.00
G1 X176.8482 Y91.5000 Z-2.0000 F9000.00
G1 X180.3482 Y95.0000 Z-2.0000 F9000.00
G1 X183.1766 Y95.0000 Z-2.0000 F9000.00
G1 X179.6766 Y91.5000 Z-2.0000 F9000.00
G1 X182.0000 Y91.5000 Z-2.0000 F9000.00
G2 X182.4812 Y91.4762 Z-2.0000 I-0.0688 J-6.2548 F9000.00
G1 X186.0051 Y95.0000 Z-2.0000 F9000.00
G1 X188.8335 Y95.0000 Z-2.0000 F9000.00
G1 X184.7875 Y90.9540 Z-2.0000 F9000.00
G2 X186.5868 Y89.9249 Z-2.0000 I-2.4293 J-6.3350 F9000.00
G1 X191.0000 Y94.3381 Z-2.0000 F9000.00
G1 X191.0000 Y91.5097 Z-2.0000 F9000.00
G1 X187.9930 Y88.5027 Z-2.0000 F9000.00
G2 X188.9963 Y86.6775 Z-2.0000 I-5.4845 J-4.2029 F9000.00
G1 X191.0000 Y88.6812 Z-2.0000 F9000.00
G1 X191.0000 Y85.8528 Z-2.0000 F9000.00
G1 X189.4837 Y84.3365 Z-2.0000 F9000.00
G2 X189.4992 Y84.0393 Z-2.0000 I-22.6996 J-1.3321 F9000.00
G2 X189.5000 Y81.5244 Z-2.0000 I-48.0797 J-1.2722 F9000.00
G1 X191.0000 Y83.0244 Z-2.0000 F9000.00
G1 X191.0000 Y80.1960 Z-2.0000 F9000.00
G1 X189.5000 Y78.6960 Z-2.0000 F9000.00
G1 X189.5000 Y75.8675 Z-2.0000 F9000.00
G1 X191.0000 Y77.3675 Z-2.0000 F9000.00
G1 X191.0000 Y74.5391 Z-2.0000 F9000.00
G1 X189.5000 Y73.0391 Z-2.0000 F9000.00
G1 X189.5000 Y70.2107 Z-2.0000 F9000.00
G1 X191.0000 Y71.7107 Z-2.0000 F9000.00
G1 X191.0000 Y68.8823 Z-2.0000 F9000.00
G1 X189.5000 Y67.3823 Z-2.0000 F9000.00
G1 X189.5000 Y64.5538 Z-2.0000 F9000.00
G1 X191.0000 Y66.0538 Z-2.0000 F9000.00
G1 X191.0000 Y63.2254 Z-2.0000 F9000.00
G1 X189.5000 Y61.7254 Z-2.0000 F9000.00
G1 X189.5000 Y58.8970 Z-2.0000 F9000.00
G1 X191.0000 Y60.3970 Z-2.0000 F9000.00
G1 X191.0000 Y57.5685 Z-2.0000 F9000.00
G1 X189.5000 Y56.0685 Z-2.0000 F9000.00
G1 X189.5000 Y53.2401 Z-2.0000 F9000.00
G1 X191.0000 Y54.7401 Z-2.0000 F9000.00
G1 X191.0000 Y51.9117 Z-2.0000 F9000.00
G1 X189.5000 Y50.4117 Z-2.0000 F9000.00
G1 X189.5000 Y47.5833 Z-2.0000 F9000.00
G1 X191.0000 Y49.0833 Z-2.0000 F9000.00
G1 X191.0000 Y46.2548 Z-2.0000 F9000.00
G1 X189.5000 Y44.7548 Z-2.0000 F9000.00
G1 X189.5000 Y41.9264 Z-2.0000 F9000.00
G1 X191.0000 Y43.4264 Z-2.0000 F9000.00
G1 X191.0000 Y40.5980 Z-2.0000 F9000.00
G1 X189.5000 Y39.0980 Z-2.0000 F9000.00
G1 X189.5000 Y36.2696 Z-2.0000 F9000.00
G1 X191.0000 Y37.7696 Z-2.0000 F9000.00
G1 X191.0000 Y34.9411 Z-2.0000 F9000.00
G1 X189.5000 Y33.4411 Z-2.0000 F9000.00
G1 X189.5000 Y30.6127 Z-2.0000 F9000.00
G1 X191.0000 Y32.1127 Z-2.0000 F9000.00
G1 X191.0000 Y29.2843 Z-2.0000 F9000.00
G1 X189.5000 Y27.7843 Z-2.0000 F9000.00
G1 X189.5000 Y24.9558 Z-2.0000 F9000.00
G1 X191.0000 Y26.4558 Z-2.0000 F9000.00
G1 X191.0000 Y23.6274 Z-2.0000 F9000.00
G1 X189.5000 Y22.1274 Z-2.0000 F9000.00
G1 X189.5000 Y19.2990 Z-2.0000 F9000.00
G1 X191.0000 Y20.7990 Z-2.0000 F9000.00
G1 X191.0000 Y17.9706 Z-2.0000 F9000.00
G1 X189.5000 Y16.4706 Z-2.0000 F9000.00
G1 X189.5000 Y13.6421 Z-2.0000 F9000.00
G1 X191.0000 Y15.1421 Z-2.0000 F9000.00
G1 X191.0000 Y12.3137 Z-2.0000 F9000.00
G1 X189.3771 Y10.6908 Z-2.0000 F9000.00
G1 X189.3771 Y10.6908 Z-2.5000 F9000.00
G1 X191.0000 Y12.3137 Z-2.5000 F9000.00
G1 X191.0000 Y15.1421 Z-2.5000 F9000.00
G1 X189.5000 Y13.6421 Z-2.5000 F9000.00
G1 X189.5000 Y16.4706 Z-2.5000 F9000.00
G1 X191.0000 Y17.9706 Z-2.5000 F9000.00
G1 X191.0000 Y20.7990 Z-2.5000 F9000.00
G1 X189.5000 Y19.2990 Z-2.5000 F9000.00
G1 X189.5000 Y22.1274 Z-2.5000 F9000.00
G1 X191.0000 Y23.6274 Z-2.5000 F9000.00
G1 X191.0000 Y26.4558 Z-2.5000 F9000.00
G1 X189.5000 Y24.9558 Z-2.5000 F9000.00
G1 X189.5000 Y27.7843 Z-2.5000 F9000.00
G1 X191.0000 Y29.2843 Z-2.5000 F9000.00
G1 X191.0000 Y32.1127 Z-2.5000 F9000.00
G1 X189.5000 Y30.6127 Z-2.5000 F9000.00
G1 X189.5000 Y33.4411 Z-2.5000 F9000.00
G1 X191.0000 Y34.9411 Z-2.5000 F9000.00
G1 X191.0000 Y37.7696 Z-2.5000 F9000.00
G1 X189.5000 Y36.2696 Z-2.5000 F9000.00
G1 X189.5000 Y39.0980 Z-2.5000 F9000.00
G1 X191.0000 Y40.5980 Z-2.5000 F9000.00
G1 X191.0000 Y43.4264 Z-2.5000 F9000.00
G1 X189.5000 Y41.9264 Z-2.5000 F9000.00
G1 X189.5000 Y44.7548 Z-2.5000 F9000.00
G1 X191.0000 Y46.2548 Z-2.5000 F9000.00
G1 X191.0000 Y49.0833 Z-2.5000 F9000.00
G1 X189.5000 Y47.5833 Z-2.5000 F9000.00
G1 X189.5000 Y50.4117 Z-2.5000 F9000.00
G1 X191.0000 Y51.9117 Z-2.5000 F9000.00
G1 X191.0000 Y54.7401 Z-2.5000 F9000.00
G1 X189.5000 Y53.2401 Z-2.5000 F9000.00
G1 X189.5000 Y56.0685 Z-2.5000 F9000.00
G1 X191.0000 Y57.5685 Z-2.5000 F9000.00
G1 X191.0000 Y60.3970 Z-2.5000 F9000.00
G1 X189.5000 Y58.8970 Z-2.5000 F9000.00
G1 X189.5000 Y61.7254 Z-2.5000 F9000.00
G1 X191.0000 Y63.2254 Z-2.5000 F9000.00
G1 X191.0000 Y66.0538 Z-2.5000 F9000.00
G1 X189.5000 Y64.5538 Z-2.5000 F9000.00
G1 X189.5000 Y67.3823 Z-2.5000 F9000.00
G1 X191.0000 Y68.8823 Z-2.5000 F9000.00
G1 X191.0000 Y71.7107 Z-2.5000 F9000.00
G1 X189.5000 Y70.2107 Z-2.5000 F9000.00
G1 X189.5000 Y73.0391 Z-2.5000 F9000.00
G1 X191.0000 Y74.5391 Z-2.5000 F9000.00
G1 X191.0000 Y77.3675 Z-2.5000 F9000.00
G1 X189.5000 Y75.8675 Z-2.5000 F9000.00
G1 X189.5000 Y78.6960 Z-2.5000 F9000.00
G1 X191.0000 Y80.1960 Z-2.5000 F9000.00
G1 X191.0000 Y83.0244 Z-2.5000 F9000.00
G1 X189.5000 Y81.5244 Z-2.5000 F9000.00
G3 X189.4992 Y84.0393 Z-2.5000 I-48.0805 J1.2427 F9000.00
G3 X189.4837 Y84.3365 Z-2.5000 I-22.7151 J-1.0348 F9000.00
G1 X191.0000 Y85.8528 Z-2.5000 F9000.00
G1 X191.0000 Y88.6812 Z-2.5000 F9000.00
G1 X188.9963 Y86.6775 Z-2.5000 F9000.00
G3 X187.9930 Y88.5027 Z-2.5000 I-6.4877 J-2.3777 F9000.00
G1 X191.0000 Y91.5097 Z-2.5000 F9000.00
G1 X191.0000 Y94.3381 Z-2.5000 F9000.00
G1 X186.5868 Y89.9249 Z-2.5000 F9000.00
G3 X184.7875 Y90.9540 Z-2.5000 I-4.2286 J-5.3059 F9000.00
G1 X188.8335 Y95.0000 Z-2.5000 F9000.00
G1 X186.0051 Y95.0000 Z-2.5000 F9000.00
G1 X182.4812 Y91.4762 Z-2.5000 F9000.00
G3 X182.0000 Y91.5000 Z-2.5000 I-0.5500 J-6.2310 F9000.00
G1 X179.6766 Y91.5000 Z-2.5000 F9000.00
G1 X183.1766 Y95.0000 Z-2.5000 F9000.00
G1 X180.3482 Y95.0000 Z-2.5000 F9000.00
G1 X176.8482 Y91.5000 Z-2.5000 F9000.00
G1 X174.0198 Y91.5000 Z-2.5000 F9000.00
G1 X177.5198 Y95.0000 Z-2.5000 F9000.00
G1 X174.6913 Y95.0000 Z-2.5000 F9000.00
G1 X171.1913 Y91.5000 Z-2.5000 F9000.00
G1 X168.3629 Y91.5000 Z-2.5000 F9000.00
G1 X171.8629 Y95.0000 Z-2.5000 F9000.00
G1 X169.0345 Y95.0000 Z-2.5000 F9000.00
G1 X165.5345 Y91.5000 Z-2.5000 F9000.00
G1 X162.7061 Y91.5000 Z-2.5000 F9000.00
G1 X166.2061 Y95.0000 Z-2.5000 F9000.00
G1 X163.3776 Y95.0000 Z-2.5000 F9000.00
G1 X159.8776 Y91.5000 Z-2.5000 F9000.00
G1 X157.0492 Y91.5000 Z-2.5000 F9000.00
G1 X160.5492 Y95.0000 Z-2.5000 F9000.00
G1 X157.7208 Y95.0000 Z-2.5000 F9000.00
G1 X154.2208 Y91.5000 Z-2.5000 F9000.00
G1 X151.3924 Y91.5000 Z-2.5000 F9000.00
G1 X154.8924 Y95.0000 Z-2.5000 F9000.00
G1 X152.0639 Y95.0000 Z-2.5000 F9000.00
G1 X148.5639 Y91.5000 Z-2.5000 F9000.00
G1 X145.7355 Y91.5000 Z-2.5000 F9000.00
G1 X149.2355 Y95.0000 Z-2.5000 F9000.00
G1 X146.4071 Y95.0000 Z-2.5000 F9000.00
G1 X142.9071 Y91.5000 Z-2.5000 F9000.00
G1 X140.0786 Y91.5000 Z-2.5000 F9000.00
G1 X143.5786 Y95.0000 Z-2.5000 F9000.00
G1 X140.7502 Y95.0000 Z-2.5000 F9000.00
G1 X137.2502 Y91.5000 Z-2.5000 F9000.00
G1 X134.4218 Y91.5000 Z-2.5000 F9000.00
G1 X137.9218 Y95.0000 Z-2.5000 F9000.00
G1 X135.0934 Y95.0000 Z-2.5000 F9000.00
G1 X131.5934 Y91.5000 Z-2.5000 F9000.00
G1 X128.7649 Y91.5000 Z-2.5000 F9000.00
G1 X132.2649 Y95.0000 Z-2.5000 F9000.00
G1 X129.4365 Y95.0000 Z-2.5000 F9000.00
G1 X125.9365 Y91.5000 Z-2.5000 F9000.00
G1 X123.1081 Y91.5000 Z-2.5000 F9000.00
G1 X126.6081 Y95.0000 Z-2.5000 F9000.00
G1 X123.7797 Y95.0000 Z-2.5000 F9000.00
G1 X120.2797 Y91.5000 Z-2.5000 F9000.00
G1 X117.4512 Y91.5000 Z-2.5000 F9000.00
G1 X120.9512 Y95.0000 Z-2.5000 F9000.00
G1 X118.1228 Y95.0000 Z-2.5000 F9000.00
G1 X114.6228 Y91.5000 Z-2.5000 F9000.00
G1 X111.7944 Y91.5000 Z-2.5000 F9000.00
G1 X115.2944 Y95.0000 Z-2.5000 F9000.00
G1 X112.4659 Y95.0000 Z-2.5000 F9000.00
G1 X108.9659 Y91.5000 Z-2.5000 F9000.00
G1 X106.1375 Y91.5000 Z-2.5000 F9000.00
G1 X109.6375 Y95.0000 Z-2.5000 F9000.00
G1 X106.8091 Y95.0000 Z-2.5000 F9000.00
G1 X103.3091 Y91.5000 Z-2.5000 F9000.00
G1 X100.4807 Y91.5000 Z-2.5000 F9000.00
G1 X103.9807 Y95.0000 Z-2.5000 F9000.00
G1 X101.1522 Y95.0000 Z-2.5000 F9000.00
G1 X97.6522 Y91.5000 Z-2.5000 F9000.00
G1 X94.8238 Y91.5000 Z-2.5000 F9000.00
G1 X98.3238 Y95.0000 Z-2.5000 F9000.00
G1 X95.4954 Y95.0000 Z-2.5000 F9000.00
G1 X91.9954 Y91.5000 Z-2.5000 F9000.00
G1 X89.1670 Y91.5000 Z-2.5000 F9000.00
G1 X92.6670 Y95.0000 Z-2.5000 F9000.00
G1 X89.8385 Y95.0000 Z-2.5000 F9000.00
G1 X86.3385 Y91.5000 Z-2.5000 F9000.00
G1 X83.5101 Y91.5000 Z-2.5000 F9000.00
G1 X87.0101 Y95.0000 Z-2.5000 F9000.00
G1 X84.1817 Y95.0000 Z-2.5000 F9000.00
G1 X80.6817 Y91.5000 Z-2.5000 F9000.00
G1 X77.8532 Y91.5000 Z-2.5000 F9000.00
G1 X81.3532 Y95.0000 Z-2.5000 F9000.00
G1 X78.5248 Y95.0000 Z-2.5000 F9000.00
G1 X75.0248 Y91.5000 Z-2.5000 F9000.00
G1 X72.1964 Y91.5000 Z-2.5000 F9000.00
G1 X75.6964 Y95.0000 Z-2.5000 F9000.00
G1 X72.8680 Y95.0000 Z-2.5000 F9000.00
G1 X69.3680 Y91.5000 Z-2.5000 F9000.00
G1 X66.5395 Y91.5000 Z-2.5000 F9000.00
G1 X70.0395 Y95.0000 Z-2.5000 F9000.00
G1 X67.2111 Y95.0000 Z-2.5000 F9000.00
G1 X63.7111 Y91.5000 Z-2.5000 F9000.00
G1 X60.8827 Y91.5000 Z-2.5000 F9000.00
G1 X64.3827 Y95.0000 Z-2.5000 F9000.00
G1 X61.5543 Y95.0000 Z-2.5000 F9000.00
G1 X58.0543 Y91.5000 Z-2.5000 F9000.00
G1 X55.2258 Y91.5000 Z-2.5000 F9000.00
G1 X58.7258 Y95.0000 Z-2.5000 F9000.00
G1 X55.8974 Y95.0000 Z-2.5000 F9000.00
G1 X52.3974 Y91.5000 Z-2.5000 F9000.00
G1 X49.5690 Y91.5000 Z-2.5000 F9000.00
G1 X53.0690 Y95.0000 Z-2.5000 F9000.00
G1 X50.2405 Y95.0000 Z-2.5000 F9000.00
G1 X46.7405 Y91.5000 Z-2.5000 F9000.00
G1 X43.9121 Y91.5000 Z-2.5000 F9000.00
G1 X47.4121 Y95.0000 Z-2.5000 F9000.00
G1 X44.5837 Y95.0000 Z-2.5000 F9000.00
G1 X41.0837 Y91.5000 Z-2.5000 F9000.00
G1 X38.2553 Y91.5000 Z-2.5000 F9000.00
G1 X41.7553 Y95.0000 Z-2.5000 F9000.00
G1 X38.9268 Y95.0000 Z-2.5000 F9000.00
G1 X35.4268 Y91.5000 Z-2.5000 F9000.00
G1 X32.5984 Y91.5000 Z-2.5000 F9000.00
G1 X36.0984 Y95.0000 Z-2.5000 F9000.00
G1 X33.2700 Y95.0000 Z-2.5000 F9000.00
G1 X29.7700 Y91.5000 Z-2.5000 F9000.00
G1 X26.9416 Y91.5000 Z-2.5000 F9000.00
G1 X30.4416 Y95.0000 Z-2.5000 F9000.00
G1 X27.6131 Y95.0000 Z-2.5000 F9000.00
G1 X24.1131 Y91.5000 Z-2.5000 F9000.00
G1 X21.2847 Y91.5000 Z-2.5000 F9000.00
G1 X24.7847 Y95.0000 Z-2.5000 F9000.00
G1 X21.9563 Y95.0000 Z-2.5000 F9000.00
G1 X18.4563 Y91.5000 Z-2.5000 F9000.00
G1 X15.6279 Y91.5000 Z-2.5000 F9000.00
G1 X19.1279 Y95.0000 Z-2.5000 F9000.00
G1 X16.2994 Y95.0000 Z-2.5000 F9000.00
G1 X12.7994 Y91.5000 Z-2.5000 F9000.00
G3 X9.9705 Y91.4996 Z-2.5000 I-1.4043 J-63.6239 F9000.00
G1 X13.4710 Y95.0000 Z-2.5000 F9000.00
G1 X10.6426 Y95.0000 Z-2.5000 F9000.00
G1 X5.9345 Y90.2919 Z-2.5000 F9000.00
G3 X3.7081 Y88.0655 Z-2.5000 I3.8215 J-6.0480 F9000.00
G1 X1.0000 Y85.3574 Z-2.5000 F9000.00
G1 X1.0000 Y88.1859 Z-2.5000 F9000.00
G1 X7.8141 Y95.0000 Z-2.5000 F9000.00
G1 X4.9857 Y95.0000 Z-2.5000 F9000.00
G1 X1.0000 Y91.0143 Z-2.5000 F9000.00
G1 X1.0000 Y93.8427 Z-2.5000 F9000.00
G1 X1.0000 Y95.0000 Z-2.5000 F9000.00
G1 X2.1573 Y95.0000 Z-2.5000 F9000.00
G1 X1.0000 Y93.8427 Z-2.5000 F9000.00
G0 X1.0000 Y93.8427 Z5.0000
G0 X1.0000 Y85.3574 Z5.0000
G0 X1.0000 Y85.3574 Z0.5000
G1 X1.0000 Y85.3574 Z-2.5000 F9000.00
G1 X3.7081 Y88.0655 Z-2.5000 F9000.00
G3 X2.5004 Y84.0295 Z-2.5000 I6.1775 J-4.0470 F9000.00
G1 X1.0000 Y82.5290 Z-2.5000 F9000.00
G1 X1.0000 Y79.7006 Z-2.5000 F9000.00
G1 X2.5000 Y81.2006 Z-2.5000 F9000.00
G1 X2.5000 Y78.3721 Z-2.5000 F9000.00
G1 X1.0000 Y76.8721 Z-2.5000 F9000.00
G1 X1.0000 Y74.0437 Z-2.5000 F9000.00
G1 X2.5000 Y75.5437 Z-2.5000 F9000.00
G1 X2.5000 Y72.7153 Z-2.5000 F9000.00
G1 X1.0000 Y71.2153 Z-2.5000 F9000.00
G1 X1.0000 Y68.3869 Z-2.5000 F9000.00
G1 X2.5000 Y69.8869 Z-2.5000 F9000.00
G1 X2.5000 Y67.0584 Z-2.5000 F9000.00
G1 X1.0000 Y65.5584 Z-2.5000 F9000.00
G1 X1.0000 Y62.7300 Z-2.5000 F9000.00
G1 X2.5000 Y64.2300 Z-2.5000 F9000.00
G1 X2.5000 Y61.4016 Z-2.5000 F9000.00
G1 X1.0000 Y59.9016 Z-2.5000 F9000.00
G1 X1.0000 Y57.0732 Z-2.5000 F9000.00
G1 X2.5000 Y58.5732 Z-2.5000 F9000.00
G1 X2.5000 Y55.7447 Z-2.5000 F9000.00
G1 X1.0000 Y54.2447 Z-2.5000 F9000.00
G1 X1.0000 Y51.4163 Z-2.5000 F9000.00
G1 X2.5000 Y52.9163 Z-2.5000 F9000.00
G1 X2.5000 Y50.0879 Z-2.5000 F9000.00
G1 X1.0000 Y48.5879 Z-2.5000 F9000.00
G1 X1.0000 Y45.7595 Z-2.5000 F9000.00
G1 X2.5000 Y47.2595 Z-2.5000 F9000.00
G1 X2.5000 Y44.4310 Z-2.5000 F9000.00
G1 X1.0000 Y42.9310 Z-2.5000 F9000.00
G1 X1.0000 Y40.1026 Z-2.5000 F9000.00
G1 X2.5000 Y41.6026 Z-2.5000 F9000.00
G1 X2.5000 Y38.7742 Z-2.5000 F9000.00
G1 X1.0000 Y37.2742 Z-2.5000 F9000.00
G1 X1.0000 Y34.4457 Z-2.5000 F9000.00
G1 X2.5000 Y35.9457 Z-2.5000 F9000.00
G1 X2.5000 Y33.1173 Z-2.5000 F9000.00
G1 X1.0000 Y31.6173 Z-2.5000 F9000.00
G1 X1.0000 Y28.7889 Z-2.5000 F9000.00
G1 X2.5000 Y30.2889 Z-2.5000 F9000.00
G1 X2.5000 Y27.4605 Z-2.5000 F9000.00
G1 X1.0000 Y25.9605 Z-2.5000 F9000.00
G1 X1.0000 Y23.1320 Z-2.5000 F9000.00
G1 X2.5000 Y24.6320 Z-2.5000 F9000.00
G1 X2.5000 Y21.8036 Z-2.5000 F9000.00
G1 X1.0000 Y20.3036 Z-2.5000 F9000.00
G1 X1.0000 Y17.4752 Z-2.5000 F9000.00
G1 X2.5000 Y18.9752 Z-2.5000 F9000.00
G1 X2.5000 Y16.1468 Z-2.5000 F9000.00
G1 X1.0000 Y14.6468 Z-2.5000 F9000.00
G1 X1.0000 Y11.8183 Z-2.5000 F9000.00
G1 X2.5000 Y13.3183 Z-2.5000 F9000.00
G3 X2.6336 Y10.6235 Z-2.5000 I13.7033 J-0.6716 F9000.00
G1 X1.0000 Y8.9899 Z-2.5000 F9000.00
G1 X1.0000 Y6.1615 Z-2.5000 F9000.00
G1 X3.3633 Y8.5248 Z-2.5000 F9000.00
G3 X4.5365 Y6.8695 Z-2.5000 I6.0991 J3.0796 F9000.00
G1 X1.0000 Y3.3330 Z-2.5000 F9000.00
G1 X1.0000 Y1.0000 Z-2.5000 F9000.00
G1 X1.4954 Y1.0000 Z-2.5000 F9000.00
G1 X6.0976 Y5.6022 Z-2.5000 F9000.00
G3 X8.0823 Y4.7585 Z-2.5000 I3.6413 J5.8098 F9000.00
G1 X4.3238 Y1.0000 Z-2.5000 F9000.00
G1 X7.1522 Y1.0000 Z-2.5000 F9000.00
G1 X10.6522 Y4.5000 Z-2.5000 F9000.00
G1 X13.4807 Y4.5000 Z-2.5000 F9000.00
G1 X9.9807 Y1.0000 Z-2.5000 F9000.00
G1 X12.8091 Y1.0000 Z-2.5000 F9000.00
G1 X16.3091 Y4.5000 Z-2.5000 F9000.00
G1 X19.1375 Y4.5000 Z-2.5000 F9000.00
G1 X15.6375 Y1.0000 Z-2.5000 F9000.00
G1 X18.4659 Y1.0000 Z-2.5000 F9000.00
G1 X21.9659 Y4.5000 Z-2.5000 F9000.00
G1 X24.7944 Y4.5000 Z-2.5000 F9000.00
G1 X21.2944 Y1.0000 Z-2.5000 F9000.00
G1 X24.1228 Y1.0000 Z-2.5000 F9000.00
G1 X27.6228 Y4.5000 Z-2.5000 F9000.00
G1 X30.4512 Y4.5000 Z-2.5000 F9000.00
G1 X26.9512 Y1.0000 Z-2.5000 F9000.00
G1 X29.7797 Y1.0000 Z-2.5000 F9000.00
G1 X33.2797 Y4.5000 Z-2.5000 F9000.00
G1 X36.1081 Y4.5000 Z-2.5000 F9000.00
G1 X32.6081 Y1.0000 Z-2.5000 F9000.00
G1 X35.4365 Y1.0000 Z-2.5000 F9000.00
G1 X38.9365 Y4.5000 Z-2.5000 F9000.00
G1 X41.7649 Y4.5000 Z-2.5000 F9000.00
G1 X38.2649 Y1.0000 Z-2.5000 F9000.00
G1 X41.0934 Y1.0000 Z-2.5000 F9000.00
G1 X44.5934 Y4.5000 Z-2.5000 F9000.00
G1 X47.4218 Y4.5000 Z-2.5000 F9000.00
G1 X43.9218 Y1.0000 Z-2.5000 F9000.00
G1 X46.7502 Y1.0000 Z-2.5000 F9000.00
G1 X50.2502 Y4.5000 Z-2.5000 F9000.00
G1 X53.0786 Y4.5000 Z-2.5000 F9000.00
G1 X49.5786 Y1.0000 Z-2.5000 F9000.00
G1 X52.4071 Y1.0000 Z-2.5000 F9000.00
G1 X55.9071 Y4.5000 Z-2.5000 F9000.00
G1 X58.7355 Y4.5000 Z-2.5000 F9000.00
G1 X55.2355 Y1.0000 Z-2.5000 F9000.00
G1 X58.0639 Y1.0000 Z-2.5000 F9000.00
G1 X61.5639 Y4.5000 Z-2.5000 F9000.00
G1 X64.3924 Y4.5000 Z-2.5000 F9000.00
G1 X60.8924 Y1.0000 Z-2.5000 F9000.00
G1 X63.7208 Y1.0000 Z-2.5000 F9000.00
G1 X67.2208 Y4.5000 Z-2.5000 F9000.00
G1 X70.0492 Y4.5000 Z-2.5000 F9000.00
G1 X66.5492 Y1.0000 Z-2.5000 F9000.00
G1 X69.3776 Y1.0000 Z-2.5000 F9000.00
G1 X72.8776 Y4.5000 Z-2.5000 F9000.00
G1 X75.7061 Y4.5000 Z-2.5000 F9000.00
G1 X72.2061 Y1.0000 Z-2.5000 F9000.00
G1 X75.0345 Y1.0000 Z-2.5000 F9000.00
G1 X78.5345 Y4.5000 Z-2.5000 F9000.00
G1 X81.3629 Y4.5000 Z-2.5000 F9000.00
G1 X77.8629 Y1.0000 Z-2.5000 F9000.00
G1 X80.6913 Y1.0000 Z-2.5000 F9000.00
G1 X84.1913 Y4.5000 Z-2.5000 F9000.00
G1 X87.0198 Y4.5000 Z-2.5000 F9000.00
G1 X83.5198 Y1.0000 Z-2.5000 F9000.00
G1 X86.3482 Y1.0000 Z-2.5000 F9000.00
G1 X89.8482 Y4.5000 Z-2.5000 F9000.00
G1 X92.6766 Y4.5000 Z-2.5000 F9000.00
G1 X89.1766 Y1.0000 Z-2.5000 F9000.00
G1 X92.0051 Y1.0000 Z-2.5000 F9000.00
G1 X95.5051 Y4.5000 Z-2.5000 F9000.00
G1 X98.3335 Y4.5000 Z-2.5000 F9000.00
G1 X94.8335 Y1.0000 Z-2.5000 F9000.00
G1 X97.6619 Y1.0000 Z-2.5000 F9000.00
G1 X101.1619 Y4.5000 Z-2.5000 F9000.00
G1 X103.9903 Y4.5000 Z-2.5000 F9000.00
G1 X100.4903 Y1.0000 Z-2.5000 F9000.00
G1 X103.3188 Y1.0000 Z-2.5000 F9000.00
G1 X106.8188 Y4.5000 Z-2.5000 F9000.00
G1 X109.6472 Y4.5000 Z-2.5000 F9000.00
G1 X106.1472 Y1.0000 Z-2.5000 F9000.00
G1 X108.9756 Y1.0000 Z-2.5000 F9000.00
G1 X112.4756 Y4.5000 Z-2.5000 F9000.00
G1 X115.3040 Y4.5000 Z-2.5000 F9000.00
G1 X111.8040 Y1.0000 Z-2.5000 F9000.00
G1 X114.6325 Y1.0000 Z-2.5000 F9000.00
G1 X118.1325 Y4.5000 Z-2.5000 F9000.00
G1 X120.9609 Y4.5000 Z-2.5000 F9000.00
G1 X117.4609 Y1.0000 Z-2.5000 F9000.00
G1 X120.2893 Y1.0000 Z-2.5000 F9000.00
G1 X123.7893 Y4.5000 Z-2.5000 F9000.00
G1 X126.6177 Y4.5000 Z-2.5000 F9000.00
G1 X123.1177 Y1.0000 Z-2.5000 F9000.00
G1 X125.9462 Y1.0000 Z-2.5000 F9000.00
G1 X129.4462 Y4.5000 Z-2.5000 F9000.00
G1 X132.2746 Y4.5000 Z-2.5000 F9000.00
G1 X128.7746 Y1.0000 Z-2.5000 F9000.00
G1 X131.6030 Y1.0000 Z-2.5000 F9000.00
G1 X135.1030 Y4.5000 Z-2.5000 F9000.00
G1 X137.9315 Y4.5000 Z-2.5000 F9000.00
G1 X134.4315 Y1.0000 Z-2.5000 F9000.00
G1 X137.2599 Y1.0000 Z-2.5000 F9000.00
G1 X140.7599 Y4.5000 Z-2.5000 F9000.00
G1 X143.5883 Y4.5000 Z-2.5000 F9000.00
G1 X140.0883 Y1.0000 Z-2.5000 F9000.00
G1 X142.9167 Y1.0000 Z-2.5000 F9000.00
G1 X146.4167 Y4.5000 Z-2.5000 F9000.00
G1 X149.2452 Y4.5000 Z-2.5000 F9000.00
G1 X145.7452 Y1.0000 Z-2.5000 F9000.00
G1 X148.5736 Y1.0000 Z-2.5000 F9000.00
G1 X152.0736 Y4.5000 Z-2.5000 F9000.00
G1 X154.9020 Y4.5000 Z-2.5000 F9000.00
G1 X151.4020 Y1.0000 Z-2.5000 F9000.00
G1 X154.2304 Y1.0000 Z-2.5000 F9000.00
G1 X157.7304 Y4.5000 Z-2.5000 F9000.00
G1 X160.5589 Y4.5000 Z-2.5000 F9000.00
G1 X157.0589 Y1.0000 Z-2.5000 F9000.00
G1 X159.8873 Y1.0000 Z-2.5000 F9000.00
G1 X163.3873 Y4.5000 Z-2.5000 F9000.00
G1 X166.2157 Y4.5000 Z-2.5000 F9000.00
G1 X162.7157 Y1.0000 Z-2.5000 F9000.00
G1 X165.5442 Y1.0000 Z-2.5000 F9000.00
G1 X169.0442 Y4.5000 Z-2.5000 F9000.00
G1 X171.8726 Y4.5000 Z-2.5000 F9000.00
G1 X168.3726 Y1.0000 Z-2.5000 F9000.00
G1 X171.2010 Y1.0000 Z-2.5000 F9000.00
G1 X174.7010 Y4.5000 Z-2.5000 F9000.00
G1 X177.5294 Y4.5000 Z-2.5000 F9000.00
G1 X174.0294 Y1.0000 Z-2.5000 F9000.00
G1 X176.8579 Y1.0000 Z-2.5000 F9000.00
G1 X180.3579 Y4.5000 Z-2.5000 F9000.00
G3 X183.3092 Y4.6229 Z-2.5000 I0.8347 J15.4545 F9000.00
G1 X179.6863 Y1.0000 Z-2.5000 F9000.00
G1 X182.5147 Y1.0000 Z-2.5000 F9000.00
G1 X191.0000 Y9.4853 Z-2.5000 F9000.00
G1 X191.0000 Y6.6569 Z-2.5000 F9000.00
G1 X185.3431 Y1.0000 Z-2.5000 F9000.00
G1 X188.1716 Y1.0000 Z-2.5000 F9000.00
G1 X191.0000 Y3.8284 Z-2.5000 F9000.00
G1 X191.0000 Y1.0000 Z-2.5000 F9000.00
G1 X191.0000 Y1.0000 Z-3.0000 F9000.00
G1 X191.0000 Y3.8284 Z-3.0000 F9000.00
G1 X188.1716 Y1.0000 Z-3.0000 F9000.00
G1 X185.3431 Y1.0000 Z-3.0000 F9000.00
G1 X191.0000 Y6.6569 Z-3.0000 F9000.00
G1 X191.0000 Y9.4853 Z-3.0000 F9000.00
G1 X182.5147 Y1.0000 Z-3.0000 F9000.00
G1 X179.6863 Y1.0000 Z-3.0000 F9000.00
G1 X183.3092 Y4.6229 Z-3.0000 F9000.00
G2 X180.3579 Y4.5000 Z-3.0000 I-2.1166 J15.3316 F9000.00
G1 X176.8579 Y1.0000 Z-3.0000 F9000.00
G1 X174.0294 Y1.0000 Z-3.0000 F9000.00
G1 X177.5294 Y4.5000 Z-3.0000 F9000.00
G1 X174.7010 Y4.5000 Z-3.0000 F9000.00
G1 X171.2010 Y1.0000 Z-3.0000 F9000.00
G1 X168.3726 Y1.0000 Z-3.0000 F9000.00
G1 X171.8726 Y4.5000 Z-3.0000 F9000.00
G1 X169.0442 Y4.5000 Z-3.0000 F9000.00
G1 X165.5442 Y1.0000 Z-3.0000 F9000.00
G1 X162.7157 Y1.0000 Z-3.0000 F9000.00
G1 X166.2157 Y4.5000 Z-3.0000 F9000.00
G1 X163.3873 Y4.5000 Z-3.0000 F9000.00
G1 X159.8873 Y1.0000 Z-3.0000 F9000.00
G1 X157.0589 Y1.0000 Z-3.0000 F9000.00
G1 X160.5589 Y4.5000 Z-3.0000 F9000.00
G1 X157.7304 Y4.5000 Z-3.0000 F9000.00
G1 X154.2304 Y1.0000 Z-3.0000 F9000.00
G1 X151.4020 Y1.0000 Z-3.0000 F9000.00
G1 X154.9020 Y4.5000 Z-3.0000 F9000.00
G1 X152.0736 Y4.5000 Z-3.0000 F9000.00
G1 X148.5736 Y1.0000 Z-3.0000 F9000.00
G1 X145.7452 Y1.0000 Z-3.0000 F9000.00
G1 X149.2452 Y4.5000 Z-3.0000 F9000.00
G1 X146.4167 Y4.5000 Z-3.0000 F9000.00
G1 X142.9167 Y1.0000 Z-3.0000 F9000.00
G1 X140.0883 Y1.0000 Z-3.0000 F9000.00
G1 X143.5883 Y4.5000 Z-3.0000 F9000.00
G1 X140.7599 Y4.5000 Z-3.0000 F9000.00
G1 X137.2599 Y1.0000 Z-3.0000 F9000.00
G1 X134.4315 Y1.0000 Z-3.0000 F9000.00
G1 X137.9315 Y4.5000 Z-3.0000 F9000.00
G1 X135.1030 Y4.5000 Z-3.0000 F9000.00
G1 X131.6030 Y1.0000 Z-3.0000 F9000.00
G1 X128.7746 Y1.0000 Z-3.0000 F9000.00
G1 X132.2746 Y4.5000 Z-3.0000 F9000.00
G1 X129.4462 Y4.5000 Z-3.0000 F9000.00
G1 X125.9462 Y1.0000 Z-3.0000 F9000.00
G1 X123.1177 Y1.0000 Z-3.0000 F9000.00
G1 X126.6177 Y4.5000 Z-3.0000 F9000.00
G1 X123.7893 Y4.5000 Z-3.0000 F9000.00
G1 X120.2893 Y1.0000 Z-3.0000 F9000.00
G1 X117.4609 Y1.0000 Z-3.0000 F9000.00
G1 X120.9609 Y4.5000 Z-3.0000 F9000.00
G1 X118.1325 Y4.5000 Z-3.0000 F9000.00
G1 X114.6325 Y1.0000 Z-3.0000 F9000.00
G1 X111.8040 Y1.0000 Z-3.0000 F9000.00
G1 X115.3040 Y4.5000 Z-3.0000 F9000.00
G1 X112.4756 Y4.5000 Z-3.0000 F9000.00
G1 X108.9756 Y1.0000 Z-3.0000 F9000.00
G1 X106.1472 Y1.0000 Z-3.0000 F9000.00
G1 X109.6472 Y4.5000 Z-3.0000 F9000.00
G1 X106.8188 Y4.5000 Z-3.0000 F9000.00
G1 X103.3188 Y1.0000 Z-3.0000 F9000.00
G1 X100.4903 Y1.0000 Z-3.0000 F9000.00
G1 X103.9903 Y4.5000 Z-3.0000 F9000.00
G1 X101.1619 Y4.5000 Z-3.0000 F9000.00
G1 X97.6619 Y1.0000 Z-3.0000 F9000.00
G1 X94.8335 Y1.0000 Z-3.0000 F9000.00
G1 X98.3335 Y4.5000 Z-3.0000 F9000.00
G1 X95.5051 Y4.5000 Z-3.0000 F9000.00
G1 X92.0051 Y1.0000 Z-3.0000 F9000.00
G1 X89.1766 Y1.0000 Z-3.0000 F9000.00
G1 X92.6766 Y4.5000 Z-3.0000 F9000.00
G1 X89.8482 Y4.5000 Z-3.0000 F9000.00
G1 X86.3482 Y1.0000 Z-3.0000 F9000.00
G1 X83.5198 Y1.0000 Z-3.0000 F9000.00
G1 X87.0198 Y4.5000 Z-3.0000 F9000.00
G1 X84.1913 Y4.5000 Z-3.0000 F9000.00
G1 X80.6913 Y1.0000 Z-3.0000 F9000.00
G1 X77.8629 Y1.0000 Z-3.0000 F9000.00
G1 X81.3629 Y4.5000 Z-3.0000 F9000.00
G1 X78.5345 Y4.5000 Z-3.0000 F9000.00
G1 X75.0345 Y1.0000 Z-3.0000 F9000.00
G1 X72.2061 Y1.0000 Z-3.0000 F9000.00
G1 X75.7061 Y4.5000 Z-3.0000 F9000.00
G1 X72.8776 Y4.5000 Z-3.0000 F9000.00
G1 X69.3776 Y1.0000 Z-3.0000 F9000.00
G1 X66.5492 Y1.0000 Z-3.0000 F9000.00
G1 X70.0492 Y4.5000 Z-3.0000 F9000.00
G1 X67.2208 Y4.5000 Z-3.0000 F9000.00
G1 X63.7208 Y1.0000 Z-3.0000 F9000.00
G1 X60.8924 Y1.0000 Z-3.0000 F9000.00
G1 X64.3924 Y4.5000 Z-3.0000 F9000.00
G1 X61.5639 Y4.5000 Z-3.0000 F9000.00
G1 X58.0639 Y1.0000 Z-3.0000 F9000.00
G1 X55.2355 Y1.0000 Z-3.0000 F9000.00
G1 X58.7355 Y4.5000 Z-3.0000 F9000.00
G1 X55.9071 Y4.5000 Z-3.0000 F9000.00
G1 X52.4071 Y1.0000 Z-3.0000 F9000.00
G1 X49.5786 Y1.0000 Z-3.0000 F9000.00
G1 X53.0786 Y4.5000 Z-3.0000 F9000.00
G1 X50.2502 Y4.5000 Z-3.0000 F9000.00
G1 X46.7502 Y1.0000 Z-3.0000 F9000.00
G1 X43.9218 Y1.0000 Z-3.0000 F9000.00
G1 X47.4218 Y4.5000 Z-3.0000 F9000.00
G1 X44.5934 Y4.5000 Z-3.0000 F9000.00
G1 X41.0934 Y1.0000 Z-3.0000 F9000.00
G1 X38.2649 Y1.0000 Z-3.0000 F9000.00
G1 X41.7649 Y4.5000 Z-3.0000 F9000.00
G1 X38.9365 Y4.5000 Z-3.0000 F9000.00
G1 X35.4365 Y1.0000 Z-3.0000 F9000.00
G1 X32.6081 Y1.0000 Z-3.0000 F9000.00
G1 X36.1081 Y4.5000 Z-3.0000 F9000.00
G1 X33.2797 Y4.5000 Z-3.0000 F9000.00
G1 X29.7797 Y1.0000 Z-3.0000 F9000.00
G1 X26.9512 Y1.0000 Z-3.0000 F9000.00
G1 X30.4512 Y4.5000 Z-3.0000 F9000.00
G1 X27.6228 Y4.5000 Z-3.0000 F9000.00
G1 X24.1228 Y1.0000 Z-3.0000 F9000.00
G1 X21.2944 Y1.0000 Z-3.0000 F9000.00
G1 X24.7944 Y4.5000 Z-3.0000 F9000.00
G1 X21.9659 Y4.5000 Z-3.0000 F9000.00
G1 X18.4659 Y1.0000 Z-3.0000 F9000.00
G1 X15.6375 Y1.0000 Z-3.0000 F9000.00
G1 X19.1375 Y4.5000 Z-3.0000 F9000.00
G1 X16.3091 Y4.5000 Z-3.0000 F9000.00
G1 X12.8091 Y1.0000 Z-3.0000 F9000.00
G1 X9.9807 Y1.0000 Z-3.0000 F9000.00
G1 X13.4807 Y4.5000 Z-3.0000 F9000.00
G1 X10.6522 Y4.5000 Z-3.0000 F9000.00
G1 X7.1522 Y1.0000 Z-3.0000 F9000.00
G1 X4.3238 Y1.0000 Z-3.0000 F9000.00
G1 X8.0823 Y4.7585 Z-3.0000 F9000.00
G2 X6.0976 Y5.6022 Z-3.0000 I1.6566 J6.6534 F9000.00
G1 X1.4954 Y1.0000 Z-3.0000 F9000.00
G1 X1.0000 Y1.0000 Z-3.0000 F9000.00
G1 X1.0000 Y3.3330 Z-3.0000 F9000.00
G1 X4.5365 Y6.8695 Z-3.0000 F9000.00
G2 X3.3633 Y8.5248 Z-3.0000 I4.9259 J4.7348 F9000.00
G1 X1.0000 Y6.1615 Z-3.0000 F9000.00
G1 X1.0000 Y8.9899 Z-3.0000 F9000.00
G1 X2.6336 Y10.6235 Z-3.0000 F9000.00
G2 X2.5000 Y13.3183 Z-3.0000 I13.5697 J2.0232 F9000.00
G1 X1.0000 Y11.8183 Z-3.0000 F9000.00
G1 X1.0000 Y14.6468 Z-3.0000 F9000.00
G1 X2.5000 Y16.1468 Z-3.0000 F9000.00
G1 X2.5000 Y18.9752 Z-3.0000 F9000.00
G1 X1.0000 Y17.4752 Z-3.0000 F9000.00
G1 X1.0000 Y20.3036 Z-3.0000 F9000.00
G1 X2.5000 Y21.8036 Z-3.0000 F9000.00
G1 X2.5000 Y24.6320 Z-3.0000 F9000.00
G1 X1.0000 Y23.1320 Z-3.0000 F9000.00
G1 X1.0000 Y25.9605 Z-3.0000 F9000.00
G1 X2.5000 Y27.4605 Z-3.0000 F9000.00
G1 X2.5000 Y30.2889 Z-3.0000 F9000.00
G1 X1.0000 Y28.7889 Z-3.0000 F9000.00
G1 X1.0000 Y31.6173 Z-3.0000 F9000.00
G1 X2.5000 Y33.1173 Z-3.0000 F9000.00
G1 X2.5000 Y35.9457 Z-3.0000 F9000.00
G1 X1.0000 Y34.4457 Z-3.0000 F9000.00
G1 X1.0000 Y37.2742 Z-3.0000 F9000.00
G1 X2.5000 Y38.7742 Z-3.0000 F9000.00
G1 X2.5000 Y41.6026 Z-3.0000 F9000.00
G1 X1.0000 Y40.1026 Z-3.0000 F9000.00
G1 X1.0000 Y42.9310 Z-3.0000 F9000.00
G1 X2.5000 Y44.4310 Z-3.0000 F9000.00
G1 X2.5000 Y47.2595 Z-3.0000 F9000.00
G1 X1.0000 Y45.7595 Z-3.0000 F9000.00
G1 X1.0000 Y48.5879 Z-3.0000 F9000.00
G1 X2.5000 Y50.0879 Z-3.0000 F9000.00
G1 X2.5000 Y52.9163 Z-3.0000 F9000.00
G1 X1.0000 Y51.4163 Z-3.0000 F9000.00
G1 X1.0000 Y54.2447 Z-3.0000 F9000.00
G1 X2.5000 Y55.7447 Z-3.0000 F9000.00
G1 X2.5000 Y58.5732 Z-3.0000 F9000.00
G1 X1.0000 Y57.0732 Z-3.0000 F9000.00
G1 X1.0000 Y59.9016 Z-3.0000 F9000.00
G1 X2.5000 Y61.4016 Z-3.0000 F9000.00
G1 X2.5000 Y64.2300 Z-3.0000 F9000.00
G1 X1.0000 Y62.7300 Z-3.0000 F9000.00
G1 X1.0000 Y65.5584 Z-3.0000 F9000.00
G1 X2.5000 Y67.0584 Z-3.0000 F9000.00
G1 X2.5000 Y69.8869 Z-3.0000 F9000.00
G1 X1.0000 Y68.3869 Z-3.0000 F9000.00
G1 X1.0000 Y71.2153 Z-3.0000 F9000.00
G1 X2.5000 Y72.7153 Z-3.0000 F9000.00
G1 X2.5000 Y75.5437 Z-3.0000 F9000.00
G1 X1.0000 Y74.0437 Z-3.0000 F9000.00
G1 X1.0000 Y76.8721 Z-3.0000 F9000.00
G1 X2.5000 Y78.3721 Z-3.0000 F9000.00
G1 X2.5000 Y81.2006 Z-3.0000 F9000.00
G1 X1.0000 Y79.7006 Z-3.0000 F9000.00
G1 X1.0000 Y82.5290 Z-3.0000 F9000.00
G1 X2.5004 Y84.0295 Z-3.0000 F9000.00
G2 X3.7081 Y88.0655 Z-3.0000 I7.3851 J-0.0110 F9000.00
G1 X1.0000 Y85.3574 Z-3.0000 F9000.00
G0 X1.0000 Y85.3574 Z5.0000
G0 X1.0000 Y93.8427 Z5.0000
G0 X1.0000 Y93.8427 Z0.0000
G1 X1.0000 Y93.8427 Z-3.0000 F9000.00
G1 X2.1573 Y95.0000 Z-3.0000 F9000.00
G1 X1.0000 Y95.0000 Z-3.0000 F9000.00
G1 X1.0000 Y93.8427 Z-3.0000 F9000.00
G1 X1.0000 Y91.0143 Z-3.0000 F9000.00
G1 X4.9857 Y95.0000 Z-3.0000 F9000.00
G1 X7.8141 Y95.0000 Z-3.0000 F9000.00
G1 X1.0000 Y88.1859 Z-3.0000 F9000.00
G1 X1.0000 Y85.3574 Z-3.0000 F9000.00
G1 X3.7081 Y88.0655 Z-3.0000 F9000.00
G2 X5.9345 Y90.2919 Z-3.0000 I6.0480 J-3.8215 F9000.00
G1 X10.6426 Y95.0000 Z-3.0000 F9000.00
G1 X13.4710 Y95.0000 Z-3.0000 F9000.00
G1 X9.9705 Y91.4996 Z-3.0000 F9000.00
G2 X12.7994 Y91.5000 Z-3.0000 I1.4246 J-63.6235 F9000.00
G1 X16.2994 Y95.0000 Z-3.0000 F9000.00
G1 X19.1279 Y95.0000 Z-3.0000 F9000.00
G1 X15.6279 Y91.5000 Z-3.0000 F9000.00
G1 X18.4563 Y91.5000 Z-3.0000 F9000.00
G1 X21.9563 Y95.0000 Z-3.0000 F9000.00
G1 X24.7847 Y95.0000 Z-3.0000 F9000.00
G1 X21.2847 Y91.5000 Z-3.0000 F9000.00
G1 X24.1131 Y91.5000 Z-3.0000 F9000.00
G1 X27.6131 Y95.0000 Z-3.0000 F9000.00
G1 X30.4416 Y95.0000 Z-3.0000 F9000.00
G1 X26.9416 Y91.5000 Z-3.0000 F9000.00
G1 X29.7700 Y91.5000 Z-3.0000 F9000.00
G1 X33.2700 Y95.0000 Z-3.0000 F9000.00
G1 X36.0984 Y95.0000 Z-3.0000 F9000.00
G1 X32.5984 Y91.5000 Z-3.0000 F9000.00
G1 X35.4268 Y91.5000 Z-3.0000 F9000.00
G1 X38.9268 Y95.0000 Z-3.0000 F9000.00
G1 X41.7553 Y95.0000 Z-3.0000 F9000.00
G1 X38.2553 Y91.5000 Z-3.0000 F9000.00
G1 X41.0837 Y91.5000 Z-3.0000 F9000.00
G1 X44.5837 Y95.0000 Z-3.0000 F9000.00
G1 X47.4121 Y95.0000 Z-3.0000 F9000.00
G1 X43.9121 Y91.5000 Z-3.0000 F9000.00
G1 X46.7405 Y91.5000 Z-3.0000 F9000.00
G1 X50.2405 Y95.0000 Z-3.0000 F9000.00
G1 X53.0690 Y95.0000 Z-3.0000 F9000.00
G1 X49.5690 Y91.5000 Z-3.0000 F9000.00
G1 X52.3974 Y91.5000 Z-3.0000 F9000.00
G1 X55.8974 Y95.0000 Z-3.0000 F9000.00
G1 X58.7258 Y95.0000 Z-3.0000 F9000.00
G1 X55.2258 Y91.5000 Z-3.0000 F9000.00
G1 X58.0543 Y91.5000 Z-3.0000 F9000.00
G1 X61.5543 Y95.0000 Z-3.0000 F9000.00
G1 X64.3827 Y95.0000 Z-3.0000 F9000.00
G1 X60.8827 Y91.5000 Z-3.0000 F9000.00
G1 X63.7111 Y91.5000 Z-3.0000 F9000.00
G1 X67.2111 Y95.0000 Z-3.0000 F9000.00
G1 X70.0395 Y95.0000 Z-3.0000 F9000.00
G1 X66.5395 Y91.5000 Z-3.0000 F9000.00
G1 X69.3680 Y91.5000 Z-3.0000 F9000.00
G1 X72.8680 Y95.0000 Z-3.0000 F9000.00
G1 X75.6964 Y95.0000 Z-3.0000 F9000.00
G1 X72.1964 Y91.5000 Z-3.0000 F9000.00
G1 X75.0248 Y91.5000 Z-3.0000 F9000.00
G1 X78.5248 Y95.0000 Z-3.0000 F9000.00
G1 X81.3532 Y95.0000 Z-3.0000 F9000.00
G1 X77.8532 Y91.5000 Z-3.0000 F9000.00
G1 X80.6817 Y91.5000 Z-3.0000 F9000.00
G1 X84.1817 Y95.0000 Z-3.0000 F9000.00
G1 X87.0101 Y95.0000 Z-3.0000 F9000.00
G1 X83.5101 Y91.5000 Z-3.0000 F9000.00
G1 X86.3385 Y91.5000 Z-3.0000 F9000.00
G1 X89.8385 Y95.0000 Z-3.0000 F9000.00
G1 X92.6670 Y95.0000 Z-3.0000 F9000.00
G1 X89.1670 Y91.5000 Z-3.0000 F9000.00
G1 X91.9954 Y91.5000 Z-3.0000 F9000.00
G1 X95.4954 Y95.0000 Z-3.0000 F9000.00
G1 X98.3238 Y95.0000 Z-3.0000 F9000.00
G1 X94.8238 Y91.5000 Z-3.0000 F9000.00
G1 X97.6522 Y91.5000 Z-3.0000 F9000.00
G1 X101.1522 Y95.0000 Z-3.0000 F9000.00
G1 X103.9807 Y95.0000 Z-3.0000 F9000.00
G1 X100.4807 Y91.5000 Z-3.0000 F9000.00
G1 X103.3091 Y91.5000 Z-3.0000 F9000.00
G1 X106.8091 Y95.0000 Z-3.0000 F9000.00
G1 X109.6375 Y95.0000 Z-3.0000 F9000.00
G1 X106.1375 Y91.5000 Z-3.0000 F9000.00
G1 X108.9659 Y91.5000 Z-3.0000 F9000.00
G1 X112.4659 Y95.0000 Z-3.0000 F9000.00
G1 X115.2944 Y95.0000 Z-3.0000 F9000.00
G1 X111.7944 Y91.5000 Z-3.0000 F9000.00
G1 X114.6228 Y91.5000 Z-3.0000 F9000.00
G1 X118.1228 Y95.0000 Z-3.0000 F9000.00
G1 X120.9512 Y95.0000 Z-3.0000 F9000.00
G1 X117.4512 Y91.5000 Z-3.0000 F9000.00
G1 X120.2797 Y91.5000 Z-3.0000 F9000.00
G1 X123.7797 Y95.0000 Z-3.0000 F9000.00
G1 X126.6081 Y95.0000 Z-3.0000 F9000.00
G1 X123.1081 Y91.5000 Z-3.0000 F9000.00
G1 X125.9365 Y91.5000 Z-3.0000 F9000.00
G1 X129.4365 Y95.0000 Z-3.0000 F9000.00
G1 X132.2649 Y95.0000 Z-3.0000 F9000.00
G1 X128.7649 Y91.5000 Z-3.0000 F9000.00
G1 X131.5934 Y91.5000 Z-3.0000 F9000.00
G1 X135.0934 Y95.0000 Z-3.0000 F9000.00
G1 X137.9218 Y95.0000 Z-3.0000 F9000.00
G1 X134.4218 Y91.5000 Z-3.0000 F9000.00
G1 X137.2502 Y91.5000 Z-3.0000 F9000.00
G1 X140.7502 Y95.0000 Z-3.0000 F9000.00
G1 X143.5786 Y95.0000 Z-3.0000 F9000.00
G1 X140.0786 Y91.5000 Z-3.0000 F9000.00
G1 X142.9071 Y91.5000 Z-3.0000 F9000.00
G1 X146.4071 Y95.0000 Z-3.0000 F9000.00
G1 X149.2355 Y95.0000 Z-3.0000 F9000.00
G1 X145.7355 Y91.5000 Z-3.0000 F9000.00
G1 X148.5639 Y91.5000 Z-3.0000 F9000.00
G1 X152.0639 Y95.0000 Z-3.0000 F9000.00
G1 X154.8924 Y95.0000 Z-3.0000 F9000.00
G1 X151.3924 Y91.5000 Z-3.0000 F9000.00
G1 X154.2208 Y91.5000 Z-3.0000 F9000.00
G1 X157.7208 Y95.0000 Z-3.0000 F9000.00
G1 X160.5492 Y95.0000 Z-3.0000 F9000.00
G1 X157.0492 Y91.5000 Z-3.0000 F9000.00
G1 X159.8776 Y91.5000 Z-3.0000 F9000.00
G1 X163.3776 Y95.0000 Z-3.0000 F9000.00
G1 X166.2061 Y95.0000 Z-3.0000 F9000.00
G1 X162.7061 Y91.5000 Z-3.0000 F9000.00
G1 X165.5345 Y91.5000 Z-3.0000 F9000.00
G1 X169.0345 Y95.0000 Z-3.0000 F9000.00
G1 X171.8629 Y95.0000 Z-3.0000 F9000.00
G1 X168.3629 Y91.5000 Z-3.0000 F9000.00
G1 X171.1913 Y91.5000 Z-3.0000 F9000.00
G1 X174.6913 Y95.0000 Z-3.0000 F9000.00
G1 X177.5198 Y95.0000 Z-3.0000 F9000.00
G1 X174.0198 Y91.5000 Z-3.0000 F9000.00
G1 X176.8482 Y91.5000 Z-3.0000 F9000.00
G1 X180.3482 Y95.0000 Z-3.0000 F9000.00
G1 X183.1766 Y95.0000 Z-3.0000 F9000.00
G1 X179.6766 Y91.5000 Z-3.0000 F9000.00
G1 X182.0000 Y91.5000 Z-3.0000 F9000.00
G2 X182.4812 Y91.4762 Z-3.0000 I-0.0688 J-6.2548 F9000.00
G1 X186.0051 Y95.0000 Z-3.0000 F9000.00
G1 X188.8335 Y95.0000 Z-3.0000 F9000.00
G1 X184.7875 Y90.9540 Z-3.0000 F9000.00
G2 X186.5868 Y89.9249 Z-3.0000 I-2.4293 J-6.3350 F9000.00
G1 X191.0000 Y94.3381 Z-3.0000 F9000.00
G1 X191.0000 Y91.5097 Z-3.0000 F9000.00
G1 X187.9930 Y88.5027 Z-3.0000 F9000.00
G2 X188.9963 Y86.6775 Z-3.0000 I-5.4845 J-4.2029 F9000.00
G1 X191.0000 Y88.6812 Z-3.0000 F9000.00
G1 X191.0000 Y85.8528 Z-3.0000 F9000.00
G1 X189.4837 Y84.3365 Z-3.0000 F9000.00
G2 X189.4992 Y84.0393 Z-3.0000 I-22.6996 J-1.3321 F9000.00
G2 X189.5000 Y81.5244 Z-3.0000 I-48.0797 J-1.2722 F9000.00
G1 X191.0000 Y83.0244 Z-3.0000 F9000.00
G1 X191.0000 Y80.1960 Z-3.0000 F9000.00
G1 X189.5000 Y78.6960 Z-3.0000 F9000.00
G1 X189.5000 Y75.8675 Z-3.0000 F9000.00
G1 X191.0000 Y77.3675 Z-3.0000 F9000.00
G1 X191.0000 Y74.5391 Z-3.0000 F9000.00
G1 X189.5000 Y73.0391 Z-3.0000 F9000.00
G1 X189.5000 Y70.2107 Z-3.0000 F9000.00
G1 X191.0000 Y71.7107 Z-3.0000 F9000.00
G1 X191.0000 Y68.8823 Z-3.0000 F9000.00
G1 X189.5000 Y67.3823 Z-3.0000 F9000.00
G1 X189.5000 Y64.5538 Z-3.0000 F9000.00
G1 X191.0000 Y66.0538 Z-3.0000 F9000.00
G1 X191.0000 Y63.2254 Z-3.0000 F9000.00
G1 X189.5000 Y61.7254 Z-3.0000 F9000.00
G1 X189.5000 Y58.8970 Z-3.0000 F9000.00
G1 X191.0000 Y60.3970 Z-3.0000 F9000.00
G1 X191.0000 Y57.5685 Z-3.0000 F9000.00
G1 X189.5000 Y56.0685 Z-3.0000 F9000.00
G1 X189.5000 Y53.2401 Z-3.0000 F9000.00
G1 X191.0000 Y54.7401 Z-3.0000 F9000.00
G1 X191.0000 Y51.9117 Z-3.0000 F9000.00
G1 X189.5000 Y50.4117 Z-3.0000 F9000.00
G1 X189.5000 Y47.5833 Z-3.0000 F9000.00
G1 X191.0000 Y49.0833 Z-3.0000 F9000.00
G1 X191.0000 Y46.2548 Z-3.0000 F9000.00
G1 X189.5000 Y44.7548 Z-3.0000 F9000.00
G1 X189.5000 Y41.9264 Z-3.0000 F9000.00
G1 X191.0000 Y43.4264 Z-3.0000 F9000.00
G1 X191.0000 Y40.5980 Z-3.0000 F9000.00
G1 X189.5000 Y39.0980 Z-3.0000 F9000.00
G1 X189.5000 Y36.2696 Z-3.0000 F9000.00
G1 X191.0000 Y37.7696 Z-3.0000 F9000.00
G1 X191.0000 Y34.9411 Z-3.0000 F9000.00
G1 X189.5000 Y33.4411 Z-3.0000 F9000.00
G1 X189.5000 Y30.6127 Z-3.0000 F9000.00
G1 X191.0000 Y32.1127 Z-3.0000 F9000.00
G1 X191.0000 Y29.2843 Z-3.0000 F9000.00
G1 X189.5000 Y27.7843 Z-3.0000 F9000.00
G1 X189.5000 Y24.9558 Z-3.0000 F9000.00
G1 X191.0000 Y26.4558 Z-3.0000 F9000.00
G1 X191.0000 Y23.6274 Z-3.0000 F9000.00
G1 X189.5000 Y22.1274 Z-3.0000 F9000.00
G1 X189.5000 Y19.2990 Z-3.0000 F9000.00
G1 X191.0000 Y20.7990 Z-3.0000 F9000.00
G1 X191.0000 Y17.9706 Z-3.0000 F9000.00
G1 X189.5000 Y16.4706 Z-3.0000 F9000.00
G1 X189.5000 Y13.6421 Z-3.0000 F9000.00
G1 X191.0000 Y15.1421 Z-3.0000 F9000.00
G1 X191.0000 Y12.3137 Z-3.0000 F9000.00
G1 X189.3771 Y10.6908 Z-3.0000 F9000.00
G1 X189.3771 Y10.6908 Z-3.5000 F9000.00
G1 X191.0000 Y12.3137 Z-3.5000 F9000.00
G1 X191.0000 Y15.1421 Z-3.5000 F9000.00
G1 X189.5000 Y13.6421 Z-3.5000 F9000.00
G1 X189.5000 Y16.4706 Z-3.5000 F9000.00
G1 X191.0000 Y17.9706 Z-3.5000 F9000.00
G1 X191.0000 Y20.7990 Z-3.5000 F9000.00
G1 X189.5000 Y19.2990 Z-3.5000 F9000.00
G1 X189.5000 Y22.1274 Z-3.5000 F9000.00
G1 X191.0000 Y23.6274 Z-3.5000 F9000.00
G1 X191.0000 Y26.4558 Z-3.5000 F9000.00
G1 X189.5000 Y24.9558 Z-3.5000 F9000.00
G1 X189.5000 Y27.7843 Z-3.5000 F9000.00
G1 X191.0000 Y29.2843 Z-3.5000 F9000.00
G1 X191.0000 Y32.1127 Z-3.5000 F9000.00
G1 X189.5000 Y30.6127 Z-3.5000 F9000.00
G1 X189.5000 Y33.4411 Z-3.5000 F9000.00
G1 X191.0000 Y34.9411 Z-3.5000 F9000.00
G1 X191.0000 Y37.7696 Z-3.5000 F9000.00
G1 X189.5000 Y36.2696 Z-3.5000 F9000.00
G1 X189.5000 Y39.0980 Z-3.5000 F9000.00
G1 X191.0000 Y40.5980 Z-3.5000 F9000.00
G1 X191.0000 Y43.4264 Z-3.5000 F9000.00
G1 X189.5000 Y41.9264 Z-3.5000 F9000.00
G1 X189.5000 Y44.7548 Z-3.5000 F9000.00
G1 X191.0000 Y46.2548 Z-3.5000 F9000.00
G1 X191.0000 Y49.0833 Z-3.5000 F9000.00
G1 X189.5000 Y47.5833 Z-3.5000 F9000.00
G1 X189.5000 Y50.4117 Z-3.5000 F9000.00
G1 X191.0000 Y51.9117 Z-3.5000 F9000.00
G1 X191.0000 Y54.7401 Z-3.5000 F9000.00
G1 X189.5000 Y53.2401 Z-3.5000 F9000.00
G1 X189.5000 Y56.0685 Z-3.5000 F9000.00
G1 X191.0000 Y57.5685 Z-3.5000 F9000.00
G1 X191.0000 Y60.3970 Z-3.5000 F9000.00
G1 X189.5000 Y58.8970 Z-3.5000 F9000.00
G1 X189.5000 Y61.7254 Z-3.5000 F9000.00
G1 X191.0000 Y63.2254 Z-3.5000 F9000.00
G1 X191.0000 Y66.0538 Z-3.5000 F9000.00
G1 X189.5000 Y64.5538 Z-3.5000 F9000.00
G1 X189.5000 Y67.3823 Z-3.5000 F9000.00
G1 X191.0000 Y68.8823 Z-3.5000 F9000.00
G1 X191.0000 Y71.7107 Z-3.5000 F9000.00
G1 X189.5000 Y70.2107 Z-3.5000 F9000.00
G1 X189.5000 Y73.0391 Z-3.5000 F9000.00
G1 X191.0000 Y74.5391 Z-3.5000 F9000.00
G1 X191.0000 Y77.3675 Z-3.5000 F9000.00
G1 X189.5000 Y75.8675 Z-3.5000 F9000.00
G1 X189.5000 Y78.6960 Z-3.5000 F9000.00
G1 X191.0000 Y80.1960 Z-3.5000 F9000.00
G1 X191.0000 Y83.0244 Z-3.5000 F9000.00
G1 X189.5000 Y81.5244 Z-3.5000 F9000.00
G3 X189.4992 Y84.0393 Z-3.5000 I-48.0805 J1.2427 F9000.00
G3 X189.4837 Y84.3365 Z-3.5000 I-22.7151 J-1.0348 F9000.00
G1 X191.0000 Y85.8528 Z-3.5000 F9000.00
G1 X191.0000 Y88.6812 Z-3.5000 F9000.00
G1 X188.9963 Y86.6775 Z-3.5000 F9000.00
G3 X187.9930 Y88.5027 Z-3.5000 I-6.4877 J-2.3777 F9000.00
G1 X191.0000 Y91.5097 Z-3.5000 F9000.00
G1 X191.0000 Y94.3381 Z-3.5000 F9000.00
G1 X186.5868 Y89.9249 Z-3.5000 F9000.00
G3 X184.7875 Y90.9540 Z-3.5000 I-4.2286 J-5.3059 F9000.00
G1 X188.8335 Y95.0000 Z-3.5000 F9000.00
G1 X186.0051 Y95.0000 Z-3.5000 F9000.00
G1 X182.4812 Y91.4762 Z-3.5000 F9000.00
G3 X182.0000 Y91.5000 Z-3.5000 I-0.5500 J-6.2310 F9000.00
G1 X179.6766 Y91.5000 Z-3.5000 F9000.00
G1 X183.1766 Y95.0000 Z-3.5000 F9000.00
G1 X180.3482 Y95.0000 Z-3.5000 F9000.00
G1 X176.8482 Y91.5000 Z-3.5000 F9000.00
G1 X174.0198 Y91.5000 Z-3.5000 F9000.00
G1 X177.5198 Y95.0000 Z-3.5000 F9000.00
G1 X174.6913 Y95.0000 Z-3.5000 F9000.00
G1 X171.1913 Y91.5000 Z-3.5000 F9000.00
G1 X168.3629 Y91.5000 Z-3.5000 F9000.00
G1 X171.8629 Y95.0000 Z-3.5000 F9000.00
G1 X169.0345 Y95.0000 Z-3.5000 F9000.00
G1 X165.5345 Y91.5000 Z-3.5000 F9000.00
G1 X162.7061 Y91.5000 Z-3.5000 F9000.00
G1 X166.2061 Y95.0000 Z-3.5000 F9000.00
G1 X163.3776 Y95.0000 Z-3.5000 F9000.00
G1 X159.8776 Y91.5000 Z-3.5000 F9000.00
G1 X157.0492 Y91.5000 Z-3.5000 F9000.00
G1 X160.5492 Y95.0000 Z-3.5000 F9000.00
G1 X157.7208 Y95.0000 Z-3.5000 F9000.00
G1 X154.2208 Y91.5000 Z-3.5000 F9000.00
G1 X151.3924 Y91.5000 Z-3.5000 F9000.00
G1 X154.8924 Y95.0000 Z-3.5000 F9000.00
G1 X152.0639 Y95.0000 Z-3.5000 F9000.00
G1 X148.5639 Y91.5000 Z-3.5000 F9000.00
G1 X145.7355 Y91.5000 Z-3.5000 F9000.00
G1 X149.2355 Y95.0000 Z-3.5000 F9000.00
G1 X146.4071 Y95.0000 Z-3.5000 F9000.00
G1 X142.9071 Y91.5000 Z-3.5000 F9000.00
G1 X140.0786 Y91.5000 Z-3.5000 F9000.00
G1 X143.5786 Y95.0000 Z-3.5000 F9000.00
G1 X140.7502 Y95.0000 Z-3.5000 F9000.00
G1 X137.2502 Y91.5000 Z-3.5000 F9000.00
G1 X134.4218 Y91.5000 Z-3.5000 F9000.00
G1 X137.9218 Y95.0000 Z-3.5000 F9000.00
G1 X135.0934 Y95.0000 Z-3.5000 F9000.00
G1 X131.5934 Y91.5000 Z-3.5000 F9000.00
G1 X128.7649 Y91.5000 Z-3.5000 F9000.00
G1 X132.2649 Y95.0000 Z-3.5000 F9000.00
G1 X129.4365 Y95.0000 Z-3.5000 F9000.00
G1 X125.9365 Y91.5000 Z-3.5000 F9000.00
G1 X123.1081 Y91.5000 Z-3.5000 F9000.00
G1 X126.6081 Y95.0000 Z-3.5000 F9000.00
G1 X123.7797 Y95.0000 Z-3.5000 F9000.00
G1 X120.2797 Y91.5000 Z-3.5000 F9000.00
G1 X117.4512 Y91.5000 Z-3.5000 F9000.00
G1 X120.9512 Y95.0000 Z-3.5000 F9000.00
G1 X118.1228 Y95.0000 Z-3.5000 F9000.00
G1 X114.6228 Y91.5000 Z-3.5000 F9000.00
G1 X111.7944 Y91.5000 Z-3.5000 F9000.00
G1 X115.2944 Y95.0000 Z-3.5000 F9000.00
G1 X112.4659 Y95.0000 Z-3.5000 F9000.00
G1 X108.9659 Y91.5000 Z-3.5000 F9000.00
G1 X106.1375 Y91.5000 Z-3.5000 F9000.00
G1 X109.6375 Y95.0000 Z-3.5000 F9000.00
G1 X106.8091 Y95.0000 Z-3.5000 F9000.00
G1 X103.3091 Y91.5000 Z-3.5000 F9000.00
G1 X100.4807 Y91.5000 Z-3.5000 F9000.00
G1 X103.9807 Y95.0000 Z-3.5000 F9000.00
G1 X101.1522 Y95.0000 Z-3.5000 F9000.00
G1 X97.6522 Y91.5000 Z-3.5000 F9000.00
G1 X94.8238 Y91.5000 Z-3.5000 F9000.00
G1 X98.3238 Y95.0000 Z-3.5000 F9000.00
G1 X95.4954 Y95.0000 Z-3.5000 F9000.00
G1 X91.9954 Y91.5000 Z-3.5000 F9000.00
G1 X89.1670 Y91.5000 Z-3.5000 F9000.00
G1 X92.6670 Y95.0000 Z-3.5000 F9000.00
